;FLAVOR:Marlin
;TIME:5593
;Filament used: 4.84677m
;Layer height: 0.2
;MINX:79.352
;MINY:63.719
;MINZ:0.2
;MAXX:175.672
;MAXY:146.236
;MAXZ:13
;Generated with Cura_SteamEngine 4.12.1
M140 S60
M105
M190 S60
M104 S205
M105
M109 S205
M82 ;absolute extrusion mode
M220 S100 ;reset feedrate
M221 S100 ;reset flowrate
G90 ;use absolute coordinates
M82 ;absolute extrusion mode
G28 ;home
G1 Z2 F1500 ;raise z
G92 E0 ;reset extruder

G1 X75 Y5 F5000 ;start position
G1 Z0.28 F1500 ;lower z
G1 E4 F500 ;prime the filament
G1 X180 E10 F500 ;1st line
G1 Y5.4 F5000
G1 X75 E20 F500 ;2nd line
G1 Z2 F1500 ;raise z
G92 E0 ;reset extruder
G92 E0
G92 E0
G1 F1500 E-6.5
;LAYER_COUNT:65
;LAYER:0
M107
G0 F9000 X81.383 Y66.511 Z0.2
;TYPE:SKIRT
G1 F1500 E0
G1 F1800 X81.917 Y65.932 E0.03275
G1 X82.507 Y65.411 E0.06547
G1 X83.146 Y64.952 E0.09818
G1 X83.829 Y64.56 E0.13092
G1 X84.548 Y64.24 E0.16364
G1 X85.295 Y63.994 E0.19634
G1 X86.064 Y63.825 E0.22907
G1 X86.846 Y63.735 E0.2618
G1 X87.34 Y63.719 E0.28235
G1 X98.556 Y63.719 E0.74865
G1 X99.342 Y63.759 E0.78138
G1 X99.886 Y63.842 E0.80425
G1 X99.918 Y63.835 E0.80562
G1 X100.699 Y63.74 E0.83833
G1 X101.249 Y63.72 E0.86121
G1 X107.252 Y63.719 E1.11078
G1 X108.038 Y63.759 E1.1435
G1 X108.731 Y63.865 E1.17265
G1 X109.49 Y63.754 E1.20454
G1 X110.222 Y63.719 E1.23501
G1 X116.964 Y63.719 E1.51531
G1 X117.75 Y63.759 E1.54803
G1 X118.528 Y63.878 E1.58075
G1 X119.483 Y64.14 E1.62192
G1 X119.611 Y64.184 E1.62755
G1 X120.342 Y64.477 E1.66029
G1 X121.039 Y64.843 E1.69302
G1 X121.854 Y65.399 E1.73404
G1 X122.184 Y65.656 E1.75143
G1 X122.403 Y65.845 E1.76345
G1 X122.46 Y65.789 E1.76678
G1 X123.126 Y65.266 E1.80198
G1 X123.333 Y65.121 E1.81249
G1 X123.999 Y64.703 E1.84518
G1 X124.705 Y64.355 E1.87791
G1 X125.443 Y64.08 E1.91065
G1 X126.204 Y63.881 E1.94335
G1 X126.982 Y63.76 E1.97609
G1 X127.78 Y63.719 E2.00931
G1 X148.894 Y63.721 E2.88712
G1 X149.68 Y63.761 E2.91985
G1 X150.458 Y63.881 E2.95257
G1 X151.22 Y64.079 E2.98531
G1 X151.958 Y64.353 E3.01803
G1 X152.664 Y64.7 E3.05074
G1 X153.331 Y65.118 E3.08347
G1 X153.841 Y65.506 E3.11011
G1 X154.064 Y65.691 E3.12215
G1 X154.644 Y66.224 E3.1549
G1 X155.166 Y66.813 E3.18762
G1 X155.626 Y67.451 E3.22033
G1 X156.019 Y68.134 E3.25309
G1 X156.341 Y68.852 E3.2858
G1 X156.588 Y69.599 E3.31851
G1 X156.741 Y70.268 E3.34704
G1 X157.249 Y73.059 E3.46499
G1 X157.35 Y73.84 E3.49773
G1 X157.372 Y74.627 E3.53046
G1 X157.314 Y75.412 E3.56319
G1 X157.22 Y75.986 E3.58737
G1 X157.189 Y76.139 E3.59386
G1 X156.993 Y76.902 E3.62661
G1 X156.722 Y77.64 E3.65929
G1 X156.377 Y78.348 E3.69204
G1 X156.006 Y78.951 E3.72147
G1 X153.715 Y82.328 E3.89113
G1 X154.104 Y82.753 E3.91509
G1 X154.615 Y83.448 E3.95095
G1 X154.779 Y83.699 E3.96342
G1 X155.175 Y84.379 E3.99613
G1 X155.501 Y85.096 E4.02888
G1 X155.7 Y85.688 E4.05484
G1 X156.106 Y85.813 E4.0725
G1 X156.319 Y85.897 E4.08202
G1 X157.036 Y86.223 E4.11477
G1 X157.716 Y86.62 E4.14751
G1 X158.352 Y87.083 E4.18021
G1 X158.938 Y87.609 E4.21295
G1 X159.688 Y88.473 E4.26052
G1 X163.099 Y93.046 E4.49771
G1 X163.537 Y93.7 E4.53043
G1 X163.907 Y94.395 E4.56316
G1 X164.204 Y95.124 E4.59589
G1 X164.49 Y96.177 E4.64126
G1 X164.525 Y96.354 E4.64876
G1 X164.638 Y97.133 E4.68148
G1 X164.672 Y97.919 E4.71419
G1 X164.625 Y98.705 E4.74693
G1 X164.457 Y99.671 E4.78769
G1 X164.162 Y100.896 E4.84008
G1 X163.939 Y101.651 E4.87281
G1 X163.64 Y102.38 E4.90557
G1 X163.392 Y102.845 E4.92748
G1 X167.688 Y104.316 E5.11626
G1 X168.419 Y104.608 E5.14899
G1 X169.116 Y104.973 E5.1817
G1 X169.758 Y105.396 E5.21367
G1 X169.859 Y105.47 E5.21887
G1 X170.47 Y105.967 E5.25162
G1 X171.027 Y106.523 E5.28434
G1 X171.562 Y107.185 E5.31972
G1 X173.464 Y109.819 E5.4548
G1 X173.892 Y110.48 E5.48754
G1 X174.251 Y111.18 E5.52024
G1 X174.536 Y111.914 E5.55298
G1 X174.746 Y112.673 E5.58572
G1 X174.852 Y113.254 E5.61027
G1 X174.88 Y113.449 E5.61846
G1 X174.952 Y114.233 E5.6512
G1 X174.945 Y115.02 E5.68392
G1 X174.857 Y115.803 E5.71668
G1 X174.691 Y116.572 E5.74938
G1 X174.513 Y117.143 E5.77425
G1 X173.445 Y120.153 E5.90704
G1 X173.459 Y120.167 E5.90786
G1 X173.966 Y120.768 E5.94055
G1 X174.453 Y121.49 E5.97676
G1 X174.584 Y121.71 E5.9874
G1 X174.952 Y122.406 E6.02013
G1 X175.247 Y123.135 E6.05283
G1 X175.467 Y123.891 E6.08556
G1 X175.609 Y124.666 E6.11832
G1 X175.672 Y125.45 E6.15102
G1 X175.648 Y126.325 E6.18741
G1 X174.751 Y136.978 E6.63188
G1 X174.645 Y137.758 E6.66461
G1 X174.461 Y138.524 E6.69736
G1 X174.199 Y139.266 E6.73008
G1 X173.864 Y139.978 E6.76279
G1 X173.618 Y140.407 E6.78335
G1 X173.514 Y140.575 E6.79156
G1 X173.066 Y141.223 E6.82432
G1 X172.555 Y141.821 E6.85702
G1 X171.985 Y142.365 E6.88978
G1 X171.364 Y142.848 E6.92249
G1 X170.852 Y143.177 E6.94779
G1 X170.15 Y143.59 E6.98165
G1 X167.547 Y145.134 E7.10748
G1 X166.85 Y145.5 E7.14021
G1 X166.12 Y145.794 E7.17293
G1 X165.364 Y146.013 E7.20565
G1 X164.663 Y146.144 E7.2353
G1 X164.498 Y146.167 E7.24222
G1 X163.714 Y146.236 E7.27494
G1 X162.927 Y146.225 E7.30767
G1 X162.145 Y146.134 E7.3404
G1 X161.3 Y145.943 E7.37642
G1 X132.972 Y137.852 E8.60125
G1 X132.227 Y137.598 E8.63398
G1 X131.511 Y137.269 E8.66674
G1 X130.833 Y136.87 E8.69944
G1 X130.199 Y136.403 E8.73218
G1 X129.479 Y135.736 E8.77299
G1 X129.329 Y135.578 E8.78204
G1 X128.817 Y134.98 E8.81477
G1 X128.368 Y134.334 E8.84748
G1 X127.987 Y133.645 E8.88022
G1 X127.678 Y132.921 E8.91294
G1 X127.428 Y132.107 E8.94835
G1 X123.41 Y115.897 E9.64267
G1 X123.259 Y115.124 E9.67542
G1 X123.178 Y114.908 E9.68501
G1 X122.914 Y114.154 E9.71822
G1 X121.89 Y110.658 E9.86968
G1 X121.603 Y110.133 E9.89455
G1 X119.169 Y107.364 E10.04783
G1 X118.68 Y106.747 E10.08056
G1 X118.486 Y106.443 E10.09555
G1 X118.38 Y106.36 E10.10115
G1 X117.629 Y105.616 E10.1451
G1 X114.612 Y102.186 E10.33502
G1 X114.123 Y101.569 E10.36775
G1 X113.912 Y101.24 E10.384
G1 X113.537 Y100.919 E10.40452
G1 X113.045 Y100.408 E10.43401
G1 X109.939 Y96.871 E10.62971
G1 X109.45 Y96.254 E10.66245
G1 X109.226 Y95.904 E10.67972
G1 X109.093 Y95.8 E10.68674
G1 X108.334 Y95.049 E10.73113
G1 X105.403 Y91.719 E10.91557
G1 X104.914 Y91.103 E10.94827
G1 X104.699 Y90.767 E10.96485
G1 X104.575 Y90.67 E10.9714
G1 X104.127 Y90.223 E10.99771
G1 X102.46 Y89.359 E11.07577
G1 X101.78 Y88.961 E11.10853
G1 X101.486 Y88.746 E11.12367
G1 X101.456 Y88.738 E11.12496
G1 X100.723 Y88.449 E11.15772
G1 X100.363 Y88.273 E11.17438
G1 X96.009 Y86.014 E11.37831
G1 X95.329 Y85.617 E11.41105
G1 X94.95 Y85.339 E11.43059
G1 X94.575 Y85.221 E11.44693
G1 X93.838 Y84.903 E11.4803
G1 X84.302 Y80.183 E11.92267
G1 X83.615 Y79.798 E11.95541
G1 X82.971 Y79.346 E11.98812
G1 X82.106 Y78.558 E12.03677
G1 X82.004 Y78.45 E12.04295
G1 X81.493 Y77.851 E12.07568
G1 X81.046 Y77.204 E12.10838
G1 X80.666 Y76.514 E12.14113
G1 X80.471 Y76.078 E12.16098
G1 X79.934 Y74.773 E12.21965
G1 X79.672 Y74.031 E12.25237
G1 X79.486 Y73.266 E12.2851
G1 X79.379 Y72.486 E12.31783
G1 X79.352 Y71.699 E12.35057
G1 X79.405 Y70.914 E12.38328
G1 X79.537 Y70.138 E12.41601
G1 X79.747 Y69.379 E12.44875
G1 X80.033 Y68.646 E12.48146
G1 X80.391 Y67.945 E12.51419
G1 X80.672 Y67.496 E12.53621
G1 X80.911 Y67.141 E12.554
G1 X81.383 Y66.511 E12.58673
G0 F9000 X81.784 Y66.812
G1 F1800 X82.303 Y66.255 E12.61838
G1 X82.877 Y65.755 E12.65003
G1 X83.501 Y65.319 E12.68168
G1 X84.167 Y64.95 E12.71333
G1 X84.868 Y64.653 E12.74498
G1 X85.597 Y64.432 E12.77665
G1 X86.344 Y64.288 E12.80828
G1 X87.34 Y64.219 E12.84979
G1 X98.556 Y64.219 E13.3161
G1 X99.316 Y64.259 E13.34774
G1 X99.91 Y64.353 E13.37274
G1 X100.127 Y64.307 E13.38196
G1 X101.249 Y64.22 E13.42875
G1 X107.252 Y64.219 E13.67833
G1 X108.012 Y64.259 E13.70997
G1 X108.752 Y64.376 E13.74111
G1 X108.906 Y64.339 E13.7477
G1 X109.661 Y64.241 E13.77935
G1 X110.222 Y64.219 E13.80269
G1 X116.964 Y64.219 E14.08299
G1 X117.724 Y64.259 E14.11463
G1 X118.476 Y64.378 E14.14629
G1 X119.321 Y64.613 E14.18275
G1 X119.449 Y64.657 E14.18838
G1 X120.155 Y64.942 E14.22003
G1 X120.827 Y65.299 E14.25167
G1 X121.547 Y65.793 E14.28797
G1 X121.877 Y66.05 E14.30536
G1 X122.42 Y66.521 E14.33525
G1 X122.885 Y66.083 E14.3618
G1 X123.412 Y65.676 E14.38949
G1 X123.619 Y65.531 E14.4
G1 X124.265 Y65.127 E14.43167
G1 X124.949 Y64.794 E14.4633
G1 X125.665 Y64.534 E14.49497
G1 X126.404 Y64.351 E14.52662
G1 X127.158 Y64.246 E14.55827
G1 X127.78 Y64.219 E14.58416
G1 X148.894 Y64.221 E15.46198
G1 X149.654 Y64.261 E15.49362
G1 X150.406 Y64.381 E15.52528
G1 X151.141 Y64.578 E15.55691
G1 X151.851 Y64.852 E15.58855
G1 X152.529 Y65.199 E15.62022
G1 X153.167 Y65.615 E15.65188
G1 X153.522 Y65.891 E15.67058
G1 X153.745 Y66.076 E15.68262
G1 X154.305 Y66.592 E15.71428
G1 X154.807 Y67.164 E15.74592
G1 X155.247 Y67.786 E15.7776
G1 X155.619 Y68.45 E15.80924
G1 X155.919 Y69.15 E15.84091
G1 X156.144 Y69.877 E15.87255
G1 X156.249 Y70.358 E15.89301
G1 X156.757 Y73.149 E16.01096
G1 X156.854 Y73.904 E16.0426
G1 X156.871 Y74.665 E16.07425
G1 X156.808 Y75.424 E16.10591
G1 X156.73 Y75.887 E16.12544
G1 X156.699 Y76.04 E16.13193
G1 X156.508 Y76.777 E16.16358
G1 X156.242 Y77.49 E16.19522
G1 X155.902 Y78.171 E16.22686
G1 X155.592 Y78.671 E16.25132
G1 X153.066 Y82.393 E16.43834
G1 X153.309 Y82.617 E16.45208
G1 X153.812 Y83.188 E16.48371
G1 X154.196 Y83.721 E16.51102
G1 X154.36 Y83.972 E16.52349
G1 X154.743 Y84.631 E16.55518
G1 X155.054 Y85.325 E16.5868
G1 X155.291 Y86.049 E16.61847
G1 X155.298 Y86.08 E16.61979
G1 X155.923 Y86.279 E16.64706
G1 X156.136 Y86.363 E16.65658
G1 X156.828 Y86.679 E16.68821
G1 X157.484 Y87.066 E16.71987
G1 X158.095 Y87.519 E16.75149
G1 X158.656 Y88.034 E16.78316
G1 X159.287 Y88.772 E16.82352
G1 X162.698 Y93.345 E17.06071
G1 X163.121 Y93.979 E17.0924
G1 X163.475 Y94.653 E17.12405
G1 X163.756 Y95.36 E17.15568
G1 X163.999 Y96.274 E17.195
G1 X164.034 Y96.451 E17.2025
G1 X164.143 Y97.204 E17.23413
G1 X164.171 Y97.965 E17.26579
G1 X164.12 Y98.725 E17.29746
G1 X163.971 Y99.554 E17.33248
G1 X163.676 Y100.779 E17.38487
G1 X163.459 Y101.509 E17.41653
G1 X163.166 Y102.212 E17.44819
G1 X162.802 Y102.881 E17.47986
G1 X162.64 Y103.116 E17.49172
G1 X167.526 Y104.789 E17.70644
G1 X168.232 Y105.073 E17.73808
G1 X168.905 Y105.429 E17.76973
G1 X169.463 Y105.8 E17.79759
G1 X169.564 Y105.874 E17.80279
G1 X170.154 Y106.355 E17.83444
G1 X170.689 Y106.896 E17.86607
G1 X171.157 Y107.478 E17.89712
G1 X173.059 Y110.112 E18.0322
G1 X173.471 Y110.751 E18.06381
G1 X173.815 Y111.431 E18.09549
G1 X174.085 Y112.143 E18.12715
G1 X174.279 Y112.879 E18.15879
G1 X174.357 Y113.326 E18.17766
G1 X174.385 Y113.521 E18.18585
G1 X174.454 Y114.279 E18.21749
G1 X174.442 Y115.04 E18.24914
G1 X174.351 Y115.796 E18.28079
G1 X174.181 Y116.538 E18.31244
G1 X174.041 Y116.976 E18.33156
G1 X172.866 Y120.288 E18.47767
G1 X173.161 Y120.581 E18.49495
G1 X173.643 Y121.171 E18.52663
G1 X174.023 Y121.746 E18.55528
G1 X174.154 Y121.966 E18.56593
G1 X174.509 Y122.639 E18.59756
G1 X174.791 Y123.347 E18.62924
G1 X174.997 Y124.079 E18.66086
G1 X175.126 Y124.83 E18.69254
G1 X175.174 Y125.59 E18.7242
G1 X175.149 Y126.283 E18.75303
G1 X174.252 Y136.936 E19.1975
G1 X174.149 Y137.691 E19.22918
G1 X173.967 Y138.43 E19.26082
G1 X173.708 Y139.146 E19.29247
G1 X173.192 Y140.144 E19.33918
G1 X173.088 Y140.312 E19.3474
G1 X172.654 Y140.937 E19.37903
G1 X172.157 Y141.514 E19.4107
G1 X171.602 Y142.035 E19.44234
G1 X170.995 Y142.495 E19.47401
G1 X170.598 Y142.746 E19.49354
G1 X169.895 Y143.16 E19.52745
G1 X167.292 Y144.704 E19.65328
G1 X166.617 Y145.057 E19.68495
G1 X165.91 Y145.338 E19.71658
G1 X165.177 Y145.543 E19.74822
G1 X164.594 Y145.649 E19.77286
G1 X164.429 Y145.672 E19.77979
G1 X163.67 Y145.737 E19.81146
G1 X162.909 Y145.722 E19.8431
G1 X162.154 Y145.628 E19.87473
G1 X161.437 Y145.462 E19.90533
G1 X133.109 Y137.371 E21.13017
G1 X132.389 Y137.124 E21.16182
G1 X131.699 Y136.803 E21.19346
G1 X131.046 Y136.411 E21.22512
G1 X130.438 Y135.952 E21.25679
G1 X129.842 Y135.392 E21.29079
G1 X129.692 Y135.234 E21.29985
G1 X129.198 Y134.655 E21.33149
G1 X128.767 Y134.027 E21.36316
G1 X128.404 Y133.358 E21.3948
G1 X128.113 Y132.654 E21.42648
G1 X127.913 Y131.986 E21.45547
G1 X123.895 Y115.776 E22.14979
G1 X123.751 Y115.029 E22.18142
G1 X123.743 Y114.934 E22.18539
G1 X123.576 Y114.556 E22.20257
G1 X123.393 Y114.013 E22.22639
G1 X122.35 Y110.457 E22.38046
G1 X122.016 Y109.846 E22.40941
G1 X119.545 Y107.034 E22.56504
G1 X119.073 Y106.436 E22.59672
G1 X118.859 Y106.097 E22.61338
G1 X118.594 Y105.882 E22.62757
G1 X118.004 Y105.285 E22.66247
G1 X114.987 Y101.855 E22.85238
G1 X114.515 Y101.258 E22.88402
G1 X114.305 Y100.925 E22.90039
G1 X113.755 Y100.434 E22.93104
G1 X113.42 Y100.078 E22.95137
G1 X110.314 Y96.541 E23.14707
G1 X109.843 Y95.943 E23.17872
G1 X109.601 Y95.559 E23.19759
G1 X109.288 Y95.305 E23.21435
G1 X108.71 Y94.719 E23.24857
G1 X105.779 Y91.389 E23.433
G1 X105.307 Y90.792 E23.46464
G1 X105.073 Y90.423 E23.48281
G1 X104.754 Y90.16 E23.5
G1 X104.408 Y89.806 E23.52058
G1 X102.69 Y88.915 E23.60104
G1 X102.033 Y88.529 E23.63272
G1 X101.699 Y88.282 E23.64999
G1 X101.45 Y88.206 E23.66081
G1 X100.593 Y87.829 E23.69974
G1 X96.239 Y85.57 E23.90367
G1 X95.583 Y85.185 E23.93529
G1 X95.194 Y84.897 E23.95542
G1 X94.563 Y84.68 E23.98316
G1 X94.06 Y84.455 E24.00607
G1 X84.524 Y79.735 E24.44844
G1 X83.86 Y79.362 E24.4801
G1 X83.239 Y78.921 E24.51176
G1 X82.469 Y78.215 E24.5552
G1 X82.367 Y78.107 E24.56137
G1 X81.874 Y77.527 E24.59302
G1 X81.445 Y76.898 E24.62467
G1 X80.933 Y75.888 E24.67175
G1 X80.396 Y74.583 E24.73042
G1 X80.144 Y73.865 E24.76206
G1 X79.968 Y73.124 E24.79372
G1 X79.871 Y72.369 E24.82537
G1 X79.854 Y71.608 E24.85702
G1 X79.917 Y70.849 E24.88868
G1 X80.059 Y70.101 E24.92033
G1 X80.278 Y69.372 E24.95198
G1 X80.573 Y68.67 E24.98364
G1 X81.087 Y67.775 E25.02655
G1 X81.326 Y67.42 E25.04434
G1 X81.784 Y66.812 E25.07599
G0 F9000 X82.183 Y67.113
G1 F1800 X82.687 Y66.579 E25.10652
G1 X83.246 Y66.102 E25.13707
G1 X83.854 Y65.689 E25.16763
G1 X84.502 Y65.344 E25.19815
G1 X85.185 Y65.072 E25.22871
G1 X85.893 Y64.876 E25.25925
G1 X86.618 Y64.758 E25.28979
G1 X87.34 Y64.719 E25.31985
G1 X98.556 Y64.719 E25.78616
G1 X99.289 Y64.759 E25.81668
G1 X99.92 Y64.863 E25.84327
G1 X100.332 Y64.783 E25.86072
G1 X101.249 Y64.72 E25.89893
G1 X107.252 Y64.719 E26.14851
G1 X107.985 Y64.759 E26.17903
G1 X108.71 Y64.878 E26.20957
G1 X108.755 Y64.891 E26.21152
G1 X109.099 Y64.813 E26.22618
G1 X109.829 Y64.73 E26.25673
G1 X110.222 Y64.719 E26.27308
G1 X116.964 Y64.719 E26.55338
G1 X117.697 Y64.759 E26.5839
G1 X118.422 Y64.878 E26.61444
G1 X119.158 Y65.086 E26.64624
G1 X119.286 Y65.13 E26.65187
G1 X119.967 Y65.406 E26.68242
G1 X120.614 Y65.754 E26.71296
G1 X121.239 Y66.187 E26.74457
G1 X121.569 Y66.444 E26.76196
G1 X122.124 Y66.927 E26.79255
G1 X122.428 Y67.256 E26.81117
G1 X122.764 Y66.876 E26.83226
G1 X123.307 Y66.382 E26.86278
G1 X123.699 Y66.085 E26.88323
G1 X123.906 Y65.94 E26.89373
G1 X124.53 Y65.552 E26.92428
G1 X125.192 Y65.234 E26.95482
G1 X125.885 Y64.99 E26.98536
G1 X126.6 Y64.823 E27.01589
G1 X127.329 Y64.734 E27.04642
G1 X127.78 Y64.719 E27.06518
G1 X148.894 Y64.721 E27.943
G1 X149.627 Y64.761 E27.97352
G1 X150.352 Y64.881 E28.00407
G1 X151.059 Y65.078 E28.03459
G1 X151.741 Y65.351 E28.06513
G1 X152.389 Y65.697 E28.09567
G1 X153.203 Y66.276 E28.1372
G1 X153.426 Y66.461 E28.14924
G1 X153.965 Y66.96 E28.17978
G1 X154.446 Y67.515 E28.21032
G1 X154.865 Y68.118 E28.24084
G1 X155.215 Y68.764 E28.27139
G1 X155.493 Y69.444 E28.30193
G1 X155.757 Y70.447 E28.34505
G1 X156.265 Y73.238 E28.463
G1 X156.357 Y73.967 E28.49354
G1 X156.369 Y74.702 E28.52411
G1 X156.24 Y75.787 E28.56953
G1 X156.209 Y75.94 E28.57602
G1 X156.024 Y76.651 E28.60657
G1 X155.763 Y77.338 E28.63712
G1 X155.429 Y77.992 E28.66765
G1 X155.179 Y78.39 E28.68719
G1 X152.407 Y82.475 E28.89244
G1 X152.509 Y82.553 E28.89778
G1 X153.041 Y83.06 E28.92833
G1 X153.515 Y83.621 E28.95886
G1 X153.778 Y83.995 E28.97787
G1 X153.942 Y84.246 E28.99034
G1 X154.309 Y84.882 E29.02087
G1 X154.606 Y85.554 E29.05141
G1 X154.828 Y86.254 E29.08194
G1 X154.872 Y86.472 E29.09119
G1 X154.957 Y86.489 E29.09479
G1 X155.739 Y86.744 E29.12899
G1 X155.952 Y86.828 E29.13851
G1 X156.62 Y87.134 E29.16906
G1 X157.25 Y87.511 E29.19958
