;FLAVOR:Marlin
;TIME:3440
;Filament used: 3.95338m
;Layer height: 0.2
;MINX:74.513
;MINY:97.683
;MINZ:0.1
;MAXX:152.314
;MAXY:135.696
;MAXZ:47.7
;Generated with Cura_SteamEngine 4.2.1
M140 S60
M105
M190 S60
M104 S200
M105
M109 S200
M82 ;absolute extrusion mode
G21
G90
M106 S0
G28 X0 Y0
G28 Z0
G1 Z15.0 F1200
G92 E0
G1 E20 F200
G92 E0
M141 S28
G92 E0
G92 E0
G1 F1500 E-6.5
;LAYER_COUNT:239
;LAYER:0
M107
G0 F1800 X81.291 Y104.695 Z0.1
;TYPE:SKIRT
G1 F1500 E0
G1 F900 X81.383 Y104.626 E0.00191
G1 X81.907 Y104.243 E0.01271
G1 X82.056 Y104.139 E0.01573
G1 X82.463 Y103.872 E0.02382
G1 X82.561 Y103.81 E0.02575
G1 X83.065 Y103.502 E0.03557
G1 X83.201 Y103.423 E0.03819
G1 X83.648 Y103.176 E0.04668
G1 X83.76 Y103.117 E0.04879
G1 X84.29 Y102.848 E0.05867
G1 X84.444 Y102.774 E0.06151
G1 X84.916 Y102.562 E0.07012
G1 X85.02 Y102.517 E0.072
G1 X85.542 Y102.302 E0.08139
G1 X85.66 Y102.256 E0.0835
G1 X85.854 Y102.184 E0.08694
G1 X85.913 Y102.163 E0.08798
G1 X86.189 Y102.066 E0.09285
G1 X86.284 Y102.034 E0.09451
G1 X86.889 Y101.84 E0.10508
G1 X87.071 Y101.787 E0.10823
G1 X87.572 Y101.655 E0.11685
G1 X87.675 Y101.629 E0.11861
G1 X88.248 Y101.496 E0.1284
G1 X88.412 Y101.462 E0.13118
G1 X88.886 Y101.375 E0.1392
G1 X89.003 Y101.356 E0.14117
G1 X89.597 Y101.267 E0.15115
G1 X89.777 Y101.244 E0.15417
G1 X90.092 Y101.213 E0.15944
G1 X90.217 Y101.203 E0.16152
G1 X90.422 Y101.19 E0.16494
G1 X90.624 Y101.183 E0.1683
G1 X92.158 Y101.172 E0.19381
G1 X92.222 Y101.172 E0.19487
G1 X92.988 Y101.18 E0.20761
G1 X93.265 Y101.194 E0.21223
G1 X94.37 Y101.291 E0.23067
G1 X94.435 Y101.297 E0.23176
G1 X96.099 Y101.474 E0.25959
G1 X98.789 Y101.683 E0.30446
G1 X101.551 Y101.818 E0.35044
G1 X104.248 Y101.876 E0.39531
G1 X106.976 Y101.855 E0.44067
G1 X109.71 Y101.758 E0.48617
G1 X112.431 Y101.584 E0.53151
G1 X115.149 Y101.333 E0.5769
G1 X117.863 Y101.005 E0.62237
G1 X120.532 Y100.605 E0.66725
G1 X123.254 Y100.118 E0.71323
G1 X125.849 Y99.577 E0.75732
G1 X128.567 Y98.932 E0.80377
G1 X130.019 Y98.539 E0.82879
G1 X130.052 Y98.53 E0.82936
G1 X131.488 Y98.156 E0.85404
G1 X131.584 Y98.133 E0.85568
G1 X132.129 Y98.007 E0.86498
G1 X132.297 Y97.972 E0.86783
G1 X132.798 Y97.881 E0.8763
G1 X132.907 Y97.863 E0.87814
G1 X133.467 Y97.779 E0.88756
G1 X133.644 Y97.757 E0.89052
G1 X133.855 Y97.736 E0.89405
G1 X133.98 Y97.726 E0.89613
G1 X134.32 Y97.704 E0.9018
G1 X134.419 Y97.698 E0.90345
G1 X134.635 Y97.69 E0.90704
G1 X134.741 Y97.688 E0.90881
G1 X135.408 Y97.683 E0.9199
G1 X135.476 Y97.683 E0.92103
G1 X136.357 Y97.693 E0.93568
G1 X136.453 Y97.696 E0.93728
G1 X136.663 Y97.704 E0.94077
G1 X136.742 Y97.707 E0.94209
G1 X137.358 Y97.744 E0.95235
G1 X137.666 Y97.776 E0.9575
G1 X138.264 Y97.864 E0.96755
G1 X138.372 Y97.882 E0.96937
G1 X138.849 Y97.967 E0.97743
G1 X139.006 Y97.999 E0.9801
G1 X139.362 Y98.079 E0.98616
G1 X139.472 Y98.105 E0.98804
G1 X139.697 Y98.163 E0.99191
G1 X139.827 Y98.199 E0.99415
G1 X140.806 Y98.491 E1.01114
G1 X140.921 Y98.528 E1.01315
G1 X141.273 Y98.646 E1.01932
G1 X141.466 Y98.716 E1.02274
G1 X142.021 Y98.938 E1.03268
G1 X142.122 Y98.981 E1.0345
G1 X142.611 Y99.194 E1.04337
G1 X142.786 Y99.275 E1.04658
G1 X143.243 Y99.504 E1.05508
G1 X143.339 Y99.554 E1.05688
G1 X143.823 Y99.815 E1.06603
G1 X143.958 Y99.892 E1.06861
G1 X144.357 Y100.13 E1.07634
G1 X144.47 Y100.201 E1.07856
G1 X144.967 Y100.523 E1.0884
G1 X145.125 Y100.631 E1.09159
G1 X145.534 Y100.928 E1.09999
G1 X145.617 Y100.99 E1.10172
G1 X146.045 Y101.32 E1.1107
G1 X146.171 Y101.422 E1.1134
G1 X146.52 Y101.717 E1.121
G1 X146.615 Y101.8 E1.1231
G1 X147.058 Y102.202 E1.13304
G1 X147.167 Y102.304 E1.13553
G1 X147.452 Y102.585 E1.14218
G1 X147.54 Y102.676 E1.14429
G1 X147.971 Y103.132 E1.15472
G1 X148.084 Y103.257 E1.15753
G1 X148.324 Y103.536 E1.16365
G1 X148.4 Y103.628 E1.16563
G1 X148.581 Y103.853 E1.17043
G1 X148.654 Y103.946 E1.1724
G1 X149.193 Y104.663 E1.18732
G1 X149.389 Y104.953 E1.19314
G1 X149.949 Y105.872 E1.21103
G1 X150.012 Y105.979 E1.2131
G1 X150.397 Y106.663 E1.22615
G1 X150.438 Y106.739 E1.22759
G1 X150.555 Y106.959 E1.23173
G1 X150.597 Y107.039 E1.23323
G1 X150.871 Y107.587 E1.24342
G1 X150.997 Y107.869 E1.24856
G1 X151.222 Y108.436 E1.2587
G1 X151.259 Y108.532 E1.26041
G1 X151.409 Y108.944 E1.26771
G1 X151.446 Y109.053 E1.26962
G1 X151.51 Y109.248 E1.27303
G1 X151.551 Y109.38 E1.27533
G1 X151.667 Y109.785 E1.28234
G1 X151.706 Y109.935 E1.28492
G1 X151.948 Y110.942 E1.30214
G1 X151.973 Y111.05 E1.30398
G1 X152.047 Y111.406 E1.31003
G1 X152.086 Y111.633 E1.31386
G1 X152.174 Y112.253 E1.32427
G1 X152.186 Y112.344 E1.3258
G1 X152.244 Y112.844 E1.33417
G1 X152.262 Y113.045 E1.33753
G1 X152.293 Y113.566 E1.34621
G1 X152.297 Y113.676 E1.34804
G1 X152.313 Y114.227 E1.3572
G1 X152.314 Y114.402 E1.36011
G1 X152.304 Y114.907 E1.36851
G1 X152.3 Y115.02 E1.37039
G1 X152.271 Y115.586 E1.37982
G1 X152.256 Y115.782 E1.38309
G1 X152.198 Y116.329 E1.39224
G1 X152.186 Y116.429 E1.39391
G1 X152.116 Y116.949 E1.40264
G1 X152.09 Y117.114 E1.40541
G1 X152.01 Y117.553 E1.41284
G1 X151.985 Y117.675 E1.41491
G1 X151.854 Y118.276 E1.42514
G1 X151.81 Y118.457 E1.42823
G1 X151.688 Y118.904 E1.43594
G1 X151.659 Y119.003 E1.43765
G1 X151.482 Y119.585 E1.44777
G1 X151.429 Y119.747 E1.45061
G1 X151.281 Y120.162 E1.45793
G1 X151.239 Y120.275 E1.45994
G1 X151.018 Y120.835 E1.46995
G1 X150.947 Y121.001 E1.47295
G1 X150.839 Y121.239 E1.4773
G1 X150.791 Y121.341 E1.47917
G1 X150.634 Y121.66 E1.48509
G1 X150.557 Y121.808 E1.48786
G1 X150.294 Y122.285 E1.49692
G1 X150.255 Y122.354 E1.49824
G1 X149.796 Y123.145 E1.51345
G1 X149.75 Y123.221 E1.51492
G1 X149.591 Y123.48 E1.51998
G1 X149.532 Y123.573 E1.52181
G1 X149.142 Y124.167 E1.53363
G1 X148.976 Y124.4 E1.53838
G1 X148.638 Y124.835 E1.54754
G1 X148.553 Y124.939 E1.54978
G1 X148.158 Y125.41 E1.56
G1 X148.036 Y125.549 E1.56308
G1 X147.728 Y125.88 E1.5706
G1 X147.653 Y125.958 E1.57239
G1 X147.251 Y126.365 E1.58191
G1 X147.139 Y126.473 E1.5845
G1 X146.832 Y126.758 E1.59146
G1 X146.737 Y126.844 E1.59359
G1 X146.258 Y127.258 E1.60412
G1 X146.12 Y127.371 E1.60709
G1 X145.741 Y127.667 E1.61509
G1 X145.647 Y127.738 E1.61704
G1 X145.17 Y128.086 E1.62686
G1 X145.032 Y128.182 E1.62966
G1 X144.661 Y128.427 E1.63705
G1 X144.559 Y128.492 E1.63906
G1 X144.034 Y128.814 E1.64931
G1 X143.884 Y128.901 E1.65219
G1 X143.494 Y129.115 E1.65959
G1 X143.386 Y129.172 E1.66162
G1 X142.848 Y129.444 E1.67164
G1 X142.704 Y129.513 E1.6743
G1 X142.296 Y129.697 E1.68174
G1 X142.181 Y129.746 E1.68382
G1 X141.622 Y129.975 E1.69387
G1 X141.47 Y130.033 E1.69657
G1 X141.065 Y130.178 E1.70373
G1 X140.949 Y130.218 E1.70577
G1 X140.346 Y130.411 E1.7163
G1 X140.172 Y130.462 E1.71931
G1 X139.701 Y130.587 E1.72742
G1 X139.59 Y130.614 E1.72932
G1 X139.046 Y130.74 E1.7386
G1 X138.884 Y130.774 E1.74135
G1 X138.41 Y130.861 E1.74937
G1 X138.286 Y130.881 E1.75146
G1 X137.697 Y130.968 E1.76136
G1 X137.467 Y130.995 E1.76521
G1 X137.007 Y131.033 E1.77289
G1 X136.766 Y131.045 E1.7769
G1 X135.782 Y131.06 E1.79327
G1 X135.715 Y131.06 E1.79438
G1 X135.098 Y131.058 E1.80464
G1 X134.993 Y131.056 E1.80639
G1 X134.407 Y131.037 E1.81614
G1 X134.3 Y131.032 E1.81792
G1 X133.305 Y130.97 E1.8345
G1 X133.259 Y130.967 E1.83526
G1 X131.345 Y130.823 E1.86718
G1 X128.618 Y130.696 E1.91258
G1 X125.923 Y130.646 E1.95741
G1 X123.155 Y130.674 E2.00344
G1 X120.46 Y130.777 E2.04829
G1 X117.741 Y130.957 E2.09361
G1 X115.018 Y131.216 E2.1391
G1 X112.303 Y131.552 E2.18459
G1 X109.611 Y131.962 E2.22988
G1 X106.945 Y132.445 E2.27494
G1 X104.273 Y133.009 E2.32035
G1 X101.624 Y133.646 E2.36566
G1 X98.983 Y134.361 E2.41116
G1 X97.574 Y134.787 E2.43564
G1 X97.535 Y134.798 E2.43631
G1 X96.58 Y135.075 E2.45285
G1 X96.479 Y135.103 E2.45459
G1 X96.058 Y135.212 E2.46182
G1 X95.971 Y135.234 E2.46332
G1 X95.36 Y135.376 E2.47375
G1 X95.181 Y135.412 E2.47678
G1 X94.73 Y135.493 E2.48441
G1 X94.624 Y135.511 E2.48619
G1 X94.026 Y135.6 E2.49625
G1 X93.85 Y135.622 E2.4992
G1 X93.546 Y135.652 E2.50428
G1 X93.433 Y135.661 E2.50616
G1 X93.12 Y135.682 E2.51138
G1 X92.907 Y135.69 E2.51492
G1 X92.141 Y135.696 E2.52766
G1 X92.084 Y135.696 E2.52861
G1 X90.858 Y135.686 E2.549
G1 X90.707 Y135.681 E2.55151
G1 X90.168 Y135.654 E2.56049
G1 X89.969 Y135.639 E2.56381
G1 X89.695 Y135.61 E2.56839
G1 X89.541 Y135.59 E2.57097
G1 X89.12 Y135.527 E2.57805
G1 X89.024 Y135.512 E2.57967
G1 X88.455 Y135.411 E2.58928
G1 X88.288 Y135.377 E2.59211
G1 X87.913 Y135.292 E2.5985
G1 X87.811 Y135.267 E2.60025
G1 X87.578 Y135.207 E2.60425
G1 X87.449 Y135.171 E2.60648
G1 X86.408 Y134.861 E2.62454
G1 X86.291 Y134.824 E2.62658
G1 X85.945 Y134.708 E2.63265
G1 X85.75 Y134.637 E2.6361
G1 X85.136 Y134.391 E2.6471
G1 X85.033 Y134.347 E2.64897
G1 X84.571 Y134.145 E2.65735
G1 X84.417 Y134.074 E2.66017
G1 X83.942 Y133.839 E2.66898
G1 X83.837 Y133.785 E2.67095
G1 X83.313 Y133.504 E2.68084
G1 X83.16 Y133.417 E2.68376
G1 X82.704 Y133.143 E2.69261
G1 X82.602 Y133.079 E2.69461
G1 X82.1 Y132.754 E2.70456
G1 X81.935 Y132.641 E2.70788
G1 X81.488 Y132.315 E2.71708
G1 X81.407 Y132.254 E2.71877
G1 X81.01 Y131.947 E2.72712
G1 X80.925 Y131.879 E2.72893
G1 X80.75 Y131.735 E2.7327
G1 X80.691 Y131.686 E2.73397
G1 X80.478 Y131.503 E2.73864
G1 X80.406 Y131.439 E2.74024
G1 X79.966 Y131.04 E2.75012
G1 X79.899 Y130.978 E2.75164
G1 X79.747 Y130.833 E2.75513
G1 X79.67 Y130.757 E2.75693
G1 X79.517 Y130.602 E2.76055
G1 X79.467 Y130.551 E2.76174
G1 X79.023 Y130.083 E2.77247
G1 X78.903 Y129.95 E2.77545
G1 X78.624 Y129.625 E2.78257
G1 X78.554 Y129.541 E2.78439
G1 X78.32 Y129.251 E2.79059
G1 X78.244 Y129.153 E2.79265
G1 X77.772 Y128.525 E2.80571
G1 X77.691 Y128.412 E2.80803
G1 X77.576 Y128.246 E2.81138
G1 X77.447 Y128.046 E2.81534
G1 X77.175 Y127.592 E2.82414
G1 X77.137 Y127.527 E2.8254
G1 X76.519 Y126.445 E2.84612
G1 X76.476 Y126.368 E2.84758
G1 X76.303 Y126.047 E2.85365
G1 X76.251 Y125.946 E2.85554
G1 X76.015 Y125.473 E2.86433
G1 X75.891 Y125.197 E2.86936
G1 X75.614 Y124.501 E2.88182
G1 X75.575 Y124.4 E2.88362
G1 X75.442 Y124.034 E2.89009
G1 X75.391 Y123.883 E2.89274
G1 X75.282 Y123.536 E2.89879
G1 X75.247 Y123.416 E2.90087
G1 X75.155 Y123.083 E2.90662
G1 X75.124 Y122.963 E2.90868
G1 X74.896 Y122.012 E2.92494
G1 X74.872 Y121.904 E2.92678
G1 X74.792 Y121.518 E2.93334
G1 X74.753 Y121.297 E2.93707
G1 X74.654 Y120.605 E2.94869
G1 X74.641 Y120.503 E2.9504
G1 X74.582 Y119.986 E2.95906
G1 X74.565 Y119.784 E2.96243
G1 X74.536 Y119.278 E2.97086
G1 X74.532 Y119.18 E2.97249
G1 X74.514 Y118.578 E2.9825
G1 X74.513 Y118.394 E2.98556
G1 X74.524 Y117.876 E2.99418
G1 X74.528 Y117.77 E2.99595
G1 X74.559 Y117.158 E3.00614
G1 X74.574 Y116.964 E3.00937
G1 X74.628 Y116.45 E3.01797
G1 X74.639 Y116.351 E3.01962
G1 X74.716 Y115.772 E3.02934
G1 X74.746 Y115.586 E3.03247
G1 X74.843 Y115.067 E3.04125
G1 X74.865 Y114.957 E3.04312
G1 X74.986 Y114.405 E3.05251
G1 X75.026 Y114.244 E3.05527
G1 X75.163 Y113.733 E3.06407
G1 X75.196 Y113.616 E3.06609
G1 X75.363 Y113.068 E3.07562
G1 X75.414 Y112.914 E3.07832
G1 X75.586 Y112.429 E3.08687
G1 X75.631 Y112.309 E3.08901
G1 X75.85 Y111.755 E3.09891
G1 X75.92 Y111.589 E3.10191
G1 X76.034 Y111.338 E3.10649
G1 X76.085 Y111.232 E3.10845
G1 X76.253 Y110.892 E3.11476
G1 X76.329 Y110.745 E3.11751
G1 X76.58 Y110.291 E3.12614
G1 X76.654 Y110.164 E3.12858
G1 X77.61 Y108.59 E3.15921
G1 X77.681 Y108.478 E3.16141
G1 X77.828 Y108.255 E3.16585
G1 X78.006 Y108.009 E3.1709
G1 X78.436 Y107.463 E3.18246
G1 X78.508 Y107.374 E3.18436
G1 X78.798 Y107.029 E3.19186
G1 X78.909 Y106.903 E3.19465
G1 X79.246 Y106.538 E3.20291
G1 X79.336 Y106.444 E3.20508
G1 X79.74 Y106.037 E3.21461
G1 X79.802 Y105.976 E3.21606
G1 X79.951 Y105.833 E3.21949
G1 X80.028 Y105.761 E3.22125
G1 X80.228 Y105.58 E3.22573
G1 X80.291 Y105.524 E3.22714
G1 X80.811 Y105.075 E3.23856
G1 X80.948 Y104.963 E3.2415
G1 X81.291 Y104.695 E3.24874
G0 F1800 X81.537 Y105.01
G1 F900 X81.619 Y104.949 E3.25044
G1 X82.143 Y104.566 E3.26124
G1 X82.276 Y104.473 E3.26393
G1 X82.683 Y104.206 E3.27203
G1 X82.769 Y104.151 E3.27373
G1 X83.273 Y103.843 E3.28355
G1 X83.394 Y103.773 E3.28587
G1 X83.841 Y103.526 E3.29437
G1 X83.941 Y103.473 E3.29625
G1 X84.471 Y103.204 E3.30613
G1 X84.608 Y103.139 E3.30866
G1 X85.08 Y102.927 E3.31726
G1 X85.172 Y102.887 E3.31893
G1 X85.694 Y102.672 E3.32832
G1 X85.8 Y102.631 E3.33021
G1 X85.994 Y102.559 E3.33365
G1 X86.046 Y102.54 E3.33457
G1 X86.322 Y102.443 E3.33943
G1 X86.406 Y102.415 E3.34091
G1 X87.011 Y102.221 E3.35147
G1 X87.173 Y102.174 E3.35428
G1 X87.674 Y102.042 E3.36289
G1 X87.765 Y102.019 E3.36445
G1 X88.338 Y101.886 E3.37424
G1 X88.484 Y101.856 E3.37672
G1 X88.958 Y101.769 E3.38473
G1 X89.062 Y101.751 E3.38649
G1 X89.656 Y101.662 E3.39647
G1 X89.817 Y101.642 E3.39917
G1 X90.132 Y101.611 E3.40444
G1 X90.242 Y101.602 E3.40627
G1 X90.447 Y101.589 E3.40969
G1 X90.627 Y101.583 E3.41268
G1 X92.161 Y101.572 E3.43819
G1 X92.217 Y101.572 E3.43912
G1 X92.983 Y101.58 E3.45186
G1 X93.23 Y101.592 E3.45598
G1 X94.335 Y101.689 E3.47442
G1 X94.393 Y101.695 E3.47539
G1 X96.063 Y101.872 E3.50332
G1 X98.774 Y102.083 E3.54854
G1 X101.522 Y102.218 E3.5943
G1 X104.243 Y102.276 E3.63956
G1 X106.994 Y102.255 E3.68531
G1 X109.712 Y102.158 E3.73054
G1 X112.495 Y101.981 E3.77691
G1 X115.163 Y101.734 E3.82147
G1 X117.904 Y101.403 E3.86738
G1 X120.625 Y100.995 E3.91314
G1 X123.294 Y100.518 E3.95823
G1 X125.993 Y99.955 E4.00408
G1 X128.629 Y99.329 E4.04914
G1 X130.123 Y98.925 E4.07487
G1 X130.152 Y98.917 E4.07537
G1 X131.588 Y98.543 E4.10005
G1 X131.674 Y98.522 E4.10152
G1 X132.219 Y98.396 E4.11083
G1 X132.368 Y98.366 E4.11335
G1 X132.869 Y98.275 E4.12182
G1 X132.966 Y98.258 E4.12346
G1 X133.526 Y98.174 E4.13288
G1 X133.684 Y98.155 E4.13552
G1 X133.895 Y98.134 E4.13905
G1 X134.005 Y98.125 E4.14088
G1 X134.345 Y98.103 E4.14655
G1 X134.434 Y98.098 E4.14803
G1 X134.65 Y98.09 E4.15163
G1 X134.744 Y98.088 E4.15319
G1 X135.411 Y98.083 E4.16428
G1 X135.471 Y98.083 E4.16528
G1 X136.352 Y98.093 E4.17993
G1 X136.438 Y98.095 E4.18136
G1 X136.648 Y98.103 E4.18486
G1 X136.718 Y98.107 E4.18603
G1 X137.334 Y98.144 E4.19629
G1 X137.608 Y98.172 E4.20087
G1 X138.206 Y98.26 E4.21092
G1 X138.301 Y98.276 E4.21252
G1 X138.778 Y98.361 E4.22058
G1 X138.919 Y98.389 E4.22297
G1 X139.275 Y98.469 E4.22904
G1 X139.372 Y98.492 E4.2307
G1 X139.597 Y98.55 E4.23456
G1 X139.713 Y98.582 E4.23656
G1 X140.692 Y98.874 E4.25355
G1 X140.794 Y98.907 E4.25533
G1 X141.146 Y99.025 E4.26151
G1 X141.317 Y99.088 E4.26454
G1 X141.872 Y99.31 E4.27448
G1 X141.962 Y99.347 E4.2761
G1 X142.451 Y99.56 E4.28497
G1 X142.607 Y99.633 E4.28783
G1 X143.064 Y99.862 E4.29633
G1 X143.149 Y99.906 E4.29792
G1 X143.633 Y100.167 E4.30707
G1 X143.753 Y100.236 E4.30937
G1 X144.152 Y100.474 E4.3171
G1 X144.253 Y100.536 E4.31907
G1 X144.75 Y100.858 E4.32892
G1 X144.89 Y100.955 E4.33175
G1 X145.299 Y101.252 E4.34015
G1 X145.373 Y101.307 E4.34169
G1 X145.801 Y101.637 E4.35068
G1 X145.913 Y101.727 E4.35306
G1 X146.262 Y102.022 E4.36066
G1 X146.346 Y102.096 E4.36253
G1 X146.789 Y102.498 E4.37247
G1 X146.886 Y102.589 E4.37469
G1 X147.171 Y102.87 E4.38134
G1 X147.25 Y102.951 E4.38322
G1 X147.681 Y103.407 E4.39366
G1 X147.781 Y103.518 E4.39614
G1 X148.021 Y103.797 E4.40226
G1 X148.088 Y103.878 E4.40401
G1 X148.269 Y104.103 E4.40881
G1 X148.334 Y104.186 E4.41057
G1 X148.873 Y104.903 E4.42548
G1 X149.048 Y105.161 E4.43067
G1 X149.608 Y106.08 E4.44856
G1 X149.664 Y106.175 E4.4504
G1 X150.049 Y106.859 E4.46345
G1 X150.085 Y106.926 E4.46472
G1 X150.202 Y107.146 E4.46886
G1 X150.239 Y107.218 E4.47021
G1 X150.513 Y107.766 E4.4804
G1 X150.625 Y108.017 E4.48497
G1 X150.85 Y108.584 E4.49511
G1 X150.883 Y108.669 E4.49663
G1 X151.033 Y109.081 E4.50392
G1 X151.066 Y109.178 E4.50562
G1 X151.13 Y109.373 E4.50904
G1 X151.166 Y109.49 E4.51107
G1 X151.282 Y109.895 E4.51808
G1 X151.317 Y110.028 E4.52036
G1 X151.559 Y111.035 E4.53759
G1 X151.581 Y111.132 E4.53924
G1 X151.655 Y111.488 E4.54529
G1 X151.69 Y111.689 E4.54868
G1 X151.778 Y112.309 E4.5591
G1 X151.789 Y112.39 E4.56046
G1 X151.847 Y112.89 E4.56883
G1 X151.862 Y113.069 E4.57181
G1 X151.893 Y113.59 E4.58049
G1 X151.898 Y113.687 E4.58211
G1 X151.914 Y114.238 E4.59128
G1 X151.914 Y114.394 E4.59387
