;FLAVOR:Marlin
;TIME:398
;Filament used: 0.240043m
;Layer height: 0.2
;MINX:115.616
;MINY:93.116
;MINZ:0.2
;MAXX:139.384
;MAXY:116.884
;MAXZ:7
;Generated with Cura_SteamEngine 4.12.1
M140 S60
M105
M190 S60
M104 S205
M105
M109 S205
M82 ;absolute extrusion mode
M220 S100 ;reset feedrate
M221 S100 ;reset flowrate
G90 ;use absolute coordinates
M82 ;absolute extrusion mode
G28 ;home
G1 Z2 F1500 ;raise z
G92 E0 ;reset extruder

G1 X75 Y5 F5000 ;start position
G1 Z0.28 F1500 ;lower z
G1 E4 F500 ;prime the filament
G1 X180 E10 F500 ;1st line
G1 Y5.4 F5000
G1 X75 E20 F500 ;2nd line
G1 Z2 F1500 ;raise z
G92 E0 ;reset extruder
G92 E0
G92 E0
G1 F1500 E-6.5
;LAYER_COUNT:35
;LAYER:0
M107
G0 F9000 X116.574 Y94.365 Z0.2
;TYPE:SKIRT
G1 F1500 E0
G1 F1800 X116.968 Y93.985 E0.02276
G1 X117.413 Y93.666 E0.04552
G1 X117.9 Y93.416 E0.06828
G1 X118.418 Y93.239 E0.09104
G1 X118.956 Y93.14 E0.11378
G1 X119.367 Y93.117 E0.1309
G1 X135.634 Y93.116 E0.8072
G1 X136.18 Y93.156 E0.82996
G1 X136.714 Y93.275 E0.85271
G1 X137.225 Y93.47 E0.87545
G1 X137.703 Y93.738 E0.89823
G1 X138.136 Y94.073 E0.92099
G1 X138.516 Y94.467 E0.94375
G1 X138.834 Y94.912 E0.96649
G1 X139.085 Y95.398 E0.98923
G1 X139.262 Y95.916 E1.01199
G1 X139.361 Y96.455 E1.03477
G1 X139.384 Y96.866 E1.05188
G1 X139.384 Y113.134 E1.72823
G1 X139.344 Y113.68 E1.75099
G1 X139.225 Y114.214 E1.77374
G1 X139.03 Y114.725 E1.79647
G1 X138.762 Y115.203 E1.81926
G1 X138.427 Y115.636 E1.84202
G1 X138.033 Y116.016 E1.86478
G1 X137.588 Y116.335 E1.88754
G1 X137.101 Y116.585 E1.9103
G1 X136.583 Y116.762 E1.93306
G1 X136.045 Y116.861 E1.9558
G1 X135.634 Y116.884 E1.97292
G1 X119.366 Y116.884 E2.64926
G1 X118.82 Y116.844 E2.67202
G1 X118.286 Y116.725 E2.69477
G1 X117.775 Y116.53 E2.71751
G1 X117.297 Y116.262 E2.74029
G1 X116.864 Y115.927 E2.76305
G1 X116.484 Y115.533 E2.78581
G1 X116.165 Y115.088 E2.80857
G1 X115.915 Y114.601 E2.83133
G1 X115.738 Y114.083 E2.85409
G1 X115.639 Y113.545 E2.87683
G1 X115.616 Y113.134 E2.89395
G1 X115.617 Y96.867 E3.57025
G1 X115.657 Y96.321 E3.59301
G1 X115.776 Y95.787 E3.61576
G1 X115.972 Y95.275 E3.63855
G1 X116.239 Y94.798 E3.66128
G1 X116.574 Y94.365 E3.68404
G0 F9000 X117.067 Y94.57
G1 F1800 X117.455 Y94.239 E3.70524
G1 X117.889 Y93.973 E3.7264
G1 X118.359 Y93.777 E3.74757
G1 X118.855 Y93.658 E3.76878
G1 X119.367 Y93.617 E3.79014
G1 X135.634 Y93.616 E4.46644
G1 X136.142 Y93.656 E4.48762
G1 X136.637 Y93.775 E4.50879
G1 X137.108 Y93.969 E4.52997
G1 X137.543 Y94.235 E4.55117
G1 X137.93 Y94.566 E4.57234
G1 X138.262 Y94.953 E4.59354
G1 X138.528 Y95.387 E4.6147
G1 X138.724 Y95.858 E4.63591
G1 X138.843 Y96.353 E4.65708
G1 X138.884 Y96.866 E4.67847
G1 X138.884 Y113.134 E5.35482
G1 X138.844 Y113.642 E5.376
G1 X138.725 Y114.137 E5.39717
G1 X138.53 Y114.608 E5.41836
G1 X138.264 Y115.043 E5.43956
G1 X137.934 Y115.43 E5.46071
G1 X137.547 Y115.762 E5.4819
G1 X137.112 Y116.028 E5.5031
G1 X136.642 Y116.224 E5.52427
G1 X136.147 Y116.343 E5.54544
G1 X135.634 Y116.384 E5.56684
G1 X119.366 Y116.384 E6.24318
G1 X118.858 Y116.344 E6.26437
G1 X118.363 Y116.225 E6.28553
G1 X117.892 Y116.03 E6.30673
G1 X117.457 Y115.764 E6.32793
G1 X117.07 Y115.434 E6.34907
G1 X116.738 Y115.047 E6.37027
G1 X116.472 Y114.612 E6.39147
G1 X116.276 Y114.142 E6.41264
G1 X116.157 Y113.647 E6.43381
G1 X116.116 Y113.134 E6.4552
G1 X116.117 Y96.867 E7.1315
G1 X116.157 Y96.359 E7.15269
G1 X116.276 Y95.863 E7.1739
G1 X116.471 Y95.393 E7.19505
G1 X116.737 Y94.958 E7.21625
G1 X117.067 Y94.57 E7.23743
G0 F9000 X117.233 Y95.132
G1 F1800 X117.559 Y94.795 E7.25692
G1 X117.937 Y94.518 E7.2764
G1 X118.356 Y94.31 E7.29585
G1 X118.805 Y94.175 E7.31535
G1 X119.367 Y94.117 E7.33883
G1 X135.634 Y94.116 E8.01514
G1 X136.101 Y94.156 E8.03462
G1 X136.554 Y94.274 E8.05409
G1 X136.981 Y94.468 E8.07359
G1 X137.368 Y94.732 E8.09306
G1 X137.705 Y95.057 E8.11253
G1 X137.982 Y95.435 E8.13201
G1 X138.191 Y95.855 E8.15151
G1 X138.326 Y96.304 E8.17101
G1 X138.384 Y96.866 E8.1945
G1 X138.384 Y113.134 E8.87084
G1 X138.344 Y113.601 E8.89033
G1 X138.225 Y114.054 E8.9098
G1 X138.032 Y114.481 E8.92928
G1 X137.768 Y114.868 E8.94876
G1 X137.443 Y115.206 E8.96825
G1 X137.065 Y115.483 E8.98774
G1 X136.645 Y115.691 E9.00722
G1 X136.196 Y115.826 E9.02672
G1 X135.634 Y115.884 E9.0502
G1 X119.366 Y115.884 E9.72655
G1 X118.899 Y115.844 E9.74604
G1 X118.446 Y115.725 E9.76551
G1 X118.019 Y115.532 E9.78499
G1 X117.632 Y115.268 E9.80447
G1 X117.294 Y114.943 E9.82396
G1 X117.017 Y114.565 E9.84345
G1 X116.809 Y114.145 E9.86293
G1 X116.674 Y113.696 E9.88242
G1 X116.616 Y113.134 E9.90591
G1 X116.617 Y96.867 E10.58222
G1 X116.657 Y96.4 E10.6017
G1 X116.776 Y95.947 E10.62118
G1 X116.97 Y95.52 E10.64067
G1 X117.233 Y95.132 E10.66016
G0 F9000 X117.728 Y95.326
G1 F1800 X118.046 Y95.046 E10.67778
G1 X118.411 Y94.83 E10.69541
G1 X118.81 Y94.687 E10.71303
G1 X119.367 Y94.617 E10.73637
G1 X135.634 Y94.616 E11.41268
G1 X136.056 Y94.656 E11.4303
G1 X136.463 Y94.774 E11.44792
G1 X136.84 Y94.967 E11.46553
G1 X137.175 Y95.227 E11.48316
G1 X137.455 Y95.545 E11.50077
G1 X137.671 Y95.91 E11.5184
G1 X137.814 Y96.308 E11.53599
G1 X137.884 Y96.866 E11.55937
G1 X137.884 Y113.134 E12.23571
G1 X137.844 Y113.556 E12.25334
G1 X137.726 Y113.963 E12.27095
G1 X137.533 Y114.34 E12.28856
G1 X137.273 Y114.675 E12.30619
G1 X136.955 Y114.955 E12.32381
G1 X136.59 Y115.171 E12.34144
G1 X136.191 Y115.314 E12.35906
G1 X135.634 Y115.384 E12.3824
G1 X119.366 Y115.384 E13.05875
G1 X118.944 Y115.344 E13.07637
G1 X118.537 Y115.226 E13.09399
G1 X118.16 Y115.033 E13.1116
G1 X117.825 Y114.773 E13.12923
G1 X117.545 Y114.455 E13.14684
G1 X117.329 Y114.09 E13.16447
G1 X117.186 Y113.691 E13.1821
G1 X117.116 Y113.134 E13.20544
G1 X117.117 Y96.867 E13.88174
G1 X117.157 Y96.445 E13.89936
G1 X117.275 Y96.038 E13.91698
G1 X117.468 Y95.66 E13.93463
G1 X117.728 Y95.326 E13.95222
G0 F9000 X117.965 Y95.819
G1 F1800 X118.22 Y95.546 E13.96775
G1 X118.526 Y95.332 E13.98328
G1 X118.871 Y95.189 E13.99881
G1 X119.367 Y95.117 E14.01964
G1 X135.634 Y95.116 E14.69595
G1 X136.005 Y95.156 E14.71146
G1 X136.36 Y95.274 E14.72701
G1 X136.681 Y95.464 E14.74252
G1 X136.955 Y95.718 E14.75806
G1 X137.169 Y96.025 E14.77361
G1 X137.312 Y96.37 E14.78914
G1 X137.384 Y96.866 E14.80998
G1 X137.384 Y113.134 E15.48632
G1 X137.344 Y113.505 E15.50184
G1 X137.226 Y113.86 E15.51739
G1 X137.036 Y114.182 E15.53293
G1 X136.782 Y114.455 E15.54844
G1 X136.475 Y114.669 E15.56399
G1 X136.13 Y114.812 E15.57952
G1 X135.634 Y114.884 E15.60036
G1 X119.366 Y114.884 E16.2767
G1 X118.995 Y114.844 E16.29222
G1 X118.64 Y114.726 E16.30777
G1 X118.318 Y114.536 E16.32331
G1 X118.045 Y114.282 E16.33882
G1 X117.831 Y113.975 E16.35438
G1 X117.688 Y113.63 E16.3699
G1 X117.616 Y113.134 E16.39074
G1 X117.617 Y96.867 E17.06704
G1 X117.657 Y96.495 E17.0826
G1 X117.775 Y96.141 E17.09811
G1 X117.965 Y95.819 E17.11366
G0 F9000 X118.461 Y96.006
G1 F1800 X118.705 Y95.807 E17.12675
G1 X118.992 Y95.675 E17.13988
G1 X119.367 Y95.617 E17.15566
G1 X135.634 Y95.616 E17.83196
G1 X135.947 Y95.656 E17.84508
G1 X136.24 Y95.773 E17.8582
G1 X136.495 Y95.959 E17.87132
G1 X136.694 Y96.204 E17.88444
G1 X136.826 Y96.491 E17.89757
G1 X136.884 Y96.866 E17.91335
G1 X136.884 Y113.134 E18.58969
G1 X136.844 Y113.447 E18.60281
G1 X136.727 Y113.74 E18.61593
G1 X136.541 Y113.995 E18.62905
G1 X136.296 Y114.194 E18.64218
G1 X136.009 Y114.326 E18.65531
G1 X135.634 Y114.384 E18.67109
G1 X119.366 Y114.384 E19.34743
G1 X119.053 Y114.344 E19.36055
G1 X118.76 Y114.227 E19.37367
G1 X118.505 Y114.041 E19.38679
G1 X118.306 Y113.796 E19.39991
G1 X118.174 Y113.509 E19.41304
G1 X118.116 Y113.134 E19.42882
G1 X118.117 Y96.867 E20.10512
G1 X118.157 Y96.554 E20.11824
G1 X118.274 Y96.261 E20.13136
G1 X118.461 Y96.006 E20.14451
G0 F9000 X118.772 Y96.411
G1 F1800 X118.95 Y96.244 E20.15465
G1 X119.172 Y96.143 E20.16479
G1 X119.367 Y96.117 E20.17297
G1 X135.634 Y96.116 E20.84928
G1 X135.875 Y96.156 E20.85943
G1 X136.09 Y96.271 E20.86957
G1 X136.257 Y96.449 E20.87972
G1 X136.358 Y96.671 E20.88986
G1 X136.384 Y96.866 E20.89804
G1 X136.384 Y113.134 E21.57438
G1 X136.344 Y113.375 E21.58454
G1 X136.229 Y113.59 E21.59467
G1 X136.051 Y113.757 E21.60482
G1 X135.829 Y113.858 E21.61496
G1 X135.634 Y113.884 E21.62314
G1 X119.366 Y113.884 E22.29949
G1 X119.125 Y113.844 E22.30964
G1 X118.91 Y113.729 E22.31978
G1 X118.743 Y113.551 E22.32993
G1 X118.642 Y113.329 E22.34007
G1 X118.616 Y113.134 E22.34825
G1 X118.617 Y96.867 E23.02455
G1 X118.657 Y96.626 E23.03471
G1 X118.772 Y96.411 E23.04484
G0 F9000 X119.156 Y96.733
G1 F1800 X119.262 Y96.64 E23.05071
G1 X119.367 Y96.617 E23.05517
G1 X135.634 Y96.616 E23.73148
G1 X135.768 Y96.655 E23.73728
G1 X135.861 Y96.76 E23.74311
G1 X135.884 Y96.866 E23.74762
G1 X135.884 Y113.134 E24.42397
G1 X135.845 Y113.268 E24.42977
G1 X135.739 Y113.361 E24.43563
G1 X135.634 Y113.384 E24.4401
G1 X119.366 Y113.384 E25.11644
G1 X119.232 Y113.345 E25.12225
G1 X119.139 Y113.239 E25.12811
G1 X119.116 Y113.134 E25.13258
G1 X119.117 Y96.867 E25.80888
G1 X119.156 Y96.733 E25.81468
G1 F1500 E19.31468
;MESH:SD_Cap.stl
G0 F9000 X120.377 Y97.877
G0 X120.348 Y112.152
G0 X134.934 Y112.464
G1 F1500 E25.81468
G0 F9000 X135.234 Y112.734
;TYPE:WALL-OUTER
G1 F1800 X119.766 Y112.734 E26.32915
G1 X119.767 Y97.267 E26.84359
G1 X135.234 Y97.266 E27.35802
G1 X135.234 Y112.734 E27.87249
G0 F9000 X134.834 Y112.334
;TYPE:WALL-INNER
G1 F1800 X120.166 Y112.334 E28.36035
G1 X120.167 Y97.667 E28.84817
G1 X134.834 Y97.666 E29.336
G1 X134.834 Y112.334 E29.82386
G0 F9000 X134.444 Y111.944
;TYPE:SKIN
G1 F1800 X120.556 Y111.944 E30.28578
G1 X120.557 Y98.057 E30.74766
G1 X134.444 Y98.056 E31.20954
G1 X134.444 Y111.944 E31.67146
G0 F9000 X134.724 Y111.944
G0 X134.724 Y98.644
G0 X134.283 Y98.644
G1 F1800 X133.855 Y98.217 E31.69157
G0 F9000 X133.289 Y98.217
G1 F1800 X134.283 Y99.21 E31.7383
G0 F9000 X134.283 Y99.776
G1 F1800 X132.723 Y98.217 E31.81165
G0 F9000 X132.158 Y98.217
G1 F1800 X134.283 Y100.341 E31.91158
G0 F9000 X134.283 Y100.907
G1 F1800 X131.592 Y98.217 E32.03814
G0 F9000 X131.026 Y98.217
G1 F1800 X134.283 Y101.473 E32.19131
G0 F9000 X134.283 Y102.039
G1 F1800 X130.461 Y98.217 E32.37109
G0 F9000 X129.895 Y98.217
G1 F1800 X134.283 Y102.604 E32.57746
G0 F9000 X134.283 Y103.17
G1 F1800 X129.329 Y98.217 E32.81046
G0 F9000 X128.764 Y98.217
G1 F1800 X134.283 Y103.736 E33.07006
G0 F9000 X134.283 Y104.301
G1 F1800 X128.198 Y98.217 E33.35625
G0 F9000 X127.632 Y98.217
G1 F1800 X134.283 Y104.867 E33.66907
G0 F9000 X134.283 Y105.433
G1 F1800 X127.067 Y98.217 E34.00849
G0 F9000 X126.501 Y98.217
G1 F1800 X134.283 Y105.998 E34.37451
G0 F9000 X134.283 Y106.564
G1 F1800 X125.935 Y98.217 E34.76715
G0 F9000 X125.37 Y98.217
G1 F1800 X134.283 Y107.13 E35.18639
G0 F9000 X134.283 Y107.695
G1 F1800 X124.804 Y98.217 E35.63223
G0 F9000 X124.238 Y98.217
G1 F1800 X134.283 Y108.261 E36.10469
G0 F9000 X134.283 Y108.827
G1 F1800 X123.672 Y98.217 E36.60378
G0 F9000 X123.107 Y98.217
G1 F1800 X134.283 Y109.392 E37.12944
G0 F9000 X134.283 Y109.958
G1 F1800 X122.541 Y98.217 E37.68172
G0 F9000 X121.975 Y98.217
G1 F1800 X134.283 Y110.524 E38.26063
G0 F9000 X134.283 Y111.09
G1 F1800 X121.41 Y98.217 E38.86614
G0 F9000 X120.844 Y98.217
G1 F1800 X134.283 Y111.655 E39.49824
G0 F9000 X133.846 Y111.784
G1 F1800 X120.715 Y98.653 E40.11588
G0 F9000 X120.715 Y99.219
G1 F1800 X133.28 Y111.784 E40.7069
G0 F9000 X132.714 Y111.784
G1 F1800 X120.715 Y99.784 E41.27132
G0 F9000 X120.715 Y100.35
G1 F1800 X132.149 Y111.784 E41.80914
G0 F9000 X131.583 Y111.784
G1 F1800 X120.715 Y100.916 E42.32034
G0 F9000 X120.715 Y101.481
G1 F1800 X131.017 Y111.784 E42.80494
G0 F9000 X130.452 Y111.784
G1 F1800 X120.715 Y102.047 E43.26294
G0 F9000 X120.715 Y102.613
G1 F1800 X129.886 Y111.784 E43.69431
G0 F9000 X129.32 Y111.784
G1 F1800 X120.715 Y103.178 E44.09909
G0 F9000 X120.715 Y103.744
G1 F1800 X128.754 Y111.784 E44.47724
G0 F9000 X128.189 Y111.784
G1 F1800 X120.715 Y104.31 E44.8288
G0 F9000 X120.715 Y104.875
G1 F1800 X127.623 Y111.784 E45.15375
G0 F9000 X127.057 Y111.784
G1 F1800 X120.715 Y105.441 E45.45208
G0 F9000 X120.715 Y106.007
G1 F1800 X126.492 Y111.784 E45.72382
G0 F9000 X125.926 Y111.784
G1 F1800 X120.715 Y106.573 E45.96892
G0 F9000 X120.715 Y107.138
G1 F1800 X125.36 Y111.784 E46.18743
G0 F9000 X124.795 Y111.784
G1 F1800 X120.715 Y107.704 E46.37935
G0 F9000 X120.715 Y108.27
G1 F1800 X124.229 Y111.784 E46.54463
G0 F9000 X123.663 Y111.784
G1 F1800 X120.715 Y108.835 E46.68332
G0 F9000 X120.715 Y109.401
G1 F1800 X123.098 Y111.784 E46.79541
G0 F9000 X122.532 Y111.784
G1 F1800 X120.715 Y109.967 E46.88088
G0 F9000 X120.715 Y110.532
G1 F1800 X121.966 Y111.784 E46.93974
G0 F9000 X121.401 Y111.784
G1 F1800 X120.715 Y111.098 E46.97201
G0 F9000 X120.715 Y111.664
G1 F1800 X120.835 Y111.784 E46.97766
G0 F9000 X120.835 Y112.134
;MESH:NONMESH
G0 F300 X120.835 Y112.134 Z0.4
G0 F9000 X120.835 Y112.224
G0 X134.964 Y112.464
G0 X135.514 Y113.014
;TIME_ELAPSED:48.658320
;LAYER:1
M106 S255
;TYPE:WALL-OUTER
;MESH:SD_Cap.stl
G1 F1800 X119.486 Y113.014 E47.51075
G1 X119.487 Y96.987 E48.04381
G1 X135.514 Y96.986 E48.57687
G1 X135.514 Y113.014 E49.10996
G0 F9000 X135.114 Y112.614
;TYPE:WALL-INNER
G1 F2700 X119.886 Y112.614 E49.61645
G1 X119.887 Y97.387 E50.1229
G1 X135.114 Y97.386 E50.62935
G1 X135.114 Y112.614 E51.13584
G0 F9000 X134.724 Y112.224
;TYPE:SKIN
G1 F1800 X120.276 Y112.224 E51.61638
G1 X120.277 Y97.777 E52.09689
G1 X134.724 Y97.776 E52.5774
G1 X134.724 Y112.224 E53.05794
G0 F9000 X134.563 Y111.51
G1 F1800 X134.008 Y112.064 E53.08402
G0 F9000 X133.443 Y112.064
G1 F1800 X134.563 Y110.944 E53.1367
G0 F9000 X134.563 Y110.378
G1 F1800 X132.877 Y112.064 E53.21601
G0 F9000 X132.311 Y112.064
G1 F1800 X134.563 Y109.812 E53.32194
G0 F9000 X134.563 Y109.247
G1 F1800 X131.746 Y112.064 E53.45444
G0 F9000 X131.18 Y112.064
G1 F1800 X134.563 Y108.681 E53.61356
G0 F9000 X134.563 Y108.115
G1 F1800 X130.614 Y112.064 E53.79931
G0 F9000 X130.048 Y112.064
G1 F1800 X134.563 Y107.55 E54.01166
G0 F9000 X134.563 Y106.984
G1 F1800 X129.483 Y112.064 E54.25061
G0 F9000 X128.917 Y112.064
G1 F1800 X134.563 Y106.418 E54.51618
G0 F9000 X134.563 Y105.853
G1 F1800 X128.351 Y112.064 E54.80835
G0 F9000 X127.786 Y112.064
G1 F1800 X134.563 Y105.287 E55.12712
G0 F9000 X134.563 Y104.721
G1 F1800 X127.22 Y112.064 E55.47251
G0 F9000 X126.654 Y112.064
G1 F1800 X134.563 Y104.156 E55.8445
G0 F9000 X134.563 Y103.59
G1 F1800 X126.089 Y112.064 E56.24309
G0 F9000 X125.523 Y112.064
G1 F1800 X134.563 Y103.024 E56.66831
G0 F9000 X134.563 Y102.459
G1 F1800 X124.957 Y112.064 E57.12012
G0 F9000 X124.392 Y112.064
G1 F1800 X134.563 Y101.893 E57.59853
G0 F9000 X134.563 Y101.327
G1 F1800 X123.826 Y112.064 E58.10357
G0 F9000 X123.26 Y112.064
G1 F1800 X134.563 Y100.762 E58.6352
G0 F9000 X134.563 Y100.196
G1 F1800 X122.695 Y112.064 E59.19344
G0 F9000 X122.129 Y112.064
G1 F1800 X134.563 Y99.63 E59.7783
G0 F9000 X134.563 Y99.064
G1 F1800 X121.563 Y112.064 E60.38978
G0 F9000 X120.997 Y112.064
G1 F1800 X134.563 Y98.499 E61.02786
G0 F9000 X134.56 Y97.936
G1 F1800 X120.435 Y112.06 E61.69223
G0 F9000 X120.435 Y111.495
G1 F1800 X133.994 Y97.936 E62.33
G0 F9000 X133.428 Y97.936
G1 F1800 X120.435 Y110.929 E62.94115
G0 F9000 X120.435 Y110.363
G1 F1800 X132.863 Y97.936 E63.5257
G0 F9000 X132.297 Y97.936
G1 F1800 X120.435 Y109.798 E64.08366
G0 F9000 X120.435 Y109.232
G1 F1800 X131.731 Y97.936 E64.61499
G0 F9000 X131.166 Y97.936
G1 F1800 X120.435 Y108.666 E65.11972
G0 F9000 X120.435 Y108.101
G1 F1800 X130.6 Y97.936 E65.59785
G0 F9000 X130.034 Y97.936
G1 F1800 X120.435 Y107.535 E66.04935
G0 F9000 X120.435 Y106.969
G1 F1800 X129.469 Y97.936 E66.47426
G0 F9000 X128.903 Y97.936
G1 F1800 X120.435 Y106.404 E66.87257
G0 F9000 X120.435 Y105.838
G1 F1800 X128.337 Y97.936 E67.24426
G0 F9000 X127.772 Y97.936
G1 F1800 X120.435 Y105.272 E67.58934
G0 F9000 X120.435 Y104.706
G1 F1800 X127.206 Y97.936 E67.90781
G0 F9000 X126.64 Y97.936
G1 F1800 X120.435 Y104.141 E68.19967
G0 F9000 X120.435 Y103.575
G1 F1800 X126.075 Y97.936 E68.46494
G0 F9000 X125.509 Y97.936
G1 F1800 X120.435 Y103.009 E68.70358
G0 F9000 X120.435 Y102.444
G1 F1800 X124.943 Y97.936 E68.91562
G0 F9000 X124.377 Y97.936
