;FLAVOR:Marlin
;TIME:700
;Filament used: 0.51242m
;Layer height: 0.2
;MINX:93.073
;MINY:91.037
;MINZ:0.2
;MAXX:141.45
;MAXY:125.345
;MAXZ:6
;Generated with Cura_SteamEngine 4.12.1
M140 S60
M105
M190 S60
M104 S205
M105
M109 S205
M82 ;absolute extrusion mode
M220 S100 ;reset feedrate
M221 S100 ;reset flowrate
G90 ;use absolute coordinates
M82 ;absolute extrusion mode
G28 ;home
G1 Z2 F1500 ;raise z
G92 E0 ;reset extruder

G1 X75 Y5 F5000 ;start position
G1 Z0.28 F1500 ;lower z
G1 E4 F500 ;prime the filament
G1 X180 E10 F500 ;1st line
G1 Y5.4 F5000
G1 X75 E20 F500 ;2nd line
G1 Z2 F1500 ;raise z
G92 E0 ;reset extruder
G92 E0
G92 E0
G1 F1500 E-6.5
;LAYER_COUNT:30
;LAYER:0
M107
G0 F9000 X97.454 Y101.217 Z0.2
;TYPE:SKIRT
G1 F1500 E0
G1 F1800 X97.713 Y100.977 E0.01468
G1 X98.06 Y100.675 E0.03381
G1 X98.179 Y100.576 E0.04024
G1 X98.534 Y100.296 E0.05904
G1 X98.803 Y100.094 E0.07302
G1 X98.931 Y100.003 E0.07955
G1 X99.292 Y99.756 E0.09774
G1 X99.573 Y99.572 E0.1117
G1 X99.706 Y99.488 E0.11824
G1 X99.986 Y99.321 E0.1318
G1 X100.413 Y99.082 E0.15214
G1 X100.53 Y99.02 E0.15765
G1 X100.938 Y98.814 E0.17665
G1 X101.26 Y98.662 E0.19145
G1 X101.386 Y98.607 E0.19717
G1 X101.683 Y98.479 E0.21062
G1 X102.113 Y98.308 E0.22985
G1 X102.247 Y98.26 E0.23577
G1 X102.544 Y98.154 E0.24888
G1 X102.691 Y98.105 E0.25532
G1 X103.038 Y97.997 E0.27043
G1 X103.479 Y97.874 E0.28947
G1 X103.612 Y97.84 E0.29518
G1 X104.037 Y97.74 E0.31333
G1 X104.384 Y97.667 E0.32807
G1 X104.525 Y97.642 E0.33402
G1 X104.836 Y97.588 E0.34715
G1 X104.979 Y97.566 E0.35316
G1 X105.329 Y97.519 E0.36784
G1 X105.801 Y97.469 E0.38758
G1 X105.918 Y97.461 E0.39245
G1 X106.23 Y97.438 E0.40546
G1 X106.4 Y97.429 E0.41254
G1 X106.754 Y97.419 E0.42726
G1 X107.203 Y97.418 E0.44593
G1 X107.668 Y97.431 E0.46527
G1 X107.821 Y97.439 E0.47164
G1 X108.26 Y97.472 E0.48994
G1 X108.604 Y97.506 E0.50431
G1 X108.747 Y97.523 E0.5103
G1 X109.191 Y97.586 E0.52894
G1 X109.522 Y97.641 E0.54289
G1 X109.679 Y97.67 E0.54953
G1 X110.127 Y97.766 E0.56858
G1 X110.461 Y97.846 E0.58286
G1 X110.927 Y97.973 E0.60294
G1 X111.074 Y98.016 E0.60931
G1 X111.482 Y98.148 E0.62714
G1 X111.798 Y98.258 E0.64105
G1 X111.934 Y98.309 E0.64709
G1 X112.374 Y98.483 E0.66676
G1 X112.7 Y98.623 E0.68151
G1 X112.804 Y98.673 E0.6863
G1 X113.096 Y98.808 E0.69968
G1 X113.238 Y98.878 E0.70626
G1 X113.552 Y99.04 E0.72095
G1 X113.552 Y95.078 E0.88567
G1 X113.592 Y94.532 E0.90843
G1 X113.735 Y93.921 E0.93452
G1 X113.795 Y93.736 E0.94261
G1 X114.001 Y93.229 E0.96536
G1 X114.279 Y92.758 E0.9881
G1 X114.623 Y92.332 E1.01086
G1 X115.025 Y91.96 E1.03363
G1 X115.505 Y91.635 E1.05773
G1 X115.691 Y91.529 E1.06663
G1 X116.185 Y91.293 E1.0894
G1 X116.708 Y91.132 E1.11215
G1 X117.249 Y91.049 E1.1349
G1 X117.548 Y91.037 E1.14734
G1 X137.455 Y91.037 E1.97498
G1 X138.001 Y91.077 E1.99774
G1 X138.535 Y91.196 E2.02049
G1 X139.046 Y91.391 E2.04323
G1 X139.35 Y91.551 E2.05751
G1 X139.531 Y91.657 E2.06623
G1 X139.982 Y91.967 E2.08898
G1 X140.383 Y92.34 E2.11175
G1 X140.725 Y92.767 E2.1345
G1 X141.002 Y93.239 E2.15725
G1 X141.176 Y93.655 E2.176
G1 X141.24 Y93.838 E2.18406
G1 X141.382 Y94.367 E2.20683
G1 X141.45 Y95.076 E2.23644
G1 X141.449 Y105.115 E2.65381
G1 X141.438 Y105.554 E2.67207
G1 X141.421 Y105.898 E2.68639
G1 X141.411 Y106.05 E2.69272
G1 X141.38 Y106.394 E2.70708
G1 X141.327 Y106.846 E2.726
G1 X141.311 Y106.965 E2.73099
G1 X141.243 Y107.4 E2.7493
G1 X141.18 Y107.751 E2.76413
G1 X141.138 Y107.954 E2.77274
G1 X141.045 Y108.341 E2.78929
G1 X140.96 Y108.674 E2.80358
G1 X140.92 Y108.822 E2.80995
G1 X140.791 Y109.248 E2.82846
G1 X140.681 Y109.583 E2.84312
G1 X140.625 Y109.742 E2.85013
G1 X140.472 Y110.141 E2.86789
G1 X140.29 Y110.583 E2.88777
G1 X140.145 Y110.904 E2.90241
G1 X139.94 Y111.324 E2.92184
G1 X139.722 Y111.737 E2.94126
G1 X139.658 Y111.853 E2.94676
G1 X139.49 Y112.143 E2.9607
G1 X139.24 Y112.547 E2.98045
G1 X139.168 Y112.658 E2.98595
G1 X138.976 Y112.943 E3.00024
G1 X138.907 Y113.042 E3.00526
G1 X138.627 Y113.427 E3.02505
G1 X138.344 Y113.789 E3.04415
G1 X138.13 Y114.048 E3.05812
G1 X138.03 Y114.164 E3.06449
G1 X137.737 Y114.489 E3.08268
G1 X137.507 Y114.734 E3.09665
G1 X137.409 Y114.834 E3.10247
G1 X137.149 Y115.091 E3.11767
G1 X136.798 Y115.415 E3.13753
G1 X136.712 Y115.489 E3.14225
G1 X136.474 Y115.696 E3.15536
G1 X136.345 Y115.803 E3.16233
G1 X136.068 Y116.023 E3.17703
G1 X135.696 Y116.301 E3.19634
G1 X135.611 Y116.363 E3.20072
G1 X135.324 Y116.564 E3.21528
G1 X135.208 Y116.642 E3.2211
G1 X134.931 Y116.821 E3.23481
G1 X134.519 Y117.071 E3.25484
G1 X134.409 Y117.133 E3.26009
G1 X134.139 Y117.285 E3.27297
G1 X133.985 Y117.367 E3.28023
G1 X133.593 Y117.563 E3.29845
G1 X133.29 Y117.707 E3.3124
G1 X133.128 Y117.779 E3.31977
G1 X132.735 Y117.943 E3.33747
G1 X132.414 Y118.07 E3.35182
G1 X132.272 Y118.123 E3.35813
G1 X131.946 Y118.237 E3.37248
G1 X131.512 Y118.376 E3.39143
G1 X131.382 Y118.412 E3.39704
G1 X131.078 Y118.498 E3.41017
G1 X130.906 Y118.543 E3.41756
G1 X130.485 Y118.64 E3.43553
G1 X130.138 Y118.713 E3.45027
G1 X130.008 Y118.736 E3.45576
G1 X129.696 Y118.791 E3.46893
G1 X129.551 Y118.814 E3.47503
G1 X129.228 Y118.858 E3.48859
G1 X129.084 Y118.874 E3.49461
G1 X128.618 Y118.918 E3.51407
G1 X128.282 Y118.942 E3.52807
G1 X128.132 Y118.95 E3.53432
G1 X127.663 Y118.963 E3.55383
G1 X127.319 Y118.963 E3.56813
G1 X127.188 Y118.961 E3.57357
G1 X126.844 Y118.949 E3.58789
G1 X126.395 Y118.921 E3.60659
G1 X126.271 Y118.911 E3.61176
G1 X125.908 Y118.875 E3.62693
G1 X125.752 Y118.856 E3.63346
G1 X125.42 Y118.809 E3.6474
G1 X124.964 Y118.731 E3.66663
G1 X124.849 Y118.71 E3.67149
G1 X124.51 Y118.64 E3.68589
G1 X124.059 Y118.533 E3.70516
G1 X123.939 Y118.502 E3.71031
G1 X123.616 Y118.413 E3.72424
G1 X123.48 Y118.373 E3.73013
G1 X123.142 Y118.266 E3.74487
G1 X123.023 Y118.226 E3.75009
G1 X122.585 Y118.069 E3.76944
G1 X122.265 Y117.944 E3.78372
G1 X122.15 Y117.897 E3.78888
G1 X121.84 Y117.764 E3.80291
G1 X121.71 Y117.705 E3.80884
G1 X121.311 Y117.515 E3.82722
G1 X120.97 Y117.342 E3.84311
G1 X120.97 Y121.313 E4.00821
G1 X120.93 Y121.859 E4.03097
G1 X120.811 Y122.394 E4.05376
G1 X120.562 Y123.014 E4.08153
G1 X120.45 Y123.234 E4.0918
G1 X120.167 Y123.703 E4.11457
G1 X119.818 Y124.125 E4.13734
G1 X119.412 Y124.492 E4.16009
G1 X118.957 Y124.796 E4.18284
G1 X118.597 Y124.975 E4.19956
G1 X118.456 Y125.036 E4.20595
G1 X117.939 Y125.216 E4.22871
G1 X117.401 Y125.319 E4.25148
G1 X116.967 Y125.344 E4.26955
G1 X97.135 Y125.345 E5.09407
G1 X96.589 Y125.305 E5.11683
G1 X96.055 Y125.186 E5.13958
G1 X95.794 Y125.097 E5.15104
G1 X95.572 Y125.012 E5.16093
G1 X95.077 Y124.78 E5.18365
G1 X94.62 Y124.477 E5.20645
G1 X94.213 Y124.112 E5.22918
G1 X93.863 Y123.691 E5.25194
G1 X93.548 Y123.165 E5.27743
G1 X93.459 Y122.984 E5.28582
G1 X93.254 Y122.476 E5.30859
G1 X93.125 Y121.944 E5.33135
G1 X93.074 Y121.33 E5.35697
G1 X93.073 Y111.255 E5.77584
G1 X93.085 Y110.825 E5.79372
G1 X93.102 Y110.482 E5.808
G1 X93.111 Y110.342 E5.81383
G1 X93.141 Y109.998 E5.82819
G1 X93.195 Y109.535 E5.84757
G1 X93.263 Y109.077 E5.86682
G1 X93.287 Y108.935 E5.8728
G1 X93.375 Y108.485 E5.89187
G1 X93.45 Y108.149 E5.90618
G1 X93.567 Y107.692 E5.92579
G1 X93.597 Y107.58 E5.93061
G1 X93.692 Y107.256 E5.94465
G1 X93.849 Y106.783 E5.96537
G1 X93.883 Y106.685 E5.96968
G1 X94.002 Y106.361 E5.98403
G1 X94.05 Y106.238 E5.98952
G1 X94.185 Y105.907 E6.00438
G1 X94.234 Y105.797 E6.00939
G1 X94.368 Y105.494 E6.02317
G1 X94.431 Y105.364 E6.02917
G1 X94.569 Y105.08 E6.0423
G1 X94.636 Y104.949 E6.04842
G1 X94.802 Y104.639 E6.06304
G1 X95.029 Y104.242 E6.08205
G1 X95.102 Y104.12 E6.08796
G1 X95.29 Y103.821 E6.10264
G1 X95.531 Y103.458 E6.12076
G1 X95.618 Y103.332 E6.12712
G1 X95.883 Y102.97 E6.14578
G1 X96.097 Y102.691 E6.1604
G1 X96.195 Y102.572 E6.1668
G1 X96.408 Y102.315 E6.18068
G1 X96.507 Y102.2 E6.18699
G1 X96.791 Y101.886 E6.20459
G1 X97.022 Y101.641 E6.21859
G1 X97.136 Y101.525 E6.22535
G1 X97.454 Y101.217 E6.24376
G0 F9000 X97.794 Y101.584
G1 F1800 X98.053 Y101.344 E6.25844
G1 X98.139 Y101.267 E6.26324
G1 X98.387 Y101.053 E6.27686
G1 X98.49 Y100.968 E6.28241
G1 X98.834 Y100.696 E6.30064
G1 X99.103 Y100.494 E6.31463
G1 X99.214 Y100.415 E6.32029
G1 X99.566 Y100.174 E6.33803
G1 X99.847 Y99.99 E6.35199
G1 X99.962 Y99.918 E6.35763
G1 X100.329 Y99.701 E6.37536
G1 X100.655 Y99.52 E6.39086
G1 X101.063 Y99.31 E6.40994
G1 X101.474 Y99.114 E6.42887
G1 X101.584 Y99.066 E6.43386
G1 X101.881 Y98.938 E6.44731
G1 X102.297 Y98.773 E6.46591
G1 X102.416 Y98.731 E6.47116
G1 X102.713 Y98.625 E6.48427
G1 X102.839 Y98.583 E6.48979
G1 X103.186 Y98.475 E6.5049
G1 X103.612 Y98.356 E6.52329
G1 X103.727 Y98.326 E6.52823
G1 X104.14 Y98.23 E6.54586
G1 X104.487 Y98.157 E6.5606
G1 X104.611 Y98.135 E6.56584
G1 X104.922 Y98.081 E6.57896
G1 X105.045 Y98.062 E6.58413
G1 X105.498 Y98.003 E6.60313
G1 X105.851 Y97.967 E6.61788
G1 X105.955 Y97.96 E6.62221
G1 X106.267 Y97.937 E6.63522
G1 X106.414 Y97.929 E6.64134
G1 X106.86 Y97.918 E6.65989
G1 X107.203 Y97.918 E6.67415
G1 X107.652 Y97.931 E6.69282
G1 X107.784 Y97.938 E6.69832
G1 X108.211 Y97.97 E6.71612
G1 X108.679 Y98.018 E6.73568
G1 X109.109 Y98.079 E6.75374
G1 X109.44 Y98.134 E6.76769
G1 X109.576 Y98.16 E6.77344
G1 X110.011 Y98.252 E6.79193
G1 X110.345 Y98.332 E6.80621
G1 X110.794 Y98.455 E6.82556
G1 X110.921 Y98.492 E6.83106
G1 X111.242 Y98.595 E6.84508
G1 X111.633 Y98.731 E6.86229
G1 X111.751 Y98.774 E6.86751
G1 X112.08 Y98.903 E6.8822
G1 X112.502 Y99.083 E6.90128
G1 X112.594 Y99.127 E6.90552
G1 X112.886 Y99.262 E6.91889
G1 X113.009 Y99.322 E6.92458
G1 X113.404 Y99.527 E6.94308
G1 X113.714 Y99.699 E6.95782
G1 X114.052 Y99.901 E6.97419
G1 X114.052 Y95.078 E7.17471
G1 X114.092 Y94.57 E7.1959
G1 X114.211 Y94.075 E7.21706
G1 X114.271 Y93.89 E7.22515
G1 X114.465 Y93.42 E7.24629
G1 X114.731 Y92.985 E7.26749
G1 X115.062 Y92.597 E7.28869
G1 X115.449 Y92.266 E7.30986
G1 X115.753 Y92.069 E7.32492
G1 X115.939 Y91.963 E7.33382
G1 X116.4 Y91.747 E7.35499
G1 X116.889 Y91.604 E7.37617
G1 X117.548 Y91.537 E7.40371
G1 X137.455 Y91.537 E8.23135
G1 X137.963 Y91.577 E8.25253
G1 X138.458 Y91.696 E8.2737
G1 X139.097 Y91.983 E8.30282
G1 X139.278 Y92.089 E8.31154
G1 X139.697 Y92.38 E8.33275
G1 X140.064 Y92.733 E8.35392
G1 X140.372 Y93.139 E8.37511
G1 X140.704 Y93.82 E8.40661
G1 X140.768 Y94.003 E8.41467
G1 X140.898 Y94.496 E8.43586
G1 X140.95 Y95.076 E8.46007
G1 X140.949 Y105.104 E8.87699
G1 X140.939 Y105.529 E8.89466
G1 X140.922 Y105.873 E8.90898
G1 X140.913 Y106.005 E8.91448
G1 X140.872 Y106.445 E8.93286
G1 X140.817 Y106.889 E8.95146
G1 X140.751 Y107.312 E8.96926
G1 X140.688 Y107.663 E8.98408
G1 X140.651 Y107.838 E8.99152
G1 X140.561 Y108.218 E9.00775
G1 X140.476 Y108.551 E9.02204
G1 X140.441 Y108.678 E9.02752
G1 X140.316 Y109.092 E9.0455
G1 X140.206 Y109.427 E9.06016
G1 X140.157 Y109.565 E9.06625
G1 X140.009 Y109.952 E9.08347
G1 X139.834 Y110.377 E9.10258
G1 X139.689 Y110.698 E9.11723
G1 X139.491 Y111.104 E9.13601
G1 X139.281 Y111.501 E9.15468
G1 X139.225 Y111.602 E9.15948
G1 X139.003 Y111.982 E9.17778
G1 X138.816 Y112.282 E9.19247
G1 X138.753 Y112.379 E9.19728
G1 X138.502 Y112.749 E9.21587
G1 X138.3 Y113.029 E9.23022
G1 X138.232 Y113.12 E9.23495
G1 X138.021 Y113.392 E9.24926
G1 X137.744 Y113.729 E9.2674
G1 X137.658 Y113.83 E9.27291
G1 X137.422 Y114.093 E9.2876
G1 X137.058 Y114.478 E9.30963
G1 X136.798 Y114.735 E9.32483
G1 X136.459 Y115.047 E9.34398
G1 X136.384 Y115.111 E9.34808
G1 X136.146 Y115.318 E9.3612
G1 X136.034 Y115.411 E9.36725
G1 X135.674 Y115.695 E9.38631
G1 X135.324 Y115.953 E9.40439
G1 X134.937 Y116.222 E9.42398
G1 X134.66 Y116.401 E9.4377
G1 X134.261 Y116.643 E9.4571
G1 X134.163 Y116.697 E9.46175
G1 X133.893 Y116.849 E9.47463
G1 X133.76 Y116.92 E9.4809
G1 X133.378 Y117.111 E9.49866
G1 X133.075 Y117.255 E9.5126
G1 X132.935 Y117.318 E9.51899
G1 X132.551 Y117.478 E9.53628
G1 X132.23 Y117.605 E9.55063
G1 X132.107 Y117.651 E9.55609
G1 X131.694 Y117.794 E9.57426
G1 X131.361 Y117.9 E9.58879
G1 X131.246 Y117.931 E9.59374
G1 X130.942 Y118.017 E9.60688
G1 X130.793 Y118.056 E9.61328
G1 X130.382 Y118.15 E9.63081
G1 X130.035 Y118.223 E9.64555
G1 X129.921 Y118.244 E9.65037
G1 X129.609 Y118.299 E9.66354
G1 X129.161 Y118.362 E9.68235
G1 X129.036 Y118.377 E9.68759
G1 X128.583 Y118.42 E9.70651
G1 X128.247 Y118.444 E9.72051
G1 X127.765 Y118.461 E9.74056
G1 X127.663 Y118.463 E9.7448
G1 X127.319 Y118.463 E9.75911
G1 X127.206 Y118.461 E9.7638
G1 X126.761 Y118.444 E9.78232
G1 X126.427 Y118.422 E9.79624
G1 X125.957 Y118.377 E9.81586
G1 X125.822 Y118.361 E9.82152
G1 X125.389 Y118.298 E9.83971
G1 X124.95 Y118.22 E9.85825
G1 X124.611 Y118.15 E9.87264
G1 X124.176 Y118.047 E9.89122
G1 X123.749 Y117.931 E9.90962
G1 X123.631 Y117.896 E9.91474
G1 X123.19 Y117.755 E9.93398
G1 X122.865 Y117.64 E9.94832
G1 X122.446 Y117.478 E9.96699
G1 X122.348 Y117.438 E9.97139
G1 X122.038 Y117.305 E9.98542
G1 X121.925 Y117.254 E9.99057
G1 X121.536 Y117.068 E10.0085
G1 X121.12 Y116.856 E10.02791
G1 X120.811 Y116.685 E10.04259
G1 X120.723 Y116.631 E10.04689
G1 X120.47 Y116.482 E10.05909
G1 X120.47 Y121.313 E10.25994
G1 X120.43 Y121.821 E10.28113
G1 X120.311 Y122.317 E10.30234
G1 X120.116 Y122.787 E10.32349
G1 X120.004 Y123.007 E10.33375
G1 X119.738 Y123.442 E10.35495
G1 X119.408 Y123.83 E10.37613
G1 X119.02 Y124.161 E10.39733
G1 X118.398 Y124.516 E10.42711
G1 X118.257 Y124.577 E10.4335
G1 X117.775 Y124.742 E10.45468
G1 X117.273 Y124.83 E10.47587
G1 X116.967 Y124.844 E10.4886
G1 X97.135 Y124.845 E11.31312
G1 X96.627 Y124.805 E11.3343
G1 X95.973 Y124.63 E11.36245
G1 X95.751 Y124.545 E11.37233
G1 X95.291 Y124.326 E11.39352
G1 X94.871 Y124.038 E11.41469
G1 X94.501 Y123.688 E11.43586
G1 X94.19 Y123.284 E11.45706
G1 X93.997 Y122.944 E11.47331
G1 X93.908 Y122.763 E11.4817
G1 X93.719 Y122.29 E11.50288
G1 X93.607 Y121.793 E11.52406
G1 X93.574 Y121.33 E11.54336
G1 X93.573 Y111.267 E11.96173
G1 X93.584 Y110.85 E11.97907
G1 X93.601 Y110.507 E11.99335
G1 X93.609 Y110.386 E11.99839
G1 X93.65 Y109.936 E12.01718
G1 X93.691 Y109.595 E12.03145
G1 X93.757 Y109.152 E12.05008
G1 X93.778 Y109.029 E12.05526
G1 X93.863 Y108.594 E12.07369
G1 X93.964 Y108.149 E12.09266
G1 X94.077 Y107.721 E12.11107
G1 X94.172 Y107.397 E12.1251
G1 X94.323 Y106.942 E12.14503
G1 X94.471 Y106.534 E12.16308
G1 X94.648 Y106.096 E12.18272
G1 X94.692 Y106 E12.18711
G1 X94.826 Y105.697 E12.20088
G1 X94.881 Y105.583 E12.20615
G1 X95.019 Y105.299 E12.21927
G1 X95.077 Y105.185 E12.22459
G1 X95.293 Y104.785 E12.24349
G1 X95.462 Y104.492 E12.25755
G1 X95.526 Y104.386 E12.2627
G1 X95.761 Y104.014 E12.281
G1 X95.947 Y103.735 E12.29494
G1 X96.023 Y103.626 E12.30046
G1 X96.28 Y103.274 E12.31858
G1 X96.494 Y102.995 E12.3332
G1 X96.58 Y102.891 E12.33881
G1 X96.793 Y102.634 E12.35269
G1 X96.879 Y102.534 E12.35817
G1 X97.154 Y102.229 E12.37524
G1 X97.385 Y101.984 E12.38924
G1 X97.484 Y101.884 E12.39509
G1 X97.794 Y101.584 E12.41303
G0 F9000 X98.134 Y101.951
G1 F1800 X98.465 Y101.646 E12.43174
G1 X98.713 Y101.432 E12.44536
G1 X99.077 Y101.141 E12.46474
G1 X99.404 Y100.894 E12.48177
G1 X99.497 Y100.827 E12.48654
G1 X99.84 Y100.592 E12.50383
G1 X100.121 Y100.408 E12.51779
G1 X100.218 Y100.347 E12.52255
G1 X100.498 Y100.18 E12.53611
G1 X100.898 Y99.957 E12.55515
G1 X100.984 Y99.911 E12.5592
G1 X101.365 Y99.718 E12.57696
G1 X101.687 Y99.566 E12.59176
G1 X101.782 Y99.526 E12.59605
G1 X102.158 Y99.365 E12.61305
G1 X102.48 Y99.238 E12.62744
G1 X102.584 Y99.202 E12.63202
G1 X102.881 Y99.096 E12.64513
G1 X102.988 Y99.06 E12.64982
G1 X103.421 Y98.927 E12.66866
G1 X103.744 Y98.838 E12.68259
G1 X104.176 Y98.734 E12.70106
G1 X104.59 Y98.646 E12.71866
G1 X104.697 Y98.628 E12.72317
G1 X105.112 Y98.557 E12.74067
G1 X105.549 Y98.5 E12.75899
G1 X105.902 Y98.464 E12.77375
G1 X105.992 Y98.458 E12.7775
G1 X106.304 Y98.435 E12.7905
G1 X106.428 Y98.429 E12.79566
G1 X106.86 Y98.418 E12.81363
G1 X107.291 Y98.419 E12.83155
G1 X107.636 Y98.43 E12.8459
G1 X107.748 Y98.436 E12.85056
G1 X108.161 Y98.467 E12.86778
G1 X108.505 Y98.501 E12.88215
G1 X108.951 Y98.561 E12.90086
G1 X109.358 Y98.627 E12.91801
G1 X109.473 Y98.649 E12.92287
G1 X109.895 Y98.739 E12.94081
G1 X110.321 Y98.842 E12.95903
G1 X110.661 Y98.936 E12.9737
