;FLAVOR:Marlin
;TIME:4292
;Filament used: 3.91991m
;Layer height: 0.2
;MINX:93.677
;MINY:88.901
;MINZ:0.2
;MAXX:157.299
;MAXY:121.048
;MAXZ:48
;Generated with Cura_SteamEngine 4.12.1
M140 S60
M105
M190 S60
M104 S210
M105
M109 S210
M82 ;absolute extrusion mode
M220 S100 ;reset feedrate
M221 S100 ;reset flowrate
G90 ;use absolute coordinates
M82 ;absolute extrusion mode
G28 ;home
G1 Z2 F1500 ;raise z
G92 E0 ;reset extruder

G1 X75 Y5 F5000 ;start position
G1 Z0.28 F1500 ;lower z
G1 E4 F500 ;prime the filament
G1 X180 E10 F500 ;1st line
G1 Y5.4 F5000
G1 X75 E20 F500 ;2nd line
G1 Z2 F1500 ;raise z
G92 E0 ;reset extruder
G92 E0
G92 E0
G1 F1500 E-6.5
;LAYER_COUNT:240
;LAYER:0
M107
G0 F9000 X96.32 Y93.427 Z0.2
;TYPE:SKIRT
G1 F1500 E0
G1 F1800 X97.14 Y92.655 E0.04682
G1 X97.338 Y92.494 E0.05743
G1 X98.134 Y91.926 E0.09809
G1 X98.372 Y91.778 E0.10974
G1 X99.061 Y91.397 E0.14247
G1 X99.489 Y91.203 E0.16201
G1 X99.715 Y91.109 E0.17219
G1 X100.508 Y90.829 E0.20715
G1 X100.709 Y90.77 E0.21586
G1 X101.416 Y90.598 E0.24611
G1 X101.648 Y90.553 E0.25594
G1 X102.491 Y90.437 E0.29131
G1 X102.776 Y90.415 E0.3032
G1 X126.319 Y88.984 E1.28381
G1 X126.51 Y88.975 E1.29176
G1 X126.982 Y88.958 E1.31139
G1 X127.211 Y88.953 E1.32092
G1 X127.666 Y88.952 E1.33983
G1 X128.118 Y88.958 E1.35863
G1 X128.401 Y88.966 E1.3704
G1 X128.613 Y88.975 E1.37922
G1 X129.062 Y89 E1.39792
G1 X129.306 Y89.017 E1.40809
G1 X129.752 Y89.056 E1.4267
G1 X129.981 Y89.08 E1.43627
G1 X130.577 Y89.151 E1.46123
G1 X130.859 Y89.192 E1.47307
G1 X131.286 Y89.259 E1.49104
G1 X131.493 Y89.294 E1.49977
G1 X131.892 Y89.368 E1.51664
G1 X132.341 Y89.459 E1.53569
G1 X132.734 Y89.546 E1.55242
G1 X132.966 Y89.601 E1.56234
G1 X133.352 Y89.699 E1.57889
G1 X133.562 Y89.756 E1.58794
G1 X134.125 Y89.917 E1.61229
G1 X134.542 Y90.046 E1.63043
G1 X134.801 Y90.131 E1.64177
G1 X135.328 Y90.315 E1.66497
G1 X135.713 Y90.458 E1.68205
G1 X135.949 Y90.55 E1.69258
G1 X136.447 Y90.755 E1.71497
G1 X136.794 Y90.904 E1.73067
G1 X137 Y90.996 E1.74005
G1 X137.392 Y91.178 E1.75802
G1 X137.576 Y91.269 E1.76655
G1 X137.803 Y91.381 E1.77708
G1 X138.345 Y91.663 E1.80248
G1 X138.695 Y91.862 E1.81922
G1 X138.698 Y91.857 E1.81946
G1 X138.92 Y91.981 E1.83003
G1 X139.124 Y92.099 E1.83983
G1 X139.518 Y92.337 E1.85897
G1 X140.019 Y92.653 E1.88359
G1 X140.226 Y92.79 E1.89391
G1 X140.442 Y92.935 E1.90473
G1 X140.524 Y92.994 E1.90893
G1 X140.738 Y93.141 E1.91972
G1 X140.991 Y93.323 E1.93268
G1 X141.418 Y93.642 E1.95484
G1 X141.774 Y93.92 E1.97362
G1 X142.149 Y94.225 E1.99371
G1 X142.298 Y94.349 E2.00177
G1 X142.596 Y94.604 E2.01808
G1 X142.793 Y94.778 E2.02901
G1 X143.14 Y95.096 E2.04858
G1 X143.311 Y95.258 E2.05837
G1 X143.627 Y95.567 E2.07674
G1 X143.9 Y95.843 E2.09288
G1 X144.086 Y96.035 E2.104
G1 X144.25 Y96.209 E2.11394
G1 X144.637 Y96.634 E2.13784
G1 X144.845 Y96.872 E2.15098
G1 X145.027 Y97.089 E2.16275
G1 X145.123 Y97.202 E2.16892
G1 X145.452 Y97.608 E2.19064
G1 X145.589 Y97.781 E2.19982
G1 X145.803 Y98.061 E2.21447
G1 X145.927 Y98.229 E2.22315
G1 X146.258 Y98.689 E2.24671
G1 X146.409 Y98.907 E2.25774
G1 X146.733 Y99.393 E2.28202
G1 X146.933 Y99.709 E2.29757
G1 X147.069 Y99.931 E2.30839
G1 X147.344 Y100.401 E2.33103
G1 X147.746 Y101.193 E2.36796
G1 X147.832 Y101.39 E2.37689
G1 X148.186 Y102.381 E2.42064
G1 X148.246 Y102.593 E2.4298
G1 X148.475 Y103.707 E2.47709
G1 X148.503 Y103.923 E2.48614
G1 X148.566 Y105.067 E2.53378
G1 X148.562 Y105.277 E2.54251
G1 X148.507 Y106.062 E2.57523
G1 X148.444 Y106.481 E2.59284
G1 X148.399 Y106.735 E2.60357
G1 X148.223 Y107.502 E2.63628
G1 X148.025 Y108.104 E2.66263
G1 X147.908 Y108.416 E2.67648
G1 X147.594 Y109.138 E2.70922
G1 X147.357 Y109.58 E2.73007
G1 X147.178 Y109.889 E2.74492
G1 X146.831 Y110.455 E2.77252
G1 X146.711 Y110.641 E2.78172
G1 X146.439 Y111.051 E2.80218
G1 X146.291 Y111.267 E2.81306
G1 X146.035 Y111.623 E2.83129
G1 X145.71 Y112.062 E2.854
G1 X145.405 Y112.455 E2.87468
G1 X145.122 Y112.801 E2.89327
G1 X144.682 Y113.316 E2.92143
G1 X144.443 Y113.583 E2.93633
G1 X143.926 Y114.131 E2.96765
G1 X143.693 Y114.369 E2.9815
G1 X143.507 Y114.552 E2.99234
G1 X143.196 Y114.849 E3.01022
G1 X143.051 Y114.984 E3.01846
G1 X142.674 Y115.326 E3.03962
G1 X142.475 Y115.501 E3.05064
G1 X142.188 Y115.744 E3.06627
G1 X141.784 Y116.074 E3.08796
G1 X141.564 Y116.248 E3.09962
G1 X141.091 Y116.604 E3.12424
G1 X140.876 Y116.762 E3.13533
G1 X140.601 Y116.956 E3.14932
G1 X140.183 Y117.24 E3.17033
G1 X139.773 Y117.506 E3.19065
G1 X139.561 Y117.638 E3.20103
G1 X139.126 Y117.9 E3.22214
G1 X138.788 Y118.095 E3.23837
G1 X138.568 Y118.218 E3.24885
G1 X138.37 Y118.325 E3.2582
G1 X137.936 Y118.552 E3.27857
G1 X137.707 Y118.668 E3.28924
G1 X137.311 Y118.86 E3.30754
G1 X136.888 Y119.053 E3.32687
G1 X136.476 Y119.234 E3.34558
G1 X136.19 Y119.349 E3.35839
G1 X135.781 Y119.51 E3.37667
G1 X135.367 Y119.672 E3.39515
G1 X134.954 Y119.817 E3.41335
G1 X134.388 Y120.003 E3.43812
G1 X134.19 Y120.064 E3.44673
G1 X133.795 Y120.179 E3.46383
G1 X133.354 Y120.299 E3.48284
G1 X133.034 Y120.381 E3.49657
G1 X132.836 Y120.429 E3.50504
G1 X132.256 Y120.559 E3.52975
G1 X132.054 Y120.601 E3.53833
G1 X131.577 Y120.692 E3.55852
G1 X131.359 Y120.73 E3.56772
G1 X130.884 Y120.805 E3.58771
G1 X130.532 Y120.854 E3.60249
G1 X129.998 Y120.918 E3.62485
G1 X129.737 Y120.944 E3.63575
G1 X129.11 Y120.996 E3.66191
G1 X128.867 Y121.013 E3.67204
G1 X128.419 Y121.034 E3.69068
G1 X128.035 Y121.045 E3.70665
G1 X127.813 Y121.048 E3.71588
G1 X127.312 Y121.048 E3.73671
G1 X127.102 Y121.045 E3.74544
G1 X126.77 Y121.036 E3.75925
G1 X126.563 Y121.028 E3.76787
G1 X126.153 Y121.006 E3.78494
G1 X125.275 Y120.954 E3.8215
G1 X124.209 Y120.887 E3.86591
G1 X122.149 Y120.762 E3.95171
G1 X119.265 Y120.586 E4.07184
G1 X117.993 Y120.51 E4.12482
G1 X106.962 Y119.841 E4.58427
G1 X102.731 Y119.581 E4.76051
G1 X102.232 Y119.535 E4.78134
G1 X102.011 Y119.507 E4.79061
G1 X100.96 Y119.299 E4.83515
G1 X100.694 Y119.227 E4.84661
G1 X99.611 Y118.846 E4.89434
G1 X99.314 Y118.716 E4.90782
G1 X98.344 Y118.206 E4.95338
G1 X98.163 Y118.094 E4.96223
G1 X97.374 Y117.535 E5.00243
G1 X97.203 Y117.397 E5.01156
G1 X96.418 Y116.669 E5.05607
G1 X96.19 Y116.426 E5.06993
G1 X95.467 Y115.531 E5.11776
G1 X95.346 Y115.356 E5.12661
G1 X94.846 Y114.526 E5.16689
G1 X94.744 Y114.33 E5.17608
G1 X94.421 Y113.625 E5.20832
G1 X94.334 Y113.407 E5.21808
G1 X94.005 Y112.381 E5.26287
G1 X93.939 Y112.112 E5.27439
G1 X93.785 Y111.294 E5.30899
G1 X93.757 Y111.085 E5.31776
G1 X93.699 Y110.473 E5.34332
G1 X93.688 Y110.269 E5.35181
G1 X93.677 Y109.851 E5.3692
G1 X93.678 Y100.093 E5.77489
G1 X93.701 Y99.5 E5.79956
G1 X93.72 Y99.253 E5.80986
G1 X93.851 Y98.311 E5.8494
G1 X93.906 Y98.039 E5.86094
G1 X94.136 Y97.166 E5.89847
G1 X94.222 Y96.903 E5.90998
G1 X94.504 Y96.169 E5.94267
G1 X94.713 Y95.735 E5.96269
G1 X94.854 Y95.464 E5.97539
G1 X95.404 Y94.563 E6.01928
G1 X95.547 Y94.361 E6.02957
G1 X96.163 Y93.598 E6.07034
G1 X96.32 Y93.427 E6.07999
G0 F9000 X96.689 Y93.765
G1 F1800 X97.455 Y93.043 E6.12376
G1 X97.653 Y92.882 E6.13436
G1 X98.398 Y92.35 E6.17242
G1 X98.636 Y92.202 E6.18408
G1 X99.303 Y91.835 E6.21573
G1 X99.681 Y91.665 E6.23296
G1 X99.907 Y91.571 E6.24314
G1 X100.649 Y91.308 E6.27587
G1 X100.85 Y91.249 E6.28457
G1 X101.511 Y91.089 E6.31285
G1 X101.743 Y91.044 E6.32267
G1 X102.532 Y90.935 E6.35579
G1 X102.806 Y90.914 E6.36721
G1 X126.349 Y89.483 E7.34782
G1 X127 Y89.458 E7.37491
G1 X127.214 Y89.453 E7.38381
G1 X127.524 Y89.451 E7.3967
G1 X128.104 Y89.458 E7.42081
G1 X128.585 Y89.474 E7.44082
G1 X129.034 Y89.499 E7.45952
G1 X129.263 Y89.516 E7.46907
G1 X129.709 Y89.555 E7.48768
G1 X129.922 Y89.576 E7.49658
G1 X130.365 Y89.628 E7.51512
G1 X130.647 Y89.666 E7.52695
G1 X131.209 Y89.753 E7.55059
G1 X131.403 Y89.786 E7.55878
G1 X131.795 Y89.859 E7.57535
G1 X132.233 Y89.947 E7.59393
G1 X132.626 Y90.034 E7.61066
G1 X132.843 Y90.086 E7.61994
G1 X133.229 Y90.184 E7.6365
G1 X133.426 Y90.237 E7.64498
G1 X133.978 Y90.395 E7.66885
G1 X134.386 Y90.521 E7.6866
G1 X134.645 Y90.606 E7.69794
G1 X135.154 Y90.784 E7.72035
G1 X135.539 Y90.927 E7.73743
G1 X135.76 Y91.013 E7.74729
G1 X136.25 Y91.214 E7.76931
G1 X136.597 Y91.363 E7.78501
G1 X136.789 Y91.449 E7.79375
G1 X137.181 Y91.631 E7.81172
G1 X137.355 Y91.717 E7.81979
G1 X137.582 Y91.829 E7.83032
G1 X138.06 Y92.078 E7.85272
G1 X138.322 Y92.218 E7.86507
G1 X138.454 Y92.293 E7.87139
G1 X138.676 Y92.417 E7.88196
G1 X138.867 Y92.528 E7.89114
G1 X139.251 Y92.76 E7.90979
G1 X139.752 Y93.076 E7.93442
G1 X139.947 Y93.206 E7.94416
G1 X140.163 Y93.351 E7.95498
G1 X140.241 Y93.406 E7.95895
G1 X140.455 Y93.553 E7.96974
G1 X140.692 Y93.723 E7.98187
G1 X141.113 Y94.039 E8.00375
G1 X141.459 Y94.307 E8.02195
G1 X141.834 Y94.612 E8.04205
G1 X141.973 Y94.728 E8.04957
G1 X142.271 Y94.983 E8.06588
G1 X142.455 Y95.147 E8.07613
G1 X142.802 Y95.465 E8.09569
G1 X142.962 Y95.616 E8.10484
G1 X143.272 Y95.919 E8.12286
G1 X143.541 Y96.19 E8.13874
G1 X143.727 Y96.382 E8.14985
G1 X143.881 Y96.546 E8.15921
G1 X144.268 Y96.971 E8.1831
G1 X144.462 Y97.193 E8.19536
G1 X144.644 Y97.41 E8.20713
G1 X144.735 Y97.517 E8.21297
G1 X145.064 Y97.923 E8.2347
G1 X145.191 Y98.085 E8.24326
G1 X145.405 Y98.365 E8.25791
G1 X145.522 Y98.522 E8.26605
G1 X145.847 Y98.974 E8.2892
G1 X145.998 Y99.192 E8.30022
G1 X146.31 Y99.66 E8.32361
G1 X146.506 Y99.97 E8.33885
G1 X146.729 Y100.337 E8.35671
G1 X146.912 Y100.652 E8.37185
G1 X147.287 Y101.393 E8.40638
G1 X147.373 Y101.59 E8.41532
G1 X147.705 Y102.517 E8.45626
G1 X147.765 Y102.729 E8.46542
G1 X147.979 Y103.771 E8.50964
G1 X148.007 Y103.987 E8.5187
G1 X148.066 Y105.057 E8.56325
G1 X148.062 Y105.267 E8.57198
G1 X147.952 Y106.394 E8.61906
G1 X147.907 Y106.648 E8.62978
G1 X147.735 Y107.389 E8.66141
G1 X147.556 Y107.929 E8.68506
G1 X147.439 Y108.241 E8.69892
G1 X147.135 Y108.938 E8.73053
G1 X146.924 Y109.329 E8.749
G1 X146.745 Y109.638 E8.76385
G1 X146.406 Y110.191 E8.79082
G1 X146.294 Y110.365 E8.79942
G1 X146.022 Y110.775 E8.81987
G1 X145.884 Y110.977 E8.83005
G1 X145.633 Y111.327 E8.84795
G1 X145.315 Y111.756 E8.87015
G1 X145.011 Y112.148 E8.89078
G1 X144.638 Y112.6 E8.91514
G1 X144.303 Y112.991 E8.93655
G1 X144.079 Y113.24 E8.95047
G1 X143.569 Y113.781 E8.98138
G1 X143.336 Y114.019 E8.99523
G1 X143.162 Y114.19 E9.00537
G1 X142.851 Y114.487 E9.02325
G1 X142.715 Y114.614 E9.03099
G1 X142.338 Y114.956 E9.05215
G1 X142.152 Y115.119 E9.06243
G1 X141.76 Y115.449 E9.08374
G1 X141.468 Y115.687 E9.0994
G1 X141.262 Y115.849 E9.11029
G1 X140.795 Y116.201 E9.13461
G1 X140.58 Y116.359 E9.1457
G1 X140.179 Y116.638 E9.16601
G1 X139.911 Y116.82 E9.17948
G1 X139.501 Y117.086 E9.1998
G1 X139.302 Y117.21 E9.20955
G1 X138.875 Y117.467 E9.23027
G1 X138.544 Y117.658 E9.24615
G1 X138.324 Y117.781 E9.25663
G1 X137.931 Y117.99 E9.27514
G1 X137.703 Y118.11 E9.28585
G1 X137.489 Y118.218 E9.29582
G1 X137.093 Y118.41 E9.31411
G1 X136.648 Y118.613 E9.33445
G1 X136.282 Y118.773 E9.35106
G1 X136.001 Y118.887 E9.36366
G1 X135.601 Y119.043 E9.38151
G1 X135.2 Y119.201 E9.39943
G1 X134.797 Y119.342 E9.41718
G1 X134.234 Y119.527 E9.44182
G1 X134.049 Y119.584 E9.44987
G1 X133.662 Y119.697 E9.46663
G1 X133.23 Y119.815 E9.48525
G1 X132.91 Y119.897 E9.49898
G1 X132.725 Y119.942 E9.5069
G1 X132.149 Y120.071 E9.53144
G1 X131.961 Y120.11 E9.53942
G1 X131.484 Y120.201 E9.55961
G1 X130.969 Y120.286 E9.58131
G1 X130.815 Y120.31 E9.58779
G1 X130.307 Y120.379 E9.60911
G1 X129.94 Y120.422 E9.62447
G1 X129.695 Y120.446 E9.6347
G1 X129.068 Y120.498 E9.66086
G1 X128.842 Y120.513 E9.67028
G1 X128.405 Y120.534 E9.68847
G1 X128.021 Y120.545 E9.70444
G1 X127.813 Y120.548 E9.71309
G1 X127.312 Y120.548 E9.73391
G1 X127.116 Y120.545 E9.74206
G1 X126.784 Y120.536 E9.75587
G1 X126.59 Y120.528 E9.76394
G1 X125.306 Y120.455 E9.81741
G1 X124.24 Y120.388 E9.86182
G1 X122.181 Y120.263 E9.94758
G1 X120.895 Y120.185 E10.00114
G1 X114.208 Y119.78 E10.27967
G1 X106.992 Y119.342 E10.58023
G1 X102.761 Y119.082 E10.75646
G1 X102.295 Y119.039 E10.77592
G1 X102.074 Y119.011 E10.78518
G1 X101.091 Y118.816 E10.82685
G1 X100.825 Y118.744 E10.8383
G1 X99.812 Y118.388 E10.88294
G1 X99.515 Y118.258 E10.89642
G1 X98.607 Y117.781 E10.93906
G1 X98.426 Y117.669 E10.94791
G1 X97.688 Y117.146 E10.98552
G1 X97.517 Y117.008 E10.99465
G1 X96.783 Y116.327 E11.03628
G1 X96.555 Y116.084 E11.05014
G1 X95.879 Y115.246 E11.0949
G1 X95.758 Y115.071 E11.10374
G1 X95.29 Y114.295 E11.14142
G1 X95.188 Y114.099 E11.15061
G1 X94.885 Y113.439 E11.1808
G1 X94.798 Y113.221 E11.19056
G1 X94.491 Y112.262 E11.23242
G1 X94.425 Y111.993 E11.24394
G1 X94.28 Y111.228 E11.27631
G1 X94.252 Y111.019 E11.28507
G1 X94.199 Y110.446 E11.309
G1 X94.188 Y110.242 E11.31749
G1 X94.177 Y109.851 E11.33375
G1 X94.178 Y100.093 E11.73945
G1 X94.199 Y99.538 E11.76254
G1 X94.218 Y99.291 E11.77284
G1 X94.341 Y98.41 E11.80982
G1 X94.396 Y98.138 E11.82136
G1 X94.611 Y97.322 E11.85644
G1 X94.697 Y97.059 E11.86794
G1 X94.971 Y96.348 E11.89962
G1 X95.156 Y95.966 E11.91727
G1 X95.297 Y95.695 E11.92997
G1 X95.812 Y94.852 E11.97104
G1 X95.955 Y94.65 E11.98133
G1 X96.532 Y93.936 E12.01949
G1 X96.689 Y93.765 E12.02915
G0 F9000 X97.057 Y94.103
G1 F1800 X97.771 Y93.431 E12.06991
G1 X97.969 Y93.27 E12.08052
G1 X98.663 Y92.775 E12.11596
G1 X98.901 Y92.627 E12.12761
G1 X99.873 Y92.127 E12.17306
G1 X100.099 Y92.033 E12.18323
G1 X100.79 Y91.788 E12.21371
G1 X100.991 Y91.729 E12.22242
G1 X101.607 Y91.58 E12.24877
G1 X101.839 Y91.535 E12.2586
G1 X102.573 Y91.434 E12.2894
G1 X102.836 Y91.413 E12.30037
G1 X126.379 Y89.982 E13.28098
G1 X126.546 Y89.974 E13.28793
G1 X127.018 Y89.957 E13.30757
G1 X127.217 Y89.953 E13.31584
G1 X127.527 Y89.951 E13.32873
G1 X128.09 Y89.958 E13.35214
G1 X128.557 Y89.973 E13.37157
G1 X129.006 Y89.998 E13.39026
G1 X129.219 Y90.014 E13.39914
G1 X129.665 Y90.053 E13.41776
G1 X129.864 Y90.073 E13.42607
G1 X130.441 Y90.142 E13.45023
G1 X130.704 Y90.18 E13.46128
G1 X131.312 Y90.277 E13.48688
G1 X131.698 Y90.349 E13.5032
G1 X131.976 Y90.404 E13.51498
G1 X132.518 Y90.523 E13.53805
G1 X132.72 Y90.571 E13.54669
G1 X133.106 Y90.669 E13.56324
G1 X133.289 Y90.718 E13.57112
G1 X133.832 Y90.873 E13.5946
G1 X134.1 Y90.955 E13.60625
G1 X134.489 Y91.082 E13.62326
G1 X134.98 Y91.252 E13.64486
G1 X135.365 Y91.395 E13.66194
G1 X135.571 Y91.476 E13.67114
G1 X136.052 Y91.674 E13.69277
G1 X136.399 Y91.823 E13.70847
G1 X136.579 Y91.903 E13.71666
G1 X136.971 Y92.085 E13.73462
G1 X137.134 Y92.166 E13.74219
G1 X137.514 Y92.356 E13.75985
G1 X138.086 Y92.659 E13.78677
G1 X138.211 Y92.73 E13.79274
G1 X138.433 Y92.854 E13.80332
G1 X138.61 Y92.957 E13.81183
G1 X138.984 Y93.183 E13.83
G1 X139.485 Y93.499 E13.85462
G1 X139.668 Y93.621 E13.86377
G1 X139.884 Y93.766 E13.87458
G1 X139.958 Y93.818 E13.87834
G1 X140.172 Y93.965 E13.88914
G1 X140.393 Y94.123 E13.90043
G1 X140.809 Y94.435 E13.92205
G1 X141.143 Y94.695 E13.93965
G1 X141.648 Y95.108 E13.96677
G1 X141.946 Y95.363 E13.98308
G1 X142.117 Y95.516 E13.99262
G1 X142.464 Y95.834 E14.01219
G1 X142.613 Y95.974 E14.02069
G1 X142.918 Y96.272 E14.03841
G1 X143.182 Y96.538 E14.05399
G1 X143.368 Y96.73 E14.06511
G1 X143.511 Y96.882 E14.07379
G1 X143.898 Y97.307 E14.09768
G1 X144.079 Y97.514 E14.10911
G1 X144.261 Y97.731 E14.12089
G1 X144.346 Y97.831 E14.12635
G1 X144.675 Y98.237 E14.14807
G1 X144.794 Y98.388 E14.15606
G1 X145.117 Y98.814 E14.17829
G1 X145.359 Y99.149 E14.19547
G1 X145.587 Y99.477 E14.21208
G1 X145.887 Y99.927 E14.23457
G1 X146.08 Y100.231 E14.24954
G1 X146.297 Y100.588 E14.26691
G1 X146.48 Y100.903 E14.28205
G1 X146.829 Y101.593 E14.3142
G1 X146.915 Y101.79 E14.32314
G1 X147.224 Y102.653 E14.36125
G1 X147.284 Y102.865 E14.37041
G1 X147.483 Y103.835 E14.41157
G1 X147.511 Y104.051 E14.42063
G1 X147.566 Y105.048 E14.46214
G1 X147.562 Y105.258 E14.47087
G1 X147.459 Y106.307 E14.5147
G1 X147.414 Y106.561 E14.52542
G1 X147.247 Y107.276 E14.55595
G1 X147.088 Y107.753 E14.57685
G1 X146.971 Y108.065 E14.59071
G1 X146.676 Y108.738 E14.62126
G1 X146.492 Y109.078 E14.63733
G1 X146.313 Y109.387 E14.65217
G1 X145.982 Y109.927 E14.67851
G1 X145.878 Y110.089 E14.68651
G1 X145.606 Y110.499 E14.70697
G1 X145.477 Y110.686 E14.71641
G1 X145.23 Y111.031 E14.73405
