;FLAVOR:Marlin
;TIME:9674
;Filament used: 8.60322m
;Layer height: 0.2
;MINX:83.112
;MINY:62.158
;MINZ:0.2
;MAXX:186.801
;MAXY:142.188
;MAXZ:15
;Generated with Cura_SteamEngine 4.12.1
M140 S60
M105
M190 S60
M104 S205
M105
M109 S205
M82 ;absolute extrusion mode
M220 S100 ;reset feedrate
M221 S100 ;reset flowrate
G90 ;use absolute coordinates
M82 ;absolute extrusion mode
G28 ;home
G1 Z2 F1500 ;raise z
G92 E0 ;reset extruder

G1 X75 Y5 F5000 ;start position
G1 Z0.28 F1500 ;lower z
G1 E4 F500 ;prime the filament
G1 X180 E10 F500 ;1st line
G1 Y5.4 F5000
G1 X75 E20 F500 ;2nd line
G1 Z2 F1500 ;raise z
G92 E0 ;reset extruder
G92 E0
G92 E0
G1 F1500 E-6.5
;LAYER_COUNT:75
;LAYER:0
M107
G0 F9000 X94.58 Y75.642 Z0.2
;TYPE:SKIRT
G1 F1500 E0
G1 F1800 X94.799 Y75.401 E0.01354
G1 X95.195 Y75.024 E0.03627
G1 X95.673 Y74.691 E0.06049
G1 X95.775 Y74.631 E0.06541
G1 X96.265 Y74.388 E0.08815
G1 X96.785 Y74.22 E0.11087
G1 X97.014 Y74.164 E0.12067
G1 X97.475 Y74.082 E0.14014
G1 X97.527 Y74.076 E0.14231
G1 X97.973 Y74.051 E0.16088
G1 X104.574 Y74.08 E0.43533
G1 X105.12 Y74.122 E0.45809
G1 X105.485 Y74.196 E0.47358
G1 X105.583 Y74.221 E0.47778
G1 X105.839 Y74.307 E0.48901
G1 X106.188 Y74.292 E0.50353
G1 X106.422 Y74.305 E0.51328
G1 X106.965 Y74.375 E0.53604
G1 X107.492 Y74.523 E0.5588
G1 X108.072 Y74.792 E0.58538
G1 X124.181 Y83.979 E1.35637
G1 X124.138 Y73.658 E1.78547
G1 X124.176 Y73.112 E1.80823
G1 X124.292 Y72.577 E1.83098
G1 X124.486 Y72.065 E1.85375
G1 X124.626 Y71.793 E1.86647
G1 X124.732 Y71.606 E1.8754
G1 X125.036 Y71.151 E1.89815
G1 X125.403 Y70.744 E1.92094
G1 X125.825 Y70.396 E1.94368
G1 X126.105 Y70.215 E1.95754
G1 X139.048 Y62.668 E2.58044
G1 X139.54 Y62.428 E2.6032
G1 X140.061 Y62.262 E2.62594
G1 X140.601 Y62.173 E2.64869
G1 X140.937 Y62.158 E2.66267
G1 X141.151 Y62.158 E2.67157
G1 X141.697 Y62.198 E2.69433
G1 X142.231 Y62.317 E2.71708
G1 X142.742 Y62.512 E2.73982
G1 X143.011 Y62.652 E2.75242
G1 X156.021 Y70.086 E3.37539
G1 X156.476 Y70.392 E3.39819
G1 X156.88 Y70.76 E3.42091
G1 X157.227 Y71.183 E3.44366
G1 X157.416 Y71.48 E3.45829
G1 X157.523 Y71.667 E3.46725
G1 X157.759 Y72.16 E3.48997
G1 X157.921 Y72.683 E3.51274
G1 X158.006 Y73.224 E3.5355
G1 X158.018 Y73.513 E3.54753
G1 X158.039 Y78.399 E3.75067
G1 X158.344 Y78.177 E3.76635
G1 X158.588 Y77.954 E3.78009
G1 X158.912 Y77.735 E3.79635
G1 X159.324 Y77.424 E3.81781
G1 X159.577 Y77.294 E3.82964
G1 X159.698 Y77.209 E3.83579
G1 X160.168 Y76.928 E3.85855
G1 X160.673 Y76.718 E3.88129
G1 X161.153 Y76.593 E3.90191
G1 X161.258 Y76.573 E3.90636
G1 X161.595 Y76.525 E3.92051
G1 X161.881 Y76.497 E3.93246
G1 X162.248 Y76.479 E3.94773
G1 X169.278 Y76.482 E4.24001
G1 X182.734 Y76.481 E4.79944
G1 X183.28 Y76.521 E4.8222
G1 X183.814 Y76.64 E4.84495
G1 X184.325 Y76.835 E4.86769
G1 X184.803 Y77.103 E4.89047
G1 X185.386 Y77.579 E4.92176
G1 X185.503 Y77.696 E4.92864
G1 X185.86 Y78.111 E4.9514
G1 X186.154 Y78.573 E4.97417
G1 X186.377 Y79.072 E4.99689
G1 X186.525 Y79.599 E5.01965
G1 X186.601 Y80.348 E5.05095
G1 X186.601 Y81.658 E5.10541
G1 X186.725 Y82.1 E5.1245
G1 X186.801 Y82.849 E5.1558
G1 X186.801 Y104.75 E6.06634
G1 X186.761 Y105.296 E6.0891
G1 X186.642 Y105.83 E6.11184
G1 X186.601 Y105.937 E6.11661
G1 X186.601 Y107.252 E6.17128
G1 X186.561 Y107.798 E6.19404
G1 X186.442 Y108.332 E6.21679
G1 X186.247 Y108.843 E6.23952
G1 X185.979 Y109.321 E6.26231
G1 X185.503 Y109.904 E6.2936
G1 X185.386 Y110.021 E6.30048
G1 X184.971 Y110.378 E6.32324
G1 X184.509 Y110.672 E6.346
G1 X184.01 Y110.895 E6.36873
G1 X183.483 Y111.043 E6.39149
G1 X182.734 Y111.119 E6.42279
G1 X168.269 Y111.118 E7.02417
G1 X168.305 Y111.204 E7.02805
G1 X168.624 Y112.133 E7.06888
G1 X168.692 Y112.354 E7.0785
G1 X168.788 Y112.702 E7.09351
G1 X168.895 Y113.239 E7.11627
G1 X168.922 Y113.785 E7.139
G1 X168.87 Y114.33 E7.16176
G1 X168.738 Y114.862 E7.18455
G1 X168.531 Y115.368 E7.20728
G1 X168.252 Y115.839 E7.23004
G1 X168.049 Y116.105 E7.24395
G1 X167.916 Y116.264 E7.25257
G1 X167.563 Y116.628 E7.27365
G1 X167.687 Y116.868 E7.28488
G1 X167.79 Y117.136 E7.29682
G1 X167.854 Y117.324 E7.30507
G1 X167.992 Y117.853 E7.3278
G1 X168.052 Y118.397 E7.35056
G1 X168.031 Y118.944 E7.37331
G1 X167.932 Y119.482 E7.39606
G1 X167.755 Y120 E7.41881
G1 X167.504 Y120.487 E7.44159
G1 X167.296 Y120.792 E7.45694
G1 X167.055 Y121.111 E7.47356
G1 X166.974 Y121.215 E7.47904
G1 X166.697 Y121.556 E7.49731
G1 X166.379 Y121.953 E7.51846
G1 X166.006 Y122.354 E7.54123
G1 X165.548 Y122.719 E7.56557
G1 X164.594 Y123.362 E7.6134
G1 X164.446 Y123.454 E7.62065
G1 X164.565 Y123.619 E7.62911
G1 X164.852 Y124.084 E7.65183
G1 X165.132 Y124.786 E7.68325
G1 X165.17 Y124.919 E7.689
G1 X165.281 Y125.455 E7.71176
G1 X165.304 Y126.216 E7.74341
G1 X165.28 Y126.552 E7.75741
G1 X165.202 Y127.094 E7.78018
G1 X164.99 Y127.755 E7.80904
G1 X164.938 Y127.877 E7.81455
G1 X164.687 Y128.364 E7.83733
G1 X164.241 Y128.953 E7.86805
G1 X164.019 Y129.193 E7.88164
G1 X163.619 Y129.567 E7.90441
G1 X163.23 Y129.842 E7.92421
G1 X163.134 Y129.901 E7.9289
G1 X162.648 Y130.153 E7.95166
G1 X162.091 Y130.341 E7.9761
G1 X161.866 Y130.398 E7.98575
G1 X161.367 Y130.489 E8.00684
G1 X161.314 Y130.495 E8.00905
G1 X160.876 Y130.519 E8.02729
G1 X154.269 Y130.491 E8.30198
G1 X153.723 Y130.449 E8.32475
G1 X153.358 Y130.375 E8.34023
G1 X153.26 Y130.35 E8.34444
G1 X153.001 Y130.263 E8.3558
G1 X152.649 Y130.278 E8.37044
G1 X152.419 Y130.265 E8.38002
G1 X151.877 Y130.194 E8.40275
G1 X151.35 Y130.045 E8.42552
G1 X150.773 Y129.779 E8.45193
G1 X149.42 Y129.008 E8.51667
G1 X156.65 Y134.117 E8.88474
G1 X157.108 Y134.498 E8.90951
G1 X157.154 Y134.543 E8.91218
G1 X157.584 Y135.045 E8.93966
G1 X157.771 Y135.307 E8.95305
G1 X158.056 Y135.775 E8.97583
G1 X158.321 Y136.441 E9.00563
G1 X158.359 Y136.572 E9.0113
G1 X158.472 Y137.108 E9.03407
G1 X158.498 Y137.878 E9.0661
G1 X158.475 Y138.208 E9.07986
G1 X158.397 Y138.75 E9.10262
G1 X158.196 Y139.387 E9.13039
G1 X158.144 Y139.512 E9.13602
G1 X157.898 Y140.001 E9.15878
G1 X157.453 Y140.599 E9.18977
G1 X157.236 Y140.837 E9.20316
G1 X156.839 Y141.213 E9.22589
G1 X156.43 Y141.504 E9.24676
G1 X156.326 Y141.568 E9.25184
G1 X155.841 Y141.82 E9.27456
G1 X155.286 Y142.008 E9.29892
G1 X155.058 Y142.066 E9.3087
G1 X154.555 Y142.158 E9.32996
G1 X154.502 Y142.164 E9.33218
G1 X154.064 Y142.188 E9.35042
G1 X147.462 Y142.159 E9.6249
G1 X146.916 Y142.117 E9.64767
G1 X146.551 Y142.043 E9.66315
G1 X146.453 Y142.018 E9.66736
G1 X146.197 Y141.932 E9.67858
G1 X145.848 Y141.947 E9.69311
G1 X145.614 Y141.934 E9.70285
G1 X145.071 Y141.864 E9.72561
G1 X144.544 Y141.716 E9.74837
G1 X143.964 Y141.447 E9.77495
G1 X91.525 Y111.54 E12.28476
G1 X91.124 Y111.402 E12.30239
G1 X90.746 Y111.213 E12.31996
G1 X87.857 Y109.567 E12.45819
G1 X87.708 Y109.478 E12.46541
G1 X87.346 Y109.249 E12.48322
G1 X87.185 Y109.141 E12.49128
G1 X86.874 Y108.921 E12.50712
G1 X86.607 Y108.713 E12.52119
G1 X86.138 Y108.313 E12.54682
G1 X85.964 Y108.155 E12.55659
G1 X85.781 Y107.978 E12.56717
G1 X85.616 Y107.809 E12.57699
G1 X85.349 Y107.516 E12.59347
G1 X85.182 Y107.319 E12.60421
G1 X84.903 Y106.967 E12.62288
G1 X84.729 Y106.729 E12.63514
G1 X84.508 Y106.4 E12.65162
G1 X84.395 Y106.222 E12.66038
G1 X84.194 Y105.883 E12.67677
G1 X84.072 Y105.659 E12.68737
G1 X83.722 Y104.965 E12.71969
G1 X83.463 Y104.301 E12.74932
G1 X83.255 Y103.569 E12.78096
G1 X83.144 Y103.033 E12.80372
G1 X83.112 Y102.487 E12.82645
G1 X83.161 Y101.941 E12.84925
G1 X83.288 Y101.409 E12.87198
G1 X83.491 Y100.901 E12.89473
G1 X83.766 Y100.428 E12.91748
G1 X83.971 Y100.155 E12.93167
G1 X84.109 Y99.988 E12.94068
G1 X84.472 Y99.61 E12.96247
G1 X84.35 Y99.373 E12.97355
G1 X84.245 Y99.099 E12.98575
G1 X84.18 Y98.907 E12.99417
G1 X84.043 Y98.378 E13.01689
G1 X83.984 Y97.833 E13.03968
G1 X84.005 Y97.286 E13.06244
G1 X84.106 Y96.748 E13.0852
G1 X84.284 Y96.231 E13.10793
G1 X84.535 Y95.745 E13.13067
G1 X84.731 Y95.457 E13.14516
G1 X84.919 Y95.206 E13.1582
G1 X85.001 Y95.1 E13.16377
G1 X85.659 Y94.284 E13.20735
G1 X86.033 Y93.884 E13.23012
G1 X86.482 Y93.528 E13.25394
G1 X87.448 Y92.877 E13.30237
G1 X87.666 Y92.741 E13.31305
G1 X88.003 Y92.546 E13.32924
G1 X88.278 Y92.402 E13.34214
G1 X88.703 Y92.201 E13.36169
G1 X88.927 Y92.104 E13.37184
G1 X89.329 Y91.945 E13.38981
G1 X89.611 Y91.846 E13.40224
G1 X90.024 Y91.72 E13.42019
G1 X89.95 Y91.358 E13.43555
G1 X89.918 Y90.812 E13.45829
G1 X89.967 Y90.267 E13.48104
G1 X90.095 Y89.734 E13.50383
G1 X90.298 Y89.226 E13.52657
G1 X90.574 Y88.753 E13.54934
G1 X90.764 Y88.499 E13.56253
G1 X90.898 Y88.335 E13.57133
G1 X91.275 Y87.938 E13.5941
G1 X91.154 Y87.705 E13.60501
G1 X91.051 Y87.435 E13.61702
G1 X90.986 Y87.244 E13.62541
G1 X90.848 Y86.714 E13.64818
G1 X90.788 Y86.17 E13.67094
G1 X90.809 Y85.623 E13.6937
G1 X90.909 Y85.085 E13.71645
G1 X91.086 Y84.567 E13.7392
G1 X91.336 Y84.081 E13.76193
G1 X91.545 Y83.773 E13.7774
G1 X91.721 Y83.543 E13.78944
G1 X92.453 Y82.627 E13.83819
G1 X92.825 Y82.225 E13.86096
G1 X93.289 Y81.857 E13.88558
G1 X94.234 Y81.221 E13.93294
G1 X94.399 Y81.118 E13.94103
G1 X94.278 Y80.951 E13.9496
G1 X93.991 Y80.486 E13.97232
G1 X93.709 Y79.777 E14.00404
G1 X93.671 Y79.643 E14.00983
G1 X93.561 Y79.107 E14.03258
G1 X93.539 Y78.35 E14.06407
G1 X93.563 Y78.017 E14.07795
G1 X93.642 Y77.476 E14.10068
G1 X93.849 Y76.827 E14.129
G1 X93.901 Y76.704 E14.13455
G1 X94.15 Y76.217 E14.15729
G1 X94.58 Y75.642 E14.18714
G0 F9000 X94.95 Y75.978
G1 F1800 X95.169 Y75.737 E14.20068
G1 X95.54 Y75.388 E14.22186
G1 X95.926 Y75.122 E14.24135
G1 X96.028 Y75.062 E14.24627
G1 X96.486 Y74.839 E14.26745
G1 X96.904 Y74.706 E14.28568
G1 X97.133 Y74.65 E14.29549
G1 X97.532 Y74.578 E14.31234
G1 X97.584 Y74.572 E14.31452
G1 X97.971 Y74.551 E14.33063
G1 X104.572 Y74.58 E14.60507
G1 X105.08 Y74.622 E14.62626
G1 X105.361 Y74.681 E14.6382
G1 X105.459 Y74.706 E14.64241
G1 X105.745 Y74.803 E14.65496
G1 X106.16 Y74.791 E14.67222
G1 X106.394 Y74.804 E14.68197
G1 X106.899 Y74.872 E14.70315
G1 X107.387 Y75.018 E14.72433
G1 X107.824 Y75.226 E14.74445
G1 X124.685 Y84.842 E15.55144
G1 X124.638 Y73.656 E16.0165
G1 X124.676 Y73.148 E16.03768
G1 X124.793 Y72.652 E16.05887
G1 X125.061 Y72.039 E16.08668
G1 X125.167 Y71.852 E16.09562
G1 X125.452 Y71.43 E16.11679
G1 X125.8 Y71.058 E16.13797
G1 X126.357 Y70.647 E16.16675
G1 X139.3 Y63.1 E16.78965
G1 X139.759 Y62.879 E16.81083
G1 X140.247 Y62.732 E16.83202
G1 X140.937 Y62.658 E16.86087
G1 X141.151 Y62.658 E16.86977
G1 X141.659 Y62.698 E16.89096
G1 X142.154 Y62.817 E16.91212
G1 X142.763 Y63.086 E16.9398
G1 X155.773 Y70.52 E17.56277
G1 X156.195 Y70.807 E17.58399
G1 X156.566 Y71.156 E17.60516
G1 X156.982 Y71.728 E17.63457
G1 X157.089 Y71.915 E17.64353
G1 X157.306 Y72.376 E17.66471
G1 X157.449 Y72.865 E17.68589
G1 X157.518 Y73.515 E17.71307
G1 X157.543 Y79.49 E17.96148
G1 X157.89 Y79.228 E17.97956
G1 X157.93 Y79.182 E17.98209
G1 X158.295 Y78.826 E18.00329
G1 X158.577 Y78.639 E18.01736
G1 X158.924 Y78.326 E18.03679
G1 X159.19 Y78.153 E18.04998
G1 X159.216 Y78.13 E18.05142
G1 X159.624 Y77.826 E18.07257
G1 X159.862 Y77.705 E18.08367
G1 X159.986 Y77.618 E18.08997
G1 X160.424 Y77.359 E18.11113
G1 X160.898 Y77.171 E18.13233
G1 X161.247 Y77.084 E18.14728
G1 X161.352 Y77.064 E18.15173
G1 X161.643 Y77.022 E18.16395
G1 X161.929 Y76.994 E18.1759
G1 X162.247 Y76.979 E18.18913
G1 X169.277 Y76.982 E18.48141
G1 X182.734 Y76.981 E19.04088
G1 X183.242 Y77.021 E19.06207
G1 X183.737 Y77.14 E19.08323
G1 X184.208 Y77.334 E19.10441
G1 X184.643 Y77.6 E19.12561
G1 X185.032 Y77.933 E19.1469
G1 X185.149 Y78.05 E19.15378
G1 X185.48 Y78.437 E19.17495
G1 X185.746 Y78.872 E19.19615
G1 X185.941 Y79.342 E19.2173
G1 X186.061 Y79.838 E19.23852
G1 X186.101 Y80.348 E19.25979
G1 X186.101 Y81.747 E19.31795
G1 X186.141 Y81.843 E19.32228
G1 X186.261 Y82.339 E19.34349
G1 X186.301 Y82.849 E19.36476
G1 X186.301 Y104.75 E20.2753
G1 X186.261 Y105.258 E20.29648
G1 X186.142 Y105.753 E20.31765
G1 X186.101 Y105.852 E20.32211
G1 X186.101 Y107.252 E20.38031
G1 X186.061 Y107.76 E20.4015
G1 X185.942 Y108.255 E20.42266
G1 X185.747 Y108.726 E20.44386
G1 X185.481 Y109.161 E20.46505
G1 X185.149 Y109.55 E20.48632
G1 X185.032 Y109.667 E20.4932
G1 X184.645 Y109.998 E20.51437
G1 X184.21 Y110.264 E20.53557
G1 X183.74 Y110.459 E20.55672
G1 X183.244 Y110.579 E20.57794
G1 X182.734 Y110.619 E20.59921
G1 X167.457 Y110.618 E21.23435
G1 X167.692 Y111.024 E21.25385
G1 X167.832 Y111.367 E21.26926
G1 X168.151 Y112.296 E21.31009
G1 X168.21 Y112.487 E21.3184
G1 X168.306 Y112.835 E21.33341
G1 X168.403 Y113.335 E21.35459
G1 X168.42 Y113.844 E21.37576
G1 X168.357 Y114.35 E21.39696
G1 X168.216 Y114.84 E21.41816
G1 X168.001 Y115.301 E21.43931
G1 X167.666 Y115.784 E21.46375
G1 X167.533 Y115.943 E21.47236
G1 X167.176 Y116.307 E21.49356
G1 X166.909 Y116.505 E21.50738
G1 X167.098 Y116.796 E21.52181
G1 X167.317 Y117.297 E21.54454
G1 X167.381 Y117.485 E21.5528
G1 X167.506 Y117.978 E21.57394
G1 X167.554 Y118.486 E21.59515
G1 X167.521 Y118.994 E21.61632
G1 X167.409 Y119.491 E21.6375
G1 X167.221 Y119.965 E21.6587
G1 X166.897 Y120.491 E21.68438
G1 X166.586 Y120.9 E21.70575
G1 X166.309 Y121.241 E21.72401
G1 X165.989 Y121.641 E21.74531
G1 X165.64 Y122.012 E21.76649
G1 X165.268 Y122.304 E21.78615
G1 X164.314 Y122.947 E21.83398
G1 X164.123 Y123.067 E21.84336
G1 X163.851 Y123.224 E21.85641
G1 X163.68 Y123.314 E21.86445
G1 X163.972 Y123.652 E21.88302
G1 X164.16 Y123.912 E21.89636
G1 X164.425 Y124.347 E21.91753
G1 X164.651 Y124.923 E21.94326
G1 X164.689 Y125.056 E21.94901
G1 X164.79 Y125.556 E21.97022
G1 X164.806 Y126.181 E21.99621
G1 X164.782 Y126.517 E22.01021
G1 X164.706 Y127.02 E22.03136
G1 X164.53 Y127.559 E22.05494
G1 X164.478 Y127.681 E22.06045
G1 X164.242 Y128.133 E22.08165
G1 X163.874 Y128.614 E22.10683
G1 X163.652 Y128.854 E22.12042
G1 X163.278 Y129.2 E22.1416
G1 X162.968 Y129.416 E22.15731
G1 X162.872 Y129.475 E22.162
G1 X162.418 Y129.707 E22.18319
G1 X161.968 Y129.856 E22.2029
G1 X161.743 Y129.913 E22.21255
G1 X161.311 Y129.992 E22.23081
G1 X161.258 Y129.998 E22.23303
G1 X160.878 Y130.019 E22.24885
G1 X154.271 Y129.991 E22.52354
G1 X153.763 Y129.949 E22.54473
G1 X153.482 Y129.89 E22.55667
G1 X153.384 Y129.865 E22.56087
G1 X153.095 Y129.767 E22.57356
G1 X152.678 Y129.779 E22.5909
G1 X152.448 Y129.766 E22.60048
G1 X151.943 Y129.697 E22.62167
G1 X151.455 Y129.551 E22.64285
G1 X151.021 Y129.344 E22.66284
G1 X140.715 Y123.466 E23.15611
G1 X156.362 Y134.525 E23.95271
G1 X156.759 Y134.856 E23.9742
G1 X156.805 Y134.901 E23.97688
G1 X157.177 Y135.336 E24.00067
G1 X157.364 Y135.598 E24.01406
G1 X157.627 Y136.035 E24.03526
G1 X157.84 Y136.581 E24.05963
G1 X157.878 Y136.712 E24.0653
G1 X157.981 Y137.211 E24.08648
G1 X157.999 Y137.843 E24.11277
G1 X157.976 Y138.173 E24.12652
G1 X157.901 Y138.677 E24.14771
G1 X157.735 Y139.195 E24.17032
G1 X157.683 Y139.32 E24.17595
G1 X157.451 Y139.774 E24.19715
G1 X157.084 Y140.262 E24.22253
G1 X156.867 Y140.5 E24.23592
G1 X156.495 Y140.848 E24.2571
G1 X156.168 Y141.078 E24.27372
G1 X156.064 Y141.142 E24.2788
G1 X155.611 Y141.374 E24.29996
G1 X155.162 Y141.524 E24.31964
G1 X154.934 Y141.582 E24.32942
G1 X154.499 Y141.661 E24.3478
G1 X154.446 Y141.667 E24.35002
G1 X154.066 Y141.688 E24.36584
G1 X147.464 Y141.659 E24.64032
G1 X146.956 Y141.617 E24.66152
G1 X146.675 Y141.558 E24.67345
G1 X146.577 Y141.533 E24.67766
G1 X146.291 Y141.436 E24.69021
G1 X145.876 Y141.448 E24.70748
G1 X145.642 Y141.435 E24.71722
G1 X145.137 Y141.367 E24.7384
G1 X144.649 Y141.221 E24.75958
G1 X144.212 Y141.013 E24.7797
G1 X91.737 Y111.086 E27.29122
G1 X91.289 Y110.928 E27.31097
G1 X90.993 Y110.779 E27.32475
G1 X88.104 Y109.133 E27.46298
G1 X87.976 Y109.056 E27.46919
G1 X87.614 Y108.827 E27.487
G1 X87.474 Y108.733 E27.49401
G1 X87.163 Y108.513 E27.50985
G1 X86.931 Y108.333 E27.52206
G1 X86.462 Y107.933 E27.54769
G1 X86.312 Y107.796 E27.55613
G1 X86.129 Y107.619 E27.56672
G1 X85.986 Y107.472 E27.57524
G1 X85.719 Y107.179 E27.59172
G1 X85.574 Y107.009 E27.60101
G1 X85.295 Y106.657 E27.61969
G1 X85.144 Y106.45 E27.63034
G1 X84.923 Y106.121 E27.64682
G1 X84.825 Y105.967 E27.65441
G1 X84.624 Y105.628 E27.67079
G1 X84.518 Y105.433 E27.68002
G1 X84.168 Y104.739 E27.71233
G1 X83.944 Y104.164 E27.73799
