;FLAVOR:Marlin
;TIME:4664
;Filament used: 3.31808m
;Layer height: 0.2
;MINX:114.68
;MINY:90.265
;MINZ:0.2
;MAXX:140.31
;MAXY:118.995
;MAXZ:59.8
;Generated with Cura_SteamEngine 4.12.1
M140 S60
M105
M190 S60
M104 S205
M105
M109 S205
M82 ;absolute extrusion mode
M220 S100 ;reset feedrate
M221 S100 ;reset flowrate
G90 ;use absolute coordinates
M82 ;absolute extrusion mode
G28 ;home
G1 Z2 F1500 ;raise z
G92 E0 ;reset extruder

G1 X75 Y5 F5000 ;start position
G1 Z0.28 F1500 ;lower z
G1 E4 F500 ;prime the filament
G1 X180 E10 F500 ;1st line
G1 Y5.4 F5000
G1 X75 E20 F500 ;2nd line
G1 Z2 F1500 ;raise z
G92 E0 ;reset extruder
G92 E0
G92 E0
G1 F1500 E-6.5
;LAYER_COUNT:299
;LAYER:0
M107
G0 F9000 X124.013 Y109.572 Z0.2
;TYPE:SKIRT
G1 F1500 E0
G1 F1800 X127.119 Y109.573 E0.12913
G1 X128.659 Y112.24 E0.25717
G1 X128.557 Y112.186 E0.26197
G1 X127.421 Y111.521 E0.3167
G1 X127.064 Y111.325 E0.33363
G1 X125.122 Y110.211 E0.42671
G1 X124.013 Y109.572 E0.47992
G0 F9000 X122.915 Y109.518
G1 F1800 X122.76 Y109.072 E0.49955
G1 X127.407 Y109.073 E0.69275
G1 X129.901 Y113.39 E0.90003
G1 X129.835 Y113.5 E0.90536
G1 X129.532 Y113.318 E0.92006
G1 X128.899 Y112.953 E0.95044
G1 X128.678 Y112.82 E0.96116
G1 X128.313 Y112.622 E0.97842
G1 X127.168 Y111.952 E1.03358
G1 X126.82 Y111.761 E1.05008
G1 X124.869 Y110.643 E1.14357
G1 X122.915 Y109.518 E1.23731
G0 F9000 X122.47 Y109.838
G1 F1800 X122.392 Y109.49 E1.25214
G1 X122.262 Y109.157 E1.267
G1 X122.094 Y108.796 E1.28355
G1 X122.011 Y108.651 E1.2905
G1 X122.046 Y108.572 E1.29409
G1 X127.696 Y108.573 E1.52899
G1 X130.494 Y113.417 E1.76156
G1 X130.274 Y113.74 E1.77781
G1 X130.042 Y114.167 E1.79802
G1 X129.753 Y114.034 E1.81124
G1 X129.282 Y113.751 E1.83409
G1 X128.64 Y113.38 E1.86491
G1 X128.421 Y113.249 E1.87552
G1 X128.068 Y113.059 E1.89219
G1 X126.844 Y112.343 E1.95115
G1 X126.529 Y112.171 E1.96607
G1 X124.62 Y111.076 E2.05756
G1 X122.47 Y109.838 E2.16071
G0 F9000 X124.371 Y111.51
G1 F1800 X122.004 Y110.147 E2.27427
G1 X121.971 Y109.855 E2.28649
G1 X121.809 Y109.368 E2.30782
G1 X121.641 Y109.007 E2.32438
G1 X121.441 Y108.665 E2.34085
G1 X121.538 Y108.488 E2.34924
G1 X121.707 Y108.099 E2.36687
G1 X121.713 Y108.072 E2.36802
G1 X127.985 Y108.073 E2.62878
G1 X131.102 Y113.47 E2.8879
G1 X130.891 Y113.702 E2.90094
G1 X130.714 Y113.978 E2.91457
G1 X130.257 Y114.819 E2.95436
G1 X130.214 Y114.836 E2.95628
G1 X130.057 Y114.738 E2.96398
G1 X129.758 Y114.581 E2.97802
G1 X129.524 Y114.479 E2.98863
G1 X129.033 Y114.184 E3.01245
G1 X128.372 Y113.803 E3.04416
G1 X128.053 Y113.615 E3.05956
G1 X127.824 Y113.495 E3.07031
G1 X126.604 Y112.782 E3.12906
G1 X126.289 Y112.61 E3.14398
G1 X124.371 Y111.51 E3.2359
G0 F9000 X124.121 Y111.944
G1 F1800 X121.507 Y110.438 E3.36133
G1 X121.511 Y110.152 E3.37322
G1 X121.437 Y109.786 E3.38874
G1 X121.356 Y109.579 E3.39798
G1 X121.188 Y109.218 E3.41454
G1 X120.995 Y108.898 E3.43007
G1 X120.835 Y108.729 E3.43975
G1 X121.1 Y108.247 E3.46262
G1 X121.244 Y107.902 E3.47816
G1 X121.305 Y107.572 E3.49211
G1 X128.273 Y107.573 E3.78181
G1 X131.744 Y113.582 E4.07032
G1 X131.739 Y113.584 E4.07054
G1 X131.449 Y113.819 E4.08606
G1 X131.153 Y114.217 E4.10668
G1 X130.605 Y115.226 E4.15442
G1 X130.555 Y115.24 E4.15658
G1 X130.184 Y115.386 E4.17315
G1 X130.165 Y115.396 E4.17405
G1 X129.791 Y115.162 E4.19239
G1 X129.559 Y115.04 E4.20329
G1 X129.294 Y114.925 E4.2153
G1 X128.783 Y114.617 E4.2401
G1 X128.14 Y114.246 E4.27096
G1 X127.906 Y114.106 E4.2823
G1 X127.82 Y114.058 E4.2864
G1 X127.575 Y113.929 E4.29791
G1 X126.365 Y113.221 E4.35619
G1 X126.05 Y113.049 E4.37111
G1 X124.121 Y111.944 E4.46354
G0 F9000 X123.873 Y112.377
G1 F1800 X120.957 Y110.698 E4.60343
G1 X120.965 Y110.68 E4.60425
G1 X121.018 Y110.369 E4.61737
G1 X120.991 Y110.054 E4.63051
G1 X120.902 Y109.79 E4.64209
G1 X120.734 Y109.429 E4.65865
G1 X120.566 Y109.162 E4.67176
G1 X120.336 Y108.945 E4.68491
G1 X120.189 Y108.864 E4.69189
G1 X120.662 Y108.006 E4.73262
G1 X120.778 Y107.712 E4.74576
G1 X120.817 Y107.399 E4.75887
G1 X120.777 Y107.072 E4.77257
G1 X128.562 Y107.073 E5.09623
G1 X132.451 Y113.807 E5.41954
G1 X132.249 Y113.883 E5.42851
G1 X131.97 Y114.031 E5.44164
G1 X131.737 Y114.244 E5.45476
G1 X131.592 Y114.456 E5.46544
G1 X130.944 Y115.649 E5.52189
G1 X130.738 Y115.705 E5.53076
G1 X130.367 Y115.851 E5.54734
G1 X130.145 Y115.974 E5.55789
G1 X129.526 Y115.586 E5.58826
G1 X129.36 Y115.498 E5.59607
G1 X129.062 Y115.369 E5.60957
G1 X128.534 Y115.051 E5.6352
G1 X127.889 Y114.679 E5.66615
G1 X127.649 Y114.535 E5.67779
G1 X127.352 Y114.377 E5.69178
G1 X126.125 Y113.66 E5.75086
G1 X125.831 Y113.499 E5.7648
G1 X123.873 Y112.377 E5.85862
G0 F9000 X123.624 Y112.811
G1 F1800 X120.295 Y110.894 E6.01833
G1 X120.501 Y110.481 E6.03752
G1 X120.515 Y110.237 E6.04768
G1 X120.449 Y110.001 E6.05787
G1 X120.281 Y109.64 E6.07442
G1 X120.143 Y109.438 E6.08459
G1 X119.948 Y109.291 E6.09475
G1 X119.716 Y109.215 E6.10489
G1 X119.449 Y109.173 E6.11613
G1 X120.224 Y107.765 E6.18295
G1 X120.305 Y107.535 E6.19309
G1 X120.305 Y107.268 E6.20419
G1 X120.233 Y106.876 E6.22076
G1 X120.09 Y106.572 E6.23473
G1 X128.851 Y106.573 E6.59897
G1 X133.252 Y114.193 E6.96481
G1 X133.084 Y114.161 E6.97192
G1 X132.799 Y114.209 E6.98394
G1 X132.426 Y114.35 E7.00052
G1 X132.215 Y114.473 E7.01067
G1 X132.032 Y114.694 E7.0226
G1 X131.252 Y116.13 E7.09054
G1 X130.921 Y116.17 E7.1044
G1 X130.55 Y116.316 E7.12098
G1 X130.341 Y116.441 E7.1311
G1 X130.202 Y116.599 E7.13985
G1 X129.26 Y116.009 E7.18606
G1 X129.161 Y115.957 E7.19071
G1 X128.83 Y115.813 E7.20572
G1 X128.284 Y115.484 E7.23222
G1 X127.632 Y115.108 E7.26351
G1 X127.355 Y114.943 E7.27692
G1 X127.09 Y114.804 E7.28936
G1 X125.885 Y114.099 E7.3474
G1 X125.583 Y113.934 E7.36171
G1 X123.624 Y112.811 E7.45559
G0 F9000 X123.374 Y113.244
G1 F1800 X119.601 Y111.071 E7.63661
G1 X119.982 Y110.447 E7.667
G1 X120.019 Y110.312 E7.67282
G1 X119.996 Y110.212 E7.67709
G1 X119.828 Y109.851 E7.69364
G1 X119.735 Y109.745 E7.69951
G1 X119.639 Y109.709 E7.70377
G1 X118.629 Y109.552 E7.74627
G1 X118.757 Y109.393 E7.75475
G1 X119.786 Y107.524 E7.84345
G1 X119.813 Y107.358 E7.85045
G1 X119.741 Y106.966 E7.86702
G1 X119.658 Y106.821 E7.87396
G1 X118.786 Y106.072 E7.92175
G1 X129.139 Y106.073 E8.35218
G1 X134.329 Y115.059 E8.78361
G1 X134.458 Y115.158 E8.79037
G1 X133.15 Y114.676 E8.84833
G1 X132.976 Y114.677 E8.85556
G1 X132.603 Y114.818 E8.87214
G1 X132.471 Y114.933 E8.87942
G1 X131.515 Y116.694 E8.96272
G1 X131.26 Y116.626 E8.9737
G1 X131.104 Y116.635 E8.98019
G1 X130.733 Y116.781 E8.99677
G1 X130.614 Y116.879 E9.00318
G1 X130.383 Y117.24 E9.021
G1 X130.264 Y117.228 E9.02597
G1 X128.995 Y116.433 E9.08823
G1 X128.962 Y116.416 E9.08977
G1 X128.604 Y116.26 E9.10601
G1 X128.035 Y115.917 E9.13363
G1 X127.371 Y115.534 E9.1655
G1 X127.122 Y115.386 E9.17754
G1 X126.858 Y115.247 E9.18994
G1 X125.646 Y114.538 E9.24832
G1 X125.331 Y114.366 E9.26324
G1 X123.374 Y113.244 E9.35703
G0 F9000 X134.568 Y115.199
G1 F1800 X135.01 Y115.317 E9.37605
G1 X134.95 Y115.339 E9.37871
G1 X134.568 Y115.199 E9.39562
G1 F1500 E2.89562
G0 F9000 X135.259 Y115.086
G0 X138.612 Y113.15
G0 X138.798 Y112.461
G0 X133.883 Y103.375
G1 F1500 E9.39562
G1 F1800 X133.865 Y103.344 E9.39711
G1 X139.055 Y94.358 E9.82854
G1 X139.08 Y94.168 E9.83651
G1 X138.943 Y93.656 E9.85854
G1 X139.137 Y93.819 E9.86908
G1 X139.342 Y94.011 E9.88075
G1 X133.883 Y103.375 E10.33139
G1 F1500 E3.83139
G0 F9000 X138.798 Y94.227
G0 X138.612 Y93.538
G0 X135.259 Y91.602
G0 X134.57 Y91.788
G0 X129.12 Y100.615
G1 F1500 E10.33139
G1 F1800 X131.069 Y97.274 E10.4922
G1 X129.14 Y100.615 E10.65259
G1 X129.12 Y100.615 E10.65342
G0 F9000 X134.39 Y91.581
G1 F1800 X134.592 Y91.236 E10.67005
G1 X134.928 Y91.348 E10.68477
G1 X134.997 Y91.374 E10.68784
G1 X134.48 Y91.513 E10.71009
G1 X134.39 Y91.581 E10.71478
G0 F9000 X118.206 Y101.07
G1 F1800 X118.211 Y101.043 E10.71592
G1 X118.233 Y101.043 E10.71684
G1 X118.206 Y101.07 E10.71843
G1 F1500 E4.21843
G0 F9000 X118.276 Y105.279
G0 X118.729 Y105.732
G0 X125.696 Y109.158
G0 X125.696 Y110.023
;TYPE:SUPPORT
G1 F1500 E10.71843
G1 F1800 X126.859 Y110.023 E10.75711
G1 X127.429 Y111.012 E10.79507
G1 X127.256 Y110.916 E10.80166
G1 X125.696 Y110.023 E10.86144
G1 F1500 E4.36144
;MESH:Tripod_head_standard_threadright_handed.stl
G0 F9000 X125.696 Y109.158
G0 X130.236 Y107.402
G0 X131.157 Y106.869
G0 X131.468 Y105.845
G0 X135.497 Y112.82
G0 X136.532 Y112.223
G0 X132.405 Y105.077
G0 X132.28 Y103.192
G1 F1500 E10.86144
G0 F9000 X132.538 Y103.344
;TYPE:WALL-OUTER
G1 F1800 X137.873 Y112.582 E11.21625
G1 X135.138 Y114.161 E11.32129
G1 X129.802 Y104.923 E11.67612
G1 X119.137 Y104.922 E12.03084
G1 X119.137 Y101.766 E12.13581
G1 X129.804 Y101.765 E12.4906
G1 X135.138 Y92.527 E12.84539
G1 X137.873 Y94.106 E12.95043
G1 X132.538 Y103.344 E13.30525
G0 F9000 X132.076 Y103.344
;TYPE:WALL-INNER
G1 F1800 X137.327 Y112.436 E13.65446
G1 X136.981 Y112.635 E13.66773
G1 X135.284 Y113.615 E13.73291
G1 X135.085 Y113.269 E13.74619
G1 X130.033 Y104.523 E14.08212
G1 X119.537 Y104.522 E14.43122
G1 X119.537 Y102.166 E14.50958
G1 X130.035 Y102.165 E14.85875
G1 X135.284 Y93.073 E15.20793
G1 X137.327 Y94.252 E15.28638
G1 X132.076 Y103.344 E15.63559
G0 F9000 X131.614 Y103.344
G1 F1800 X136.781 Y112.29 E15.9792
G1 X135.43 Y113.069 E16.03107
G1 X130.264 Y104.123 E16.37466
G1 X119.937 Y104.122 E16.71814
G1 X119.937 Y102.566 E16.76989
G1 X130.266 Y102.565 E17.11344
G1 X135.43 Y93.619 E17.457
G1 X136.781 Y94.398 E17.50887
G1 X131.614 Y103.344 E17.85247
G0 F9000 X131.164 Y103.344
;TYPE:SKIN
G1 F1800 X136.248 Y112.147 E18.19058
G1 X135.573 Y112.536 E18.2165
G1 X130.489 Y103.733 E18.55461
G1 X120.327 Y103.732 E18.8926
G1 X120.327 Y102.956 E18.91841
G1 X130.491 Y102.955 E19.25646
G1 X135.573 Y94.152 E19.59454
G1 X136.248 Y94.541 E19.62045
G1 X131.164 Y103.344 E19.95856
G0 F9000 X131.471 Y103.344
G0 X136.36 Y94.906
G0 X135.98 Y94.685
G1 F1800 X135.712 Y94.417 E19.97117
G0 F9000 X135.435 Y94.706
G1 F1800 X135.772 Y95.043 E19.98702
G0 F9000 X135.566 Y95.402
G1 F1800 X135.228 Y95.064 E20.00292
G0 F9000 X135.021 Y95.423
G1 F1800 X135.359 Y95.761 E20.01881
G0 F9000 X135.152 Y96.119
G1 F1800 X134.814 Y95.782 E20.03469
G0 F9000 X134.607 Y96.141
G1 F1800 X134.944 Y96.478 E20.05054
G0 F9000 X134.737 Y96.836
G1 F1800 X134.4 Y96.499 E20.06639
G0 F9000 X134.193 Y96.858
G1 F1800 X134.53 Y97.195 E20.08224
G0 F9000 X134.323 Y97.553
G1 F1800 X133.986 Y97.216 E20.0981
G0 F9000 X133.779 Y97.575
G1 F1800 X134.116 Y97.913 E20.11397
G0 F9000 X133.909 Y98.271
G1 F1800 X133.572 Y97.934 E20.12982
G0 F9000 X133.365 Y98.292
G1 F1800 X133.702 Y98.63 E20.1457
G0 F9000 X133.495 Y98.988
G1 F1800 X133.158 Y98.651 E20.16155
G0 F9000 X132.951 Y99.01
G1 F1800 X133.288 Y99.347 E20.1774
G0 F9000 X133.081 Y99.705
G1 F1800 X132.744 Y99.369 E20.19323
G0 F9000 X132.537 Y99.727
G1 F1800 X132.873 Y100.064 E20.20906
G0 F9000 X132.667 Y100.423
G1 F1800 X132.33 Y100.086 E20.22491
G0 F9000 X132.122 Y100.444
G1 F1800 X132.46 Y100.781 E20.24078
G0 F9000 X132.253 Y101.14
G1 F1800 X131.916 Y100.803 E20.25663
G0 F9000 X131.709 Y101.162
G1 F1800 X132.045 Y101.498 E20.27244
G0 F9000 X131.838 Y101.857
G1 F1800 X131.502 Y101.52 E20.28827
G0 F9000 X131.294 Y101.879
G1 F1800 X131.631 Y102.215 E20.30409
G0 F9000 X131.424 Y102.574
G1 F1800 X131.087 Y102.237 E20.31995
G0 F9000 X130.881 Y102.596
G1 F1800 X131.217 Y102.933 E20.33577
G0 F9000 X131.01 Y103.292
G1 F1800 X130.674 Y102.955 E20.3516
G0 F9000 X130.268 Y103.115
G1 F1800 X131.638 Y104.485 E20.41604
G0 F9000 X131.153 Y104.566
G1 F1800 X132.412 Y105.824 E20.47524
G0 F9000 X131.927 Y105.905
G1 F1800 X133.184 Y107.163 E20.53439
G0 F9000 X132.699 Y107.244
G1 F1800 X133.957 Y108.502 E20.59356
G0 F9000 X133.472 Y108.582
G1 F1800 X134.73 Y109.84 E20.65273
G0 F9000 X134.245 Y109.921
G1 F1800 X135.503 Y111.179 E20.7119
G0 F9000 X135.019 Y111.26
G1 F1800 X135.913 Y112.154 E20.75395
G0 F9000 X136.132 Y112.536
G0 X135.497 Y112.82
G0 X130.158 Y104.012
G0 X130.159 Y103.572
G1 F1800 X129.703 Y103.115 E20.77543
G0 F9000 X129.593 Y103.572
G1 F1800 X129.137 Y103.115 E20.7969
G0 F9000 X129.027 Y103.572
G1 F1800 X128.571 Y103.115 E20.81837
G0 F9000 X128.462 Y103.572
G1 F1800 X128.006 Y103.115 E20.83984
G0 F9000 X127.896 Y103.572
G1 F1800 X127.44 Y103.115 E20.86132
G0 F9000 X127.33 Y103.572
G1 F1800 X126.874 Y103.115 E20.88279
G0 F9000 X126.765 Y103.572
G1 F1800 X126.309 Y103.115 E20.90426
G0 F9000 X126.199 Y103.572
G1 F1800 X125.743 Y103.115 E20.92573
G0 F9000 X125.633 Y103.572
G1 F1800 X125.177 Y103.115 E20.94721
G0 F9000 X125.068 Y103.572
G1 F1800 X124.612 Y103.115 E20.96868
G0 F9000 X124.502 Y103.572
G1 F1800 X124.046 Y103.115 E20.99015
G0 F9000 X123.936 Y103.572
G1 F1800 X123.48 Y103.115 E21.01162
G0 F9000 X123.371 Y103.572
G1 F1800 X122.914 Y103.115 E21.03312
G0 F9000 X122.805 Y103.572
G1 F1800 X122.349 Y103.115 E21.05459
G0 F9000 X122.239 Y103.572
G1 F1800 X121.783 Y103.115 E21.07606
G0 F9000 X121.673 Y103.572
G1 F1800 X121.217 Y103.115 E21.09754
G0 F9000 X121.108 Y103.572
G1 F1800 X120.652 Y103.115 E21.11901
G0 F9000 X120.486 Y103.515
G1 F1800 X120.542 Y103.572 E21.12167
G0 F9000 X120.541 Y104.312
G1 F1500 E14.62167
;MESH:NONMESH
G0 F300 X120.541 Y104.312 Z0.4
G0 F9000 X120.162 Y103.978
G0 X119.351 Y101.98
G0 X118.172 Y100.992
;TIME_ELAPSED:30.194882
;LAYER:1
M106 S255
;TYPE:SUPPORT
G1 F1500 E21.12167
G1 F2700 X118.34 Y100.993 E21.12725
G1 X118.132 Y101.201 E21.13704
G1 X118.172 Y100.992 E21.14412
G0 F9000 X118.03 Y101.912
G1 F2700 X118.03 Y104.801 E21.2402
G1 X118.012 Y104.652 E21.2452
G1 X117.967 Y103.952 E21.26853
G1 X117.955 Y103.669 E21.27795
G1 X117.975 Y102.584 E21.31404
G1 X117.984 Y102.368 E21.32123
G1 X118.012 Y102.052 E21.33178
G1 X118.03 Y101.912 E21.33648
G1 F1500 E14.83648
G0 F9000 X117.154 Y101.954
G0 X117.109 Y103.796
G0 X117.24 Y105.409
G0 X118.129 Y105.484
G1 F1500 E21.33648
G1 F2700 X118.674 Y106.029 E21.36211
G1 X129.164 Y106.03 E21.71101
G1 X134.41 Y115.115 E22.05994
G1 X135.158 Y115.316 E22.0857
G1 X134.95 Y115.393 E22.09308
G1 X133.063 Y114.699 E22.15995
G1 X132.551 Y114.892 E22.17815
G1 X131.54 Y116.754 E22.24862
G1 X131.193 Y116.662 E22.26056
G1 X130.7 Y116.853 E22.27814
G1 X130.423 Y117.281 E22.2951
G1 X130.312 Y117.311 E22.29892
G1 X130.233 Y117.268 E22.30191
G1 X128.954 Y116.466 E22.35213
G1 X128.579 Y116.304 E22.36571
G1 X128.03 Y115.973 E22.38703
G1 X127.339 Y115.573 E22.41359
G1 X127.102 Y115.432 E22.42276
G1 X126.828 Y115.287 E22.43307
G1 X125.609 Y114.573 E22.48006
G1 X125.288 Y114.399 E22.4922
G1 X123.35 Y113.287 E22.56652
G1 X119.53 Y111.087 E22.71314
G1 X119.991 Y110.327 E22.7427
G1 X119.733 Y109.773 E22.76303
G1 X118.535 Y109.586 E22.80336
G1 X118.704 Y109.387 E22.81204
G1 X119.775 Y107.436 E22.88606
G1 X119.679 Y106.905 E22.90401
G1 X118.147 Y105.588 E22.97121
G1 X118.129 Y105.484 E22.97472
G1 F1500 E16.47472
G0 F9000 X117.522 Y106.191
G0 X117.16 Y110.23
G0 X118.349 Y111.389
G0 X130.207 Y118.231
G0 X131.794 Y117.8
G0 X136.035 Y115.896
G0 X135.803 Y115.055
G1 F1500 E22.97472
G1 F2700 X138.289 Y113.621 E23.07017
G1 X138.189 Y113.697 E23.07435
G1 X137.751 Y113.996 E23.09199
G1 X137.654 Y114.06 E23.09585
G1 X137.212 Y114.337 E23.1132
G1 X136.92 Y114.504 E23.12439
G1 X136.418 Y114.77 E23.14329
G1 X136.207 Y114.836 E23.15064
G1 X136.074 Y114.939 E23.15623
G1 X135.803 Y115.055 E23.16604
G1 F1500 E16.66604
G0 F9000 X136.612 Y115.615
G0 X137.635 Y115.08
G0 X139.219 Y114.001
G0 X138.903 Y113.026
G1 F1500 E23.16604
G1 F2700 X138.941 Y113.11 E23.16911
G1 X138.863 Y113.174 E23.17246
G1 X138.903 Y113.026 E23.17756
G1 F1500 E16.67756
G0 F9000 X139.652 Y112.597
G0 X140.31 Y94.163
G0 X140.218 Y93.627
G0 X139.421 Y92.865
G0 X138.868 Y93.528
G1 F1500 E23.17756
G1 F2700 X139.181 Y93.79 E23.19114
G1 X139.406 Y94 E23.20137
G1 X133.887 Y103.467 E23.56585
G1 X133.817 Y103.346 E23.5705
G1 X139.063 Y94.258 E23.91951
G1 X138.868 Y93.528 E23.94464
G1 F1500 E17.44464
G0 F9000 X139.083 Y92.583
G0 X137.774 Y91.709
G0 X136.557 Y91.026
G0 X135.836 Y91.652
G1 F1500 E23.94464
G1 F2700 X136.189 Y91.809 E23.95749
G1 X136.773 Y92.11 E23.97934
G1 X137.04 Y92.255 E23.98945
G1 X137.296 Y92.404 E23.9993
G1 X137.789 Y92.725 E24.01887
