;FLAVOR:Marlin
;TIME:2531
;Filament used: 2.32162m
;Layer height: 0.2
;MINX:35.25
;MINY:79.75
;MINZ:0.2
;MAXX:219.75
;MAXY:130.25
;MAXZ:3
;Generated with Cura_SteamEngine 4.12.1
M140 S60
M105
M190 S60
M104 S205
M105
M109 S205
M82 ;absolute extrusion mode
M220 S100 ;reset feedrate
M221 S100 ;reset flowrate
G90 ;use absolute coordinates
M82 ;absolute extrusion mode
G28 ;home
G1 Z2 F1500 ;raise z
G92 E0 ;reset extruder

G1 X75 Y5 F5000 ;start position
G1 Z0.28 F1500 ;lower z
G1 E4 F500 ;prime the filament
G1 X180 E10 F500 ;1st line
G1 Y5.4 F5000
G1 X75 E20 F500 ;2nd line
G1 Z2 F1500 ;raise z
G92 E0 ;reset extruder
G92 E0
G92 E0
G1 F1500 E-6.5
;LAYER_COUNT:15
;LAYER:0
M107
G0 F9000 X99.75 Y99.95 Z0.2
;TYPE:SKIRT
G1 F1500 E0
G1 F1800 X99.75 Y112.25 E0.51137
G1 X113.25 Y112.25 E1.07264
G1 X113.25 Y111.8 E1.09135
G1 X113.29 Y111.254 E1.11411
G1 X113.409 Y110.72 E1.13685
G1 X113.604 Y110.209 E1.15959
G1 X113.872 Y109.731 E1.18238
G1 X114.207 Y109.298 E1.20514
G1 X114.601 Y108.918 E1.2279
G1 X115.046 Y108.599 E1.25066
G1 X115.533 Y108.349 E1.27342
G1 X116.051 Y108.172 E1.29618
G1 X116.589 Y108.073 E1.31892
G1 X117 Y108.05 E1.33603
G1 X123 Y108.05 E1.58549
G1 X123.546 Y108.09 E1.60825
G1 X124.08 Y108.209 E1.63099
G1 X124.591 Y108.404 E1.65373
G1 X125.069 Y108.672 E1.67651
G1 X125.502 Y109.007 E1.69928
G1 X125.882 Y109.401 E1.72203
G1 X126.201 Y109.846 E1.7448
G1 X126.25 Y109.941 E1.74924
G1 X126.25 Y102.251 E2.06895
G1 X126.128 Y102.469 E2.07934
G1 X125.793 Y102.902 E2.1021
G1 X125.399 Y103.282 E2.12486
G1 X124.954 Y103.601 E2.14762
G1 X124.467 Y103.851 E2.17038
G1 X123.949 Y104.028 E2.19314
G1 X123.411 Y104.127 E2.21588
G1 X123 Y104.15 E2.233
G1 X117 Y104.15 E2.48245
G1 X116.454 Y104.11 E2.50521
G1 X115.92 Y103.991 E2.52795
G1 X115.409 Y103.796 E2.55069
G1 X114.931 Y103.528 E2.57348
G1 X114.498 Y103.193 E2.59624
G1 X114.118 Y102.799 E2.619
G1 X113.799 Y102.354 E2.64176
G1 X113.549 Y101.867 E2.66452
G1 X113.372 Y101.349 E2.68728
G1 X113.273 Y100.811 E2.71002
G1 X113.25 Y100.4 E2.72713
G1 X113.25 Y99.95 E2.74584
G1 X99.75 Y99.95 E3.30711
G0 F9000 X99.25 Y99.45
G1 F1800 X99.25 Y112.75 E3.86006
G1 X113.75 Y112.75 E4.4629
G1 X113.75 Y111.8 E4.50239
G1 X113.79 Y111.292 E4.52358
G1 X113.909 Y110.797 E4.54475
G1 X114.104 Y110.326 E4.56594
G1 X114.37 Y109.891 E4.58714
G1 X114.7 Y109.504 E4.60828
G1 X115.087 Y109.172 E4.62948
G1 X115.522 Y108.906 E4.65068
G1 X115.992 Y108.71 E4.67185
G1 X116.487 Y108.591 E4.69302
G1 X117 Y108.55 E4.71441
G1 X123 Y108.55 E4.96386
G1 X123.508 Y108.59 E4.98505
G1 X124.003 Y108.709 E5.00622
G1 X124.474 Y108.904 E5.02741
G1 X124.909 Y109.17 E5.04861
G1 X125.296 Y109.5 E5.06975
G1 X125.628 Y109.887 E5.09095
G1 X125.894 Y110.322 E5.11215
G1 X126.09 Y110.792 E5.13332
G1 X126.209 Y111.287 E5.15449
G1 X126.25 Y111.8 E5.17588
G1 X126.25 Y116.007 E5.35079
G1 X126.24 Y116.261 E5.36136
G1 X126.167 Y117.193 E5.40023
G1 X126.087 Y117.697 E5.42144
G1 X125.868 Y118.61 E5.46048
G1 X125.712 Y119.093 E5.48158
G1 X125.352 Y119.964 E5.52076
G1 X125.118 Y120.423 E5.54218
G1 X124.625 Y121.226 E5.58136
G1 X124.327 Y121.636 E5.60243
G1 X123.716 Y122.352 E5.64156
G1 X123.354 Y122.714 E5.66285
G1 X122.637 Y123.326 E5.70204
G1 X122.229 Y123.623 E5.72302
G1 X121.427 Y124.116 E5.76216
G1 X120.966 Y124.351 E5.78367
G1 X120.095 Y124.711 E5.82285
G1 X119.614 Y124.867 E5.84388
G1 X118.699 Y125.087 E5.883
G1 X118.193 Y125.167 E5.9043
G1 X117.261 Y125.24 E5.94317
G1 X117.007 Y125.25 E5.95374
G1 X95.993 Y125.25 E6.8274
G1 X95.739 Y125.24 E6.83797
G1 X94.807 Y125.167 E6.87683
G1 X94.301 Y125.087 E6.89813
G1 X93.386 Y124.867 E6.93726
G1 X92.905 Y124.711 E6.95828
G1 X92.034 Y124.351 E6.99746
G1 X91.573 Y124.116 E7.01897
G1 X90.771 Y123.623 E7.05811
G1 X90.363 Y123.326 E7.0791
G1 X89.646 Y122.714 E7.11829
G1 X89.284 Y122.352 E7.13957
G1 X88.673 Y121.636 E7.1787
G1 X88.375 Y121.226 E7.19978
G1 X87.882 Y120.423 E7.23895
G1 X87.648 Y119.964 E7.26037
G1 X87.288 Y119.093 E7.29955
G1 X87.132 Y118.61 E7.32066
G1 X86.913 Y117.697 E7.35969
G1 X86.833 Y117.193 E7.38091
G1 X86.76 Y116.263 E7.41969
G1 X86.75 Y116.009 E7.43026
G1 X86.75 Y96.193 E8.25411
G1 X86.76 Y95.939 E8.26468
G1 X86.833 Y95.007 E8.30355
G1 X86.913 Y94.502 E8.32481
G1 X87.133 Y93.586 E8.36397
G1 X87.29 Y93.103 E8.38509
G1 X87.649 Y92.235 E8.42414
G1 X87.882 Y91.777 E8.4455
G1 X88.375 Y90.974 E8.48468
G1 X88.673 Y90.564 E8.50575
G1 X89.284 Y89.848 E8.54488
G1 X89.646 Y89.486 E8.56617
G1 X90.364 Y88.873 E8.60542
G1 X90.773 Y88.576 E8.62643
G1 X91.574 Y88.084 E8.66551
G1 X92.034 Y87.849 E8.68699
G1 X92.905 Y87.489 E8.72617
G1 X93.386 Y87.333 E8.7472
G1 X94.301 Y87.113 E8.78632
G1 X94.807 Y87.033 E8.80762
G1 X95.739 Y86.96 E8.84649
G1 X95.993 Y86.95 E8.85706
G1 X117.007 Y86.95 E9.73072
G1 X117.261 Y86.96 E9.74128
G1 X118.193 Y87.033 E9.78015
G1 X118.699 Y87.113 E9.80145
G1 X119.614 Y87.333 E9.84057
G1 X120.095 Y87.489 E9.8616
G1 X120.964 Y87.848 E9.90069
G1 X121.423 Y88.082 E9.92211
G1 X122.226 Y88.575 E9.96128
G1 X122.636 Y88.873 E9.98236
G1 X123.352 Y89.484 E10.02149
G1 X123.714 Y89.846 E10.04277
G1 X124.327 Y90.564 E10.08202
G1 X124.624 Y90.973 E10.10304
G1 X125.116 Y91.774 E10.14212
G1 X125.35 Y92.232 E10.1635
G1 X125.71 Y93.102 E10.20265
G1 X125.867 Y93.586 E10.2238
G1 X126.087 Y94.502 E10.26297
G1 X126.167 Y95.007 E10.28422
G1 X126.24 Y95.937 E10.32301
G1 X126.25 Y96.191 E10.33358
G1 X126.25 Y100.4 E10.50857
G1 X126.21 Y100.908 E10.52975
G1 X126.091 Y101.403 E10.55092
G1 X125.896 Y101.874 E10.57211
G1 X125.63 Y102.309 E10.59331
G1 X125.3 Y102.696 E10.61446
G1 X124.913 Y103.028 E10.63565
G1 X124.478 Y103.294 E10.65685
G1 X124.008 Y103.49 E10.67802
G1 X123.513 Y103.609 E10.69919
G1 X123 Y103.65 E10.72059
G1 X117 Y103.65 E10.97004
G1 X116.492 Y103.61 E10.99122
G1 X115.997 Y103.491 E11.01239
G1 X115.526 Y103.296 E11.03358
G1 X115.091 Y103.03 E11.05478
G1 X114.704 Y102.7 E11.07593
G1 X114.372 Y102.313 E11.09713
G1 X114.106 Y101.878 E11.11832
G1 X113.91 Y101.408 E11.1395
G1 X113.791 Y100.913 E11.16066
G1 X113.75 Y100.4 E11.18206
G1 X113.75 Y99.45 E11.22155
G1 X99.25 Y99.45 E11.82439
G0 F9000 X98.75 Y98.95
G1 F1800 X98.75 Y113.25 E12.41892
G1 X114.25 Y113.25 E13.06333
G1 X114.25 Y111.8 E13.12362
G1 X114.29 Y111.333 E13.1431
G1 X114.409 Y110.88 E13.16258
G1 X114.602 Y110.453 E13.18206
G1 X114.866 Y110.066 E13.20154
G1 X115.191 Y109.728 E13.22103
G1 X115.569 Y109.451 E13.24051
G1 X115.989 Y109.243 E13.26
G1 X116.438 Y109.108 E13.27949
G1 X117 Y109.05 E13.30298
G1 X123 Y109.05 E13.55243
G1 X123.467 Y109.09 E13.57192
G1 X123.92 Y109.209 E13.59139
G1 X124.347 Y109.402 E13.61087
G1 X124.734 Y109.666 E13.63035
G1 X125.072 Y109.991 E13.64984
G1 X125.349 Y110.369 E13.66933
G1 X125.557 Y110.789 E13.68881
G1 X125.692 Y111.238 E13.70831
G1 X125.75 Y111.8 E13.7318
G1 X125.75 Y116.007 E13.9067
G1 X125.742 Y116.222 E13.91565
G1 X125.669 Y117.154 E13.95451
G1 X125.601 Y117.58 E13.97245
G1 X125.382 Y118.493 E14.01148
G1 X125.249 Y118.902 E14.02936
G1 X124.889 Y119.773 E14.06855
G1 X124.692 Y120.162 E14.08668
G1 X124.199 Y120.965 E14.12585
G1 X123.947 Y121.311 E14.14365
G1 X123.336 Y122.027 E14.18278
G1 X123.029 Y122.334 E14.20083
G1 X122.312 Y122.946 E14.24002
G1 X121.967 Y123.197 E14.25776
G1 X121.165 Y123.69 E14.2969
G1 X120.775 Y123.888 E14.31508
G1 X119.904 Y124.248 E14.35427
G1 X119.497 Y124.381 E14.37207
G1 X118.582 Y124.601 E14.41119
G1 X118.154 Y124.669 E14.42921
G1 X117.222 Y124.742 E14.46808
G1 X117.007 Y124.75 E14.47702
G1 X95.993 Y124.75 E15.35068
G1 X95.778 Y124.742 E15.35963
G1 X94.846 Y124.669 E15.3985
G1 X94.418 Y124.601 E15.41651
G1 X93.503 Y124.381 E15.45564
G1 X93.096 Y124.248 E15.47344
G1 X92.225 Y123.888 E15.51262
G1 X91.835 Y123.69 E15.53081
G1 X91.033 Y123.197 E15.56995
G1 X90.688 Y122.946 E15.58768
G1 X89.971 Y122.334 E15.62688
G1 X89.664 Y122.027 E15.64493
G1 X89.053 Y121.311 E15.68406
G1 X88.801 Y120.965 E15.70186
G1 X88.308 Y120.162 E15.74103
G1 X88.111 Y119.773 E15.75916
G1 X87.751 Y118.902 E15.79834
G1 X87.618 Y118.493 E15.81622
G1 X87.399 Y117.58 E15.85526
G1 X87.331 Y117.154 E15.87319
G1 X87.258 Y116.224 E15.91198
G1 X87.25 Y116.009 E15.92092
G1 X87.25 Y96.193 E16.74477
G1 X87.258 Y95.978 E16.75372
G1 X87.331 Y95.046 E16.79259
G1 X87.399 Y94.619 E16.81056
G1 X87.619 Y93.703 E16.84973
G1 X87.752 Y93.294 E16.86761
G1 X88.111 Y92.426 E16.90666
G1 X88.308 Y92.038 E16.92475
G1 X88.801 Y91.235 E16.96393
G1 X89.053 Y90.889 E16.98172
G1 X89.664 Y90.173 E17.02086
G1 X89.97 Y89.867 E17.03885
G1 X90.688 Y89.254 E17.0781
G1 X91.035 Y89.002 E17.09593
G1 X91.836 Y88.51 E17.13501
G1 X92.225 Y88.312 E17.15316
G1 X93.096 Y87.952 E17.19234
G1 X93.503 Y87.819 E17.21014
G1 X94.418 Y87.599 E17.24927
G1 X94.846 Y87.531 E17.26728
G1 X95.778 Y87.458 E17.30615
G1 X95.993 Y87.45 E17.3151
G1 X117.007 Y87.45 E18.18876
G1 X117.222 Y87.458 E18.1977
G1 X118.154 Y87.531 E18.23657
G1 X118.582 Y87.599 E18.25459
G1 X119.497 Y87.819 E18.29371
G1 X119.904 Y87.951 E18.3115
G1 X120.773 Y88.31 E18.35059
G1 X121.162 Y88.508 E18.36874
G1 X121.965 Y89.001 E18.40791
G1 X122.311 Y89.253 E18.42571
G1 X123.027 Y89.864 E18.46484
G1 X123.333 Y90.17 E18.48283
G1 X123.946 Y90.888 E18.52208
G1 X124.198 Y91.235 E18.53991
G1 X124.69 Y92.036 E18.579
G1 X124.888 Y92.424 E18.59711
G1 X125.248 Y93.294 E18.63625
G1 X125.381 Y93.703 E18.65413
G1 X125.601 Y94.619 E18.6933
G1 X125.669 Y95.046 E18.71127
G1 X125.742 Y95.976 E18.75006
G1 X125.75 Y96.191 E18.759
G1 X125.75 Y100.4 E18.93399
G1 X125.71 Y100.867 E18.95348
G1 X125.591 Y101.32 E18.97295
G1 X125.398 Y101.747 E18.99243
G1 X125.134 Y102.134 E19.01191
G1 X124.809 Y102.472 E19.0314
G1 X124.431 Y102.749 E19.05089
G1 X124.011 Y102.957 E19.07037
G1 X123.562 Y103.092 E19.08987
G1 X123 Y103.15 E19.11336
G1 X117 Y103.15 E19.36281
G1 X116.533 Y103.11 E19.38229
G1 X116.08 Y102.991 E19.40177
G1 X115.653 Y102.798 E19.42125
G1 X115.266 Y102.534 E19.44072
G1 X114.928 Y102.209 E19.46022
G1 X114.651 Y101.831 E19.4797
G1 X114.443 Y101.411 E19.49919
G1 X114.308 Y100.962 E19.51868
G1 X114.25 Y100.4 E19.54217
G1 X114.25 Y98.95 E19.60245
G1 X98.75 Y98.95 E20.24687
G0 F9000 X98.25 Y98.45
G1 F1800 X98.25 Y113.75 E20.88297
G1 X114.75 Y113.75 E21.56896
G1 X114.75 Y111.8 E21.65003
G1 X114.79 Y111.378 E21.66765
G1 X114.908 Y110.971 E21.68527
G1 X115.101 Y110.594 E21.70288
G1 X115.361 Y110.259 E21.72051
G1 X115.679 Y109.979 E21.73813
G1 X116.044 Y109.763 E21.75576
G1 X116.443 Y109.62 E21.77338
G1 X117 Y109.55 E21.79672
G1 X123 Y109.55 E22.04617
G1 X123.422 Y109.59 E22.06379
G1 X123.829 Y109.708 E22.08141
G1 X124.206 Y109.901 E22.09902
G1 X124.541 Y110.161 E22.11665
G1 X124.821 Y110.479 E22.13427
G1 X125.037 Y110.844 E22.1519
G1 X125.18 Y111.243 E22.16952
G1 X125.25 Y111.8 E22.19286
G1 X125.25 Y116.007 E22.36777
G1 X125.243 Y116.183 E22.37509
G1 X125.17 Y117.115 E22.41396
G1 X125.115 Y117.464 E22.42865
G1 X124.896 Y118.377 E22.46768
G1 X124.787 Y118.711 E22.48229
G1 X124.427 Y119.582 E22.52147
G1 X124.265 Y119.9 E22.53631
G1 X123.772 Y120.703 E22.57548
G1 X123.567 Y120.987 E22.59005
G1 X122.956 Y121.703 E22.62918
G1 X122.705 Y121.953 E22.64391
G1 X121.988 Y122.565 E22.6831
G1 X121.705 Y122.771 E22.69765
G1 X120.903 Y123.264 E22.73679
G1 X120.584 Y123.426 E22.75167
G1 X119.713 Y123.786 E22.79085
G1 X119.38 Y123.895 E22.80542
G1 X118.465 Y124.115 E22.84454
G1 X118.115 Y124.17 E22.85927
G1 X117.183 Y124.243 E22.89814
G1 X117.007 Y124.25 E22.90546
G1 X95.993 Y124.25 E23.77912
G1 X95.817 Y124.243 E23.78644
G1 X94.885 Y124.17 E23.82531
G1 X94.535 Y124.115 E23.84004
G1 X93.62 Y123.895 E23.87917
G1 X93.287 Y123.786 E23.89373
G1 X92.416 Y123.426 E23.93292
G1 X92.097 Y123.264 E23.94779
G1 X91.295 Y122.771 E23.98693
G1 X91.012 Y122.565 E24.00148
G1 X90.295 Y121.953 E24.04068
G1 X90.044 Y121.703 E24.0554
G1 X89.433 Y120.987 E24.09454
G1 X89.228 Y120.703 E24.1091
G1 X88.735 Y119.9 E24.14827
G1 X88.573 Y119.582 E24.16311
G1 X88.213 Y118.711 E24.2023
G1 X88.104 Y118.377 E24.2169
G1 X87.885 Y117.464 E24.25594
G1 X87.83 Y117.115 E24.27063
G1 X87.757 Y116.185 E24.30941
G1 X87.75 Y116.009 E24.31673
G1 X87.75 Y96.193 E25.14059
G1 X87.757 Y96.017 E25.14791
G1 X87.83 Y95.085 E25.18678
G1 X87.885 Y94.736 E25.20146
G1 X88.105 Y93.82 E25.24063
G1 X88.214 Y93.485 E25.25528
G1 X88.573 Y92.617 E25.29433
G1 X88.735 Y92.3 E25.30913
G1 X89.228 Y91.497 E25.3483
G1 X89.433 Y91.213 E25.36287
G1 X90.044 Y90.497 E25.402
G1 X90.295 Y90.247 E25.41673
G1 X91.013 Y89.634 E25.45598
G1 X91.296 Y89.428 E25.47053
G1 X92.097 Y88.936 E25.50961
G1 X92.416 Y88.774 E25.52449
G1 X93.287 Y88.414 E25.56367
G1 X93.62 Y88.305 E25.57824
G1 X94.535 Y88.085 E25.61736
G1 X94.885 Y88.03 E25.63209
G1 X95.817 Y87.957 E25.67096
G1 X95.993 Y87.95 E25.67828
G1 X117.007 Y87.95 E26.55194
G1 X117.183 Y87.957 E26.55927
G1 X118.115 Y88.03 E26.59813
G1 X118.465 Y88.085 E26.61286
G1 X119.38 Y88.305 E26.65199
G1 X119.713 Y88.413 E26.66654
G1 X120.582 Y88.772 E26.70563
G1 X120.9 Y88.935 E26.72049
G1 X121.703 Y89.428 E26.75967
G1 X121.987 Y89.633 E26.77423
G1 X122.703 Y90.244 E26.81336
G1 X122.953 Y90.495 E26.82809
G1 X123.566 Y91.213 E26.86734
G1 X123.772 Y91.496 E26.88189
G1 X124.264 Y92.297 E26.92097
G1 X124.426 Y92.615 E26.93581
G1 X124.786 Y93.485 E26.97496
G1 X124.895 Y93.82 E26.9896
G1 X125.115 Y94.736 E27.02877
G1 X125.17 Y95.085 E27.04346
G1 X125.243 Y96.015 E27.08224
G1 X125.25 Y96.191 E27.08956
G1 X125.25 Y100.4 E27.26455
G1 X125.21 Y100.822 E27.28218
G1 X125.092 Y101.229 E27.2998
G1 X124.899 Y101.606 E27.3174
G1 X124.639 Y101.941 E27.33503
G1 X124.321 Y102.221 E27.35265
G1 X123.956 Y102.437 E27.37028
G1 X123.557 Y102.58 E27.3879
G1 X123 Y102.65 E27.41124
G1 X117 Y102.65 E27.66069
G1 X116.578 Y102.61 E27.67832
G1 X116.171 Y102.492 E27.69594
G1 X115.794 Y102.299 E27.71354
G1 X115.459 Y102.039 E27.73117
G1 X115.179 Y101.721 E27.74879
G1 X114.963 Y101.356 E27.76642
G1 X114.82 Y100.957 E27.78405
G1 X114.75 Y100.4 E27.80738
G1 X114.75 Y98.45 E27.88846
G1 X98.25 Y98.45 E28.57445
G0 F9000 X97.75 Y98.128
G1 F1800 X97.75 Y114.073 E29.23736
G1 X97.794 Y114.232 E29.24422
G1 X97.928 Y114.25 E29.24984
G1 X115.072 Y114.25 E29.96261
G1 X115.232 Y114.207 E29.9695
G1 X115.25 Y114.072 E29.97516
G1 X115.25 Y111.8 E30.06962
G1 X115.29 Y111.429 E30.08513
G1 X115.408 Y111.074 E30.10068
G1 X115.598 Y110.752 E30.11623
G1 X115.852 Y110.479 E30.13173
G1 X116.159 Y110.265 E30.14729
G1 X116.504 Y110.122 E30.16282
G1 X117 Y110.05 E30.18365
G1 X123 Y110.05 E30.4331
G1 X123.371 Y110.09 E30.44862
G1 X123.726 Y110.208 E30.46417
G1 X124.048 Y110.398 E30.47971
G1 X124.321 Y110.652 E30.49522
G1 X124.535 Y110.959 E30.51078
G1 X124.678 Y111.304 E30.5263
G1 X124.75 Y111.8 E30.54714
G1 X124.75 Y116.007 E30.72205
G1 X124.745 Y116.144 E30.72775
G1 X124.672 Y117.076 E30.76661
G1 X124.629 Y117.347 E30.77802
G1 X124.41 Y118.26 E30.81706
G1 X124.325 Y118.52 E30.82843
G1 X123.965 Y119.391 E30.86761
G1 X123.839 Y119.639 E30.87918
G1 X123.346 Y120.442 E30.91835
G1 X123.186 Y120.662 E30.92966
G1 X122.575 Y121.378 E30.96879
G1 X122.38 Y121.573 E30.98026
G1 X121.663 Y122.185 E31.01945
G1 X121.443 Y122.345 E31.03076
G1 X120.641 Y122.838 E31.0699
G1 X120.393 Y122.964 E31.08147
G1 X119.522 Y123.324 E31.12065
G1 X119.263 Y123.409 E31.13198
G1 X118.348 Y123.629 E31.17111
G1 X118.076 Y123.672 E31.18256
G1 X117.144 Y123.745 E31.22142
G1 X117.007 Y123.75 E31.22712
G1 X95.993 Y123.75 E32.10078
G1 X95.856 Y123.745 E32.10648
G1 X94.924 Y123.672 E32.14535
G1 X94.652 Y123.629 E32.1568
G1 X93.737 Y123.409 E32.19592
G1 X93.478 Y123.324 E32.20726
G1 X92.607 Y122.964 E32.24644
G1 X92.359 Y122.838 E32.258
G1 X91.557 Y122.345 E32.29714
G1 X91.337 Y122.185 E32.30845
G1 X90.62 Y121.573 E32.34765
G1 X90.425 Y121.378 E32.35911
G1 X89.814 Y120.662 E32.39824
G1 X89.654 Y120.442 E32.40955
G1 X89.161 Y119.639 E32.44873
G1 X89.035 Y119.391 E32.46029
G1 X88.675 Y118.52 E32.49948
G1 X88.59 Y118.26 E32.51085
G1 X88.371 Y117.347 E32.54988
G1 X88.328 Y117.076 E32.56129
G1 X88.255 Y116.146 E32.60008
G1 X88.25 Y116.009 E32.60578
G1 X88.25 Y96.193 E33.42963
G1 X88.255 Y96.056 E33.43533
G1 X88.328 Y95.124 E33.4742
G1 X88.371 Y94.852 E33.48564
G1 X88.591 Y93.936 E33.52481
G1 X88.676 Y93.676 E33.53618
G1 X89.035 Y92.808 E33.57523
