;FLAVOR:Marlin
;TIME:396
;Filament used: 0.317405m
;Layer height: 0.2
;MINX:117.55
;MINY:89.05
;MINZ:0.2
;MAXX:137.45
;MAXY:120.95
;MAXZ:5
;Generated with Cura_SteamEngine 4.12.1
M140 S60
M105
M190 S60
M104 S205
M105
M109 S205
M82 ;absolute extrusion mode
M220 S100 ;reset feedrate
M221 S100 ;reset flowrate
G90 ;use absolute coordinates
M82 ;absolute extrusion mode
G28 ;home
G1 Z2 F1500 ;raise z
G92 E0 ;reset extruder

G1 X75 Y5 F5000 ;start position
G1 Z0.28 F1500 ;lower z
G1 E4 F500 ;prime the filament
G1 X180 E10 F500 ;1st line
G1 Y5.4 F5000
G1 X75 E20 F500 ;2nd line
G1 Z2 F1500 ;raise z
G92 E0 ;reset extruder
G92 E0
G92 E0
G1 F1500 E-6.5
;LAYER_COUNT:25
;LAYER:0
M107
G0 F9000 X118.172 Y90.731 Z0.2
;TYPE:SKIRT
G1 F1500 E0
G1 F1800 X118.507 Y90.298 E0.02276
G1 X118.901 Y89.918 E0.04552
G1 X119.346 Y89.599 E0.06828
G1 X119.833 Y89.349 E0.09104
G1 X120.351 Y89.172 E0.1138
G1 X120.889 Y89.073 E0.13654
G1 X121.3 Y89.05 E0.15366
G1 X133.7 Y89.05 E0.66919
G1 X134.246 Y89.09 E0.69195
G1 X134.78 Y89.209 E0.7147
G1 X135.291 Y89.404 E0.73743
G1 X135.769 Y89.672 E0.76022
G1 X136.202 Y90.007 E0.78298
G1 X136.582 Y90.401 E0.80574
G1 X136.901 Y90.846 E0.8285
G1 X137.151 Y91.333 E0.85126
G1 X137.328 Y91.851 E0.87402
G1 X137.427 Y92.389 E0.89676
G1 X137.45 Y92.8 E0.91387
G1 X137.45 Y117.2 E1.92831
G1 X137.41 Y117.746 E1.95107
G1 X137.291 Y118.28 E1.97382
G1 X137.096 Y118.791 E1.99655
G1 X136.828 Y119.269 E2.01934
G1 X136.493 Y119.702 E2.0421
G1 X136.099 Y120.082 E2.06486
G1 X135.654 Y120.401 E2.08762
G1 X135.167 Y120.651 E2.11038
G1 X134.649 Y120.828 E2.13314
G1 X134.111 Y120.927 E2.15588
G1 X133.7 Y120.95 E2.173
G1 X121.3 Y120.95 E2.68853
G1 X120.754 Y120.91 E2.71129
G1 X120.22 Y120.791 E2.73403
G1 X119.709 Y120.596 E2.75677
G1 X119.231 Y120.328 E2.77956
G1 X118.798 Y119.993 E2.80232
G1 X118.418 Y119.599 E2.82508
G1 X118.099 Y119.154 E2.84784
G1 X117.849 Y118.667 E2.8706
G1 X117.672 Y118.149 E2.89336
G1 X117.573 Y117.611 E2.9161
G1 X117.55 Y117.2 E2.93321
G1 X117.55 Y92.8 E3.94765
G1 X117.59 Y92.254 E3.97041
G1 X117.709 Y91.72 E3.99315
G1 X117.904 Y91.209 E4.01589
G1 X118.172 Y90.731 E4.03868
G0 F9000 X118.67 Y90.891
G1 F1800 X119 Y90.504 E4.05982
G1 X119.387 Y90.172 E4.08102
G1 X119.822 Y89.906 E4.10222
G1 X120.292 Y89.71 E4.12339
G1 X120.787 Y89.591 E4.14456
G1 X121.3 Y89.55 E4.16595
G1 X133.7 Y89.55 E4.68148
G1 X134.208 Y89.59 E4.70267
G1 X134.703 Y89.709 E4.72384
G1 X135.174 Y89.904 E4.74503
G1 X135.609 Y90.17 E4.76623
G1 X135.996 Y90.5 E4.78737
G1 X136.328 Y90.887 E4.80857
G1 X136.594 Y91.322 E4.82977
G1 X136.79 Y91.792 E4.85094
G1 X136.909 Y92.287 E4.87211
G1 X136.95 Y92.8 E4.8935
G1 X136.95 Y117.2 E5.90794
G1 X136.91 Y117.708 E5.92912
G1 X136.791 Y118.203 E5.95029
G1 X136.596 Y118.674 E5.97148
G1 X136.33 Y119.109 E5.99268
G1 X136 Y119.496 E6.01383
G1 X135.613 Y119.828 E6.03503
G1 X135.178 Y120.094 E6.05622
G1 X134.708 Y120.29 E6.0774
G1 X134.213 Y120.409 E6.09856
G1 X133.7 Y120.45 E6.11996
G1 X121.3 Y120.45 E6.63549
G1 X120.792 Y120.41 E6.65668
G1 X120.297 Y120.291 E6.67784
G1 X119.826 Y120.096 E6.69904
G1 X119.391 Y119.83 E6.72023
G1 X119.004 Y119.5 E6.74138
G1 X118.672 Y119.113 E6.76258
G1 X118.406 Y118.678 E6.78378
G1 X118.21 Y118.208 E6.80495
G1 X118.091 Y117.713 E6.82611
G1 X118.05 Y117.2 E6.84751
G1 X118.05 Y92.8 E7.86194
G1 X118.09 Y92.292 E7.88313
G1 X118.209 Y91.797 E7.9043
G1 X118.404 Y91.326 E7.92549
G1 X118.67 Y90.891 E7.94669
G0 F9000 X118.902 Y91.453
G1 F1800 X119.166 Y91.066 E7.96616
G1 X119.491 Y90.728 E7.98566
G1 X119.869 Y90.451 E8.00514
G1 X120.289 Y90.243 E8.02463
G1 X120.738 Y90.108 E8.04412
G1 X121.3 Y90.05 E8.06761
G1 X133.7 Y90.05 E8.58314
G1 X134.167 Y90.09 E8.60263
G1 X134.62 Y90.209 E8.6221
G1 X135.047 Y90.402 E8.64158
G1 X135.434 Y90.666 E8.66106
G1 X135.772 Y90.991 E8.68055
G1 X136.049 Y91.369 E8.70004
G1 X136.257 Y91.789 E8.71952
G1 X136.392 Y92.238 E8.73902
G1 X136.45 Y92.8 E8.76251
G1 X136.45 Y117.2 E9.77694
G1 X136.41 Y117.667 E9.79643
G1 X136.291 Y118.12 E9.8159
G1 X136.098 Y118.547 E9.83538
G1 X135.834 Y118.934 E9.85486
G1 X135.509 Y119.272 E9.87435
G1 X135.131 Y119.549 E9.89384
G1 X134.711 Y119.757 E9.91332
G1 X134.262 Y119.892 E9.93281
G1 X133.7 Y119.95 E9.9563
G1 X121.3 Y119.95 E10.47184
G1 X120.833 Y119.91 E10.49132
G1 X120.38 Y119.791 E10.51079
G1 X119.953 Y119.598 E10.53028
G1 X119.566 Y119.334 E10.54975
G1 X119.228 Y119.009 E10.56925
G1 X118.951 Y118.631 E10.58873
G1 X118.743 Y118.211 E10.60822
G1 X118.608 Y117.762 E10.62771
G1 X118.55 Y117.2 E10.6512
G1 X118.55 Y92.8 E11.66563
G1 X118.59 Y92.333 E11.68512
G1 X118.709 Y91.88 E11.70459
G1 X118.902 Y91.453 E11.72407
G0 F9000 X119.401 Y91.594
G1 F1800 X119.661 Y91.259 E11.7417
G1 X119.979 Y90.979 E11.75932
G1 X120.344 Y90.763 E11.77695
G1 X120.743 Y90.62 E11.79457
G1 X121.3 Y90.55 E11.81791
G1 X133.7 Y90.55 E12.33345
G1 X134.122 Y90.59 E12.35107
G1 X134.529 Y90.708 E12.36869
G1 X134.906 Y90.901 E12.3863
G1 X135.241 Y91.161 E12.40393
G1 X135.521 Y91.479 E12.42154
G1 X135.737 Y91.844 E12.43917
G1 X135.88 Y92.243 E12.4568
G1 X135.95 Y92.8 E12.48014
G1 X135.95 Y117.2 E13.49457
G1 X135.91 Y117.622 E13.51219
G1 X135.792 Y118.029 E13.52981
G1 X135.599 Y118.406 E13.54742
G1 X135.339 Y118.741 E13.56505
G1 X135.021 Y119.021 E13.58267
G1 X134.656 Y119.237 E13.6003
G1 X134.257 Y119.38 E13.61792
G1 X133.7 Y119.45 E13.64126
G1 X121.3 Y119.45 E14.15679
G1 X120.878 Y119.41 E14.17442
G1 X120.471 Y119.292 E14.19203
G1 X120.094 Y119.099 E14.20964
G1 X119.759 Y118.839 E14.22727
G1 X119.479 Y118.521 E14.24489
G1 X119.263 Y118.156 E14.26252
G1 X119.12 Y117.757 E14.28014
G1 X119.05 Y117.2 E14.30348
G1 X119.05 Y92.8 E15.31792
G1 X119.09 Y92.378 E15.33554
G1 X119.208 Y91.971 E15.35316
G1 X119.401 Y91.594 E15.37077
G0 F9000 X119.898 Y91.752
G1 F1800 X120.152 Y91.479 E15.38627
G1 X120.459 Y91.265 E15.40183
G1 X120.804 Y91.122 E15.41735
G1 X121.3 Y91.05 E15.43819
G1 X133.7 Y91.05 E15.95372
G1 X134.071 Y91.09 E15.96924
G1 X134.426 Y91.208 E15.98479
G1 X134.748 Y91.398 E16.00033
G1 X135.021 Y91.652 E16.01584
G1 X135.235 Y91.959 E16.0314
G1 X135.378 Y92.304 E16.04692
G1 X135.45 Y92.8 E16.06776
G1 X135.45 Y117.2 E17.08219
G1 X135.41 Y117.571 E17.09771
G1 X135.292 Y117.926 E17.11326
G1 X135.102 Y118.248 E17.1288
G1 X134.848 Y118.521 E17.14431
G1 X134.541 Y118.735 E17.15987
G1 X134.196 Y118.878 E17.17539
G1 X133.7 Y118.95 E17.19623
G1 X121.3 Y118.95 E17.71176
G1 X120.929 Y118.91 E17.72728
G1 X120.574 Y118.792 E17.74283
G1 X120.252 Y118.602 E17.75837
G1 X119.979 Y118.348 E17.77388
G1 X119.765 Y118.041 E17.78943
G1 X119.622 Y117.696 E17.80496
G1 X119.55 Y117.2 E17.8258
G1 X119.55 Y92.8 E18.84023
G1 X119.59 Y92.429 E18.85575
G1 X119.708 Y92.074 E18.8713
G1 X119.898 Y91.752 E18.88684
G0 F9000 X120.207 Y92.194
G1 F1800 X120.393 Y91.939 E18.89997
G1 X120.638 Y91.74 E18.91309
G1 X120.925 Y91.608 E18.92622
G1 X121.3 Y91.55 E18.942
G1 X133.7 Y91.55 E19.45753
G1 X134.013 Y91.59 E19.47065
G1 X134.306 Y91.707 E19.48377
G1 X134.561 Y91.893 E19.49689
G1 X134.76 Y92.138 E19.51001
G1 X134.892 Y92.425 E19.52314
G1 X134.95 Y92.8 E19.53892
G1 X134.95 Y117.2 E20.55335
G1 X134.91 Y117.513 E20.56647
G1 X134.793 Y117.806 E20.57959
G1 X134.607 Y118.061 E20.59271
G1 X134.362 Y118.26 E20.60584
G1 X134.075 Y118.392 E20.61897
G1 X133.7 Y118.45 E20.63474
G1 X121.3 Y118.45 E21.15028
G1 X120.987 Y118.41 E21.1634
G1 X120.694 Y118.293 E21.17651
G1 X120.439 Y118.107 E21.18963
G1 X120.24 Y117.862 E21.20276
G1 X120.108 Y117.575 E21.21589
G1 X120.05 Y117.2 E21.23167
G1 X120.05 Y92.8 E22.2461
G1 X120.09 Y92.487 E22.25922
G1 X120.207 Y92.194 E22.27234
G0 F9000 X120.705 Y92.344
G1 F1800 X120.883 Y92.177 E22.28248
G1 X121.105 Y92.076 E22.29262
G1 X121.3 Y92.05 E22.3008
G1 X133.7 Y92.05 E22.81634
G1 X133.941 Y92.09 E22.82649
G1 X134.156 Y92.205 E22.83663
G1 X134.323 Y92.383 E22.84678
G1 X134.424 Y92.605 E22.85692
G1 X134.45 Y92.8 E22.8651
G1 X134.45 Y117.2 E23.87953
G1 X134.41 Y117.441 E23.88969
G1 X134.295 Y117.656 E23.89982
G1 X134.117 Y117.823 E23.90997
G1 X133.895 Y117.924 E23.92011
G1 X133.7 Y117.95 E23.92829
G1 X121.3 Y117.95 E24.44382
G1 X121.059 Y117.91 E24.45398
G1 X120.844 Y117.795 E24.46412
G1 X120.677 Y117.617 E24.47426
G1 X120.576 Y117.395 E24.4844
G1 X120.55 Y117.2 E24.49258
G1 X120.55 Y92.8 E25.50702
G1 X120.59 Y92.559 E25.51717
G1 X120.705 Y92.344 E25.52731
G0 F9000 X121.089 Y92.666
G1 F1800 X121.195 Y92.573 E25.53317
G1 X121.3 Y92.55 E25.53764
G1 X133.7 Y92.55 E26.05317
G1 X133.834 Y92.589 E26.05898
G1 X133.927 Y92.695 E26.06484
G1 X133.95 Y92.8 E26.06931
G1 X133.95 Y117.2 E27.08374
G1 X133.911 Y117.334 E27.08954
G1 X133.805 Y117.427 E27.09541
G1 X133.7 Y117.45 E27.09988
G1 X121.3 Y117.45 E27.61541
G1 X121.166 Y117.411 E27.62121
G1 X121.073 Y117.305 E27.62707
G1 X121.05 Y117.2 E27.63154
G1 X121.05 Y92.8 E28.64598
G1 X121.089 Y92.666 E28.65178
G1 F1500 E22.15178
;MESH:Cap_holder.stl
G0 F9000 X122.31 Y93.81
G0 X132.718 Y93.782
G0 X133 Y116.53
G1 F1500 E28.65178
G0 F9000 X133.3 Y116.8
;TYPE:WALL-OUTER
G1 F1800 X121.7 Y116.8 E29.0376
G1 X121.7 Y93.2 E29.82253
G1 X133.3 Y93.2 E30.20835
G1 X133.3 Y116.8 E30.99329
G0 F9000 X132.9 Y116.4
;TYPE:WALL-INNER
G1 F1800 X122.1 Y116.4 E31.3525
G1 X122.1 Y93.6 E32.11083
G1 X132.9 Y93.6 E32.47004
G1 X132.9 Y116.4 E33.22837
G0 F9000 X132.51 Y116.01
;TYPE:SKIN
G1 F1800 X122.49 Y116.01 E33.56164
G1 X122.49 Y93.99 E34.29403
G1 X132.51 Y93.99 E34.62729
G1 X132.51 Y116.01 E35.35968
G0 F9000 X132.79 Y116.01
G0 X123.203 Y116.29
G0 X123.203 Y115.849
G1 F1800 X122.649 Y115.295 E35.38574
G0 F9000 X122.649 Y114.729
G1 F1800 X123.769 Y115.849 E35.43842
G0 F9000 X124.334 Y115.849
G1 F1800 X122.649 Y114.163 E35.5177
G0 F9000 X122.649 Y113.598
G1 F1800 X124.9 Y115.849 E35.62358
G0 F9000 X125.466 Y115.849
G1 F1800 X122.649 Y113.032 E35.75609
G0 F9000 X122.649 Y112.466
G1 F1800 X126.031 Y115.849 E35.91519
G0 F9000 X126.597 Y115.849
G1 F1800 X122.649 Y111.901 E36.10089
G0 F9000 X122.649 Y111.335
G1 F1800 X127.163 Y115.849 E36.31321
G0 F9000 X127.728 Y115.849
G1 F1800 X122.649 Y110.769 E36.55214
G0 F9000 X122.649 Y110.204
G1 F1800 X128.294 Y115.849 E36.81766
G0 F9000 X128.86 Y115.849
G1 F1800 X122.649 Y109.638 E37.10981
G0 F9000 X122.649 Y109.072
G1 F1800 X129.425 Y115.849 E37.42855
G0 F9000 X129.991 Y115.849
G1 F1800 X122.649 Y108.506 E37.77392
G0 F9000 X122.649 Y107.941
G1 F1800 X130.557 Y115.849 E38.14589
G0 F9000 X131.123 Y115.849
G1 F1800 X122.649 Y107.375 E38.54448
G0 F9000 X122.649 Y106.809
G1 F1800 X131.688 Y115.849 E38.96967
G0 F9000 X132.254 Y115.849
G1 F1800 X122.649 Y106.244 E39.42146
G0 F9000 X122.649 Y105.678
G1 F1800 X132.349 Y115.378 E39.87772
G0 F9000 X132.349 Y114.812
G1 F1800 X122.649 Y105.112 E40.33398
G0 F9000 X122.649 Y104.547
G1 F1800 X132.349 Y114.247 E40.79024
G0 F9000 X132.349 Y113.681
G1 F1800 X122.649 Y103.981 E41.24649
G0 F9000 X122.649 Y103.415
G1 F1800 X132.349 Y113.115 E41.70275
G0 F9000 X132.349 Y112.55
G1 F1800 X122.649 Y102.85 E42.15901
G0 F9000 X122.649 Y102.284
G1 F1800 X132.349 Y111.984 E42.61527
G0 F9000 X132.349 Y111.418
G1 F1800 X122.649 Y101.718 E43.07153
G0 F9000 X122.649 Y101.153
G1 F1800 X132.349 Y110.853 E43.52779
G0 F9000 X132.349 Y110.287
G1 F1800 X122.649 Y100.587 E43.98404
G0 F9000 X122.649 Y100.021
G1 F1800 X132.349 Y109.721 E44.4403
G0 F9000 X132.349 Y109.156
G1 F1800 X122.649 Y99.455 E44.89658
G0 F9000 X122.649 Y98.89
G1 F1800 X132.349 Y108.59 E45.35284
G0 F9000 X132.349 Y108.024
G1 F1800 X122.649 Y98.324 E45.8091
G0 F9000 X122.649 Y97.758
G1 F1800 X132.349 Y107.459 E46.26538
G0 F9000 X132.349 Y106.893
G1 F1800 X122.649 Y97.193 E46.72164
G0 F9000 X122.649 Y96.627
G1 F1800 X132.349 Y106.327 E47.1779
G0 F9000 X132.349 Y105.761
G1 F1800 X122.649 Y96.061 E47.63416
G0 F9000 X122.649 Y95.496
G1 F1800 X132.349 Y105.196 E48.09042
G0 F9000 X132.349 Y104.63
G1 F1800 X122.649 Y94.93 E48.54667
G0 F9000 X122.649 Y94.364
G1 F1800 X132.349 Y104.064 E49.00293
G0 F9000 X132.349 Y103.499
G1 F1800 X122.999 Y94.149 E49.44273
G0 F9000 X123.565 Y94.149
G1 F1800 X132.349 Y102.933 E49.8559
G0 F9000 X132.349 Y102.367
G1 F1800 X124.131 Y94.149 E50.24245
G0 F9000 X124.696 Y94.149
G1 F1800 X132.349 Y101.802 E50.60242
G0 F9000 X132.349 Y101.236
G1 F1800 X125.262 Y94.149 E50.93577
G0 F9000 X125.828 Y94.149
G1 F1800 X132.349 Y100.67 E51.2425
G0 F9000 X132.349 Y100.105
G1 F1800 X126.393 Y94.149 E51.52265
G0 F9000 X126.959 Y94.149
G1 F1800 X132.349 Y99.539 E51.77618
G0 F9000 X132.349 Y98.973
G1 F1800 X127.525 Y94.149 E52.00309
G0 F9000 X128.09 Y94.149
G1 F1800 X132.349 Y98.408 E52.20342
G0 F9000 X132.349 Y97.842
G1 F1800 X128.656 Y94.149 E52.37713
G0 F9000 X129.222 Y94.149
G1 F1800 X132.349 Y97.276 E52.52421
G0 F9000 X132.349 Y96.71
G1 F1800 X129.788 Y94.149 E52.64467
G0 F9000 X130.353 Y94.149
G1 F1800 X132.349 Y96.145 E52.73856
G0 F9000 X132.349 Y95.579
G1 F1800 X130.919 Y94.149 E52.80582
G0 F9000 X131.485 Y94.149
G1 F1800 X132.349 Y95.013 E52.84646
G0 F9000 X132.349 Y94.448
G1 F1800 X132.05 Y94.149 E52.86053
G0 F9000 X132.05 Y93.8
;MESH:NONMESH
G0 F300 X132.05 Y93.8 Z0.4
G0 F9000 X132.05 Y93.71
G0 X132.718 Y93.782
G0 X132.9 Y116.4
;TIME_ELAPSED:54.366136
;LAYER:1
M106 S255
;TYPE:WALL-INNER
;MESH:Cap_holder.stl
G1 F2700 X122.1 Y116.4 E53.21973
G1 X122.1 Y93.6 E53.97807
G1 X132.9 Y93.6 E54.33728
G1 X132.9 Y116.4 E55.09561
G0 F9000 X133.3 Y116.8
;TYPE:WALL-OUTER
G1 F1800 X121.7 Y116.8 E55.48142
G1 X121.7 Y93.2 E56.26636
G1 X133.3 Y93.2 E56.65218
G1 X133.3 Y116.8 E57.43712
G0 F9000 X133.03 Y116.53
G0 X132.79 Y116.01
G0 X132.51 Y116.01
;TYPE:SKIN
G1 F1800 X122.49 Y116.01 E57.77039
G1 X122.49 Y93.99 E58.50277
G1 X132.51 Y93.99 E58.83604
G1 X132.51 Y116.01 E59.56843
G0 F9000 X132.349 Y115.421
G1 F1800 X131.92 Y115.849 E59.58858
G0 F9000 X131.354 Y115.849
G1 F1800 X132.349 Y114.855 E59.63536
G0 F9000 X132.349 Y114.289
G1 F1800 X130.789 Y115.849 E59.70874
G0 F9000 X130.223 Y115.849
G1 F1800 X132.349 Y113.723 E59.80874
G0 F9000 X132.349 Y113.158
G1 F1800 X129.657 Y115.849 E59.93534
G0 F9000 X129.092 Y115.849
G1 F1800 X132.349 Y112.592 E60.08854
G0 F9000 X132.349 Y112.026
G1 F1800 X128.526 Y115.849 E60.26836
G0 F9000 X127.96 Y115.849
G1 F1800 X132.349 Y111.461 E60.47478
G0 F9000 X132.349 Y110.895
G1 F1800 X127.395 Y115.849 E60.70781
G0 F9000 X126.829 Y115.849
G1 F1800 X132.349 Y110.329 E60.96745
G0 F9000 X132.349 Y109.764
G1 F1800 X126.263 Y115.849 E61.25369
G0 F9000 X125.698 Y115.849
G1 F1800 X132.349 Y109.198 E61.56653
G0 F9000 X132.349 Y108.632
G1 F1800 X125.132 Y115.849 E61.906
G0 F9000 X124.566 Y115.849
G1 F1800 X132.349 Y108.067 E62.27207
G0 F9000 X132.349 Y107.501
G1 F1800 X124.001 Y115.849 E62.66473
G0 F9000 X123.435 Y115.849
G1 F1800 X132.349 Y106.935 E63.08402
G0 F9000 X132.349 Y106.37
G1 F1800 X122.869 Y115.849 E63.5299
G0 F9000 X122.649 Y115.504
G1 F1800 X132.349 Y105.804 E63.98616
G0 F9000 X132.349 Y105.238
G1 F1800 X122.649 Y114.938 E64.44242
G0 F9000 X122.649 Y114.373
G1 F1800 X132.349 Y104.673 E64.89868
G0 F9000 X132.349 Y104.107
G1 F1800 X122.649 Y113.807 E65.35494
G0 F9000 X122.649 Y113.241
G1 F1800 X132.349 Y103.541 E65.81119
G0 F9000 X132.349 Y102.975
G1 F1800 X122.649 Y112.676 E66.26748
G0 F9000 X122.649 Y112.11
G1 F1800 X132.349 Y102.41 E66.72373
G0 F9000 X132.349 Y101.844
G1 F1800 X122.649 Y111.544 E67.17999
G0 F9000 X122.649 Y110.978
G1 F1800 X132.349 Y101.278 E67.63625
G0 F9000 X132.349 Y100.713
G1 F1800 X122.649 Y110.413 E68.09251
G0 F9000 X122.649 Y109.847
G1 F1800 X132.349 Y100.147 E68.54877
G0 F9000 X132.349 Y99.581
G1 F1800 X122.649 Y109.281 E69.00503
G0 F9000 X122.649 Y108.716
G1 F1800 X132.349 Y99.016 E69.46128
G0 F9000 X132.349 Y98.45
G1 F1800 X122.649 Y108.15 E69.91754
G0 F9000 X122.649 Y107.584
G1 F1800 X132.349 Y97.884 E70.3738
G0 F9000 X132.349 Y97.319
G1 F1800 X122.649 Y107.019 E70.83006
G0 F9000 X122.649 Y106.453
G1 F1800 X132.349 Y96.753 E71.28632
G0 F9000 X132.349 Y96.187
G1 F1800 X122.649 Y105.887 E71.74258
G0 F9000 X122.649 Y105.322
G1 F1800 X132.349 Y95.622 E72.19883
G0 F9000 X132.349 Y95.056
G1 F1800 X122.649 Y104.756 E72.65509
G0 F9000 X122.649 Y104.19
G1 F1800 X132.349 Y94.49 E73.11135
G0 F9000 X132.124 Y94.149
G1 F1800 X122.649 Y103.625 E73.55705
G0 F9000 X122.649 Y103.059
