;FLAVOR:Marlin
;TIME:21524
;Filament used: 23.0349m
;Layer height: 0.2
;MINX:98.239
;MINY:46.769
;MINZ:0.2
;MAXX:191.616
;MAXY:140.156
;MAXZ:79
;Generated with Cura_SteamEngine 4.12.1
M140 S60
M105
M190 S60
M104 S205
M105
M109 S205
M82 ;absolute extrusion mode
M220 S100 ;reset feedrate
M221 S100 ;reset flowrate
G90 ;use absolute coordinates
M82 ;absolute extrusion mode
G28 ;home
G1 Z2 F1500 ;raise z
G92 E0 ;reset extruder

G1 X75 Y5 F5000 ;start position
G1 Z0.28 F1500 ;lower z
G1 E4 F500 ;prime the filament
G1 X180 E10 F500 ;1st line
G1 Y5.4 F5000
G1 X75 E20 F500 ;2nd line
G1 Z2 F1500 ;raise z
G92 E0 ;reset extruder
G92 E0
G92 E0
G1 F1500 E-6.5
;LAYER_COUNT:395
;LAYER:0
M107
G0 F9000 X98.794 Y49.262 Z0.2
;TYPE:SKIRT
G1 F1500 E0
G1 F1800 X99.078 Y48.794 E0.02276
G1 X99.428 Y48.373 E0.04552
G1 X99.654 Y48.157 E0.05852
G1 X99.912 Y47.93 E0.07281
G1 X100.348 Y47.599 E0.09556
G1 X100.593 Y47.453 E0.10742
G1 X101.02 Y47.22 E0.12765
G1 X101.518 Y46.994 E0.15038
G1 X102.044 Y46.842 E0.17315
G1 X102.587 Y46.769 E0.19592
G1 X102.939 Y46.776 E0.21056
G1 X186.922 Y46.774 E3.70217
G1 X187.302 Y46.774 E3.71797
G1 X187.844 Y46.852 E3.74073
G1 X188.369 Y47.008 E3.7635
G1 X188.813 Y47.21 E3.78378
G1 X189.238 Y47.438 E3.80383
G1 X189.7 Y47.732 E3.8266
G1 X189.966 Y47.949 E3.84087
G1 X190.223 Y48.179 E3.85521
G1 X190.603 Y48.572 E3.87794
G1 X190.922 Y49.017 E3.9007
G1 X191.259 Y49.726 E3.93334
G1 X191.387 Y50.089 E3.94934
G1 X191.562 Y50.806 E3.98003
G1 X191.578 Y50.918 E3.98473
G1 X191.616 Y51.448 E4.00682
G1 X191.616 Y135.478 E7.50038
G1 X191.568 Y136.078 E7.52541
G1 X191.55 Y136.189 E7.53008
G1 X191.398 Y136.798 E7.55618
G1 X191.274 Y137.162 E7.57217
G1 X191.06 Y137.666 E7.59493
G1 X190.775 Y138.133 E7.61768
G1 X190.425 Y138.554 E7.64044
G1 X190.201 Y138.768 E7.65332
G1 X189.943 Y138.995 E7.66761
G1 X189.507 Y139.326 E7.69037
G1 X189.265 Y139.47 E7.70207
G1 X188.839 Y139.703 E7.72226
G1 X188.341 Y139.93 E7.74501
G1 X187.816 Y140.082 E7.76774
G1 X187.273 Y140.156 E7.79052
G1 X186.917 Y140.149 E7.80533
G1 X102.934 Y140.151 E11.29693
G1 X102.554 Y140.151 E11.31273
G1 X102.012 Y140.073 E11.3355
G1 X101.487 Y139.917 E11.35827
G1 X101.053 Y139.719 E11.3781
G1 X100.627 Y139.492 E11.39817
G1 X100.164 Y139.2 E11.42093
G1 X99.883 Y138.972 E11.43597
G1 X99.626 Y138.741 E11.45034
G1 X99.247 Y138.346 E11.4731
G1 X98.929 Y137.901 E11.49584
G1 X98.596 Y137.199 E11.52814
G1 X98.467 Y136.833 E11.54427
G1 X98.29 Y136.102 E11.57554
G1 X98.275 Y135.994 E11.58008
G1 X98.239 Y135.478 E11.60158
G1 X98.239 Y51.448 E15.09514
G1 X98.287 Y50.848 E15.12017
G1 X98.305 Y50.737 E15.12484
G1 X98.456 Y50.131 E15.15081
G1 X98.58 Y49.766 E15.16683
G1 X98.794 Y49.262 E15.1896
G0 F9000 X99.255 Y49.458
G1 F1800 X99.527 Y49.028 E15.21075
G1 X99.984 Y48.532 E15.23879
G1 X100.242 Y48.305 E15.25308
G1 X100.832 Y47.892 E15.28302
G1 X101.259 Y47.659 E15.30324
G1 X101.724 Y47.451 E15.32442
G1 X102.216 Y47.318 E15.34561
G1 X102.723 Y47.263 E15.36681
G1 X103.044 Y47.274 E15.38017
G1 X186.922 Y47.275 E18.86741
G1 X187.302 Y47.276 E18.88321
G1 X187.805 Y47.356 E18.90438
G1 X188.29 Y47.515 E18.9256
G1 X188.576 Y47.651 E18.93877
G1 X189.001 Y47.879 E18.95882
G1 X189.43 Y48.154 E18.98001
G1 X189.632 Y48.321 E18.9909
G1 X189.889 Y48.551 E19.00524
G1 X190.241 Y48.92 E19.02644
G1 X190.531 Y49.339 E19.04763
G1 X190.787 Y49.892 E19.07296
G1 X190.915 Y50.255 E19.08897
G1 X191.067 Y50.876 E19.11555
G1 X191.083 Y50.988 E19.12025
G1 X191.116 Y51.448 E19.13943
G1 X191.116 Y135.478 E22.63299
G1 X191.074 Y135.998 E22.65468
G1 X191.056 Y136.109 E22.65935
G1 X190.924 Y136.637 E22.68198
G1 X190.8 Y137.001 E22.69797
G1 X190.599 Y137.469 E22.71914
G1 X190.327 Y137.9 E22.74033
G1 X189.871 Y138.393 E22.76825
G1 X189.613 Y138.62 E22.78254
G1 X189.026 Y139.031 E22.81233
G1 X188.6 Y139.264 E22.83252
G1 X188.135 Y139.473 E22.85371
G1 X187.643 Y139.607 E22.87491
G1 X187.137 Y139.662 E22.89607
G1 X186.812 Y139.651 E22.90959
G1 X102.934 Y139.651 E26.39683
G1 X102.554 Y139.649 E26.41263
G1 X102.051 Y139.569 E26.43381
G1 X101.566 Y139.41 E26.45503
G1 X101.288 Y139.278 E26.46782
G1 X100.862 Y139.051 E26.48789
G1 X100.432 Y138.777 E26.50909
G1 X100.217 Y138.6 E26.52067
G1 X99.96 Y138.369 E26.53503
G1 X99.609 Y138 E26.55621
G1 X99.32 Y137.58 E26.5774
G1 X99.068 Y137.032 E26.60248
G1 X98.939 Y136.666 E26.61861
G1 X98.785 Y136.033 E26.6457
G1 X98.77 Y135.925 E26.65023
G1 X98.739 Y135.478 E26.66886
G1 X98.739 Y51.448 E30.16242
G1 X98.781 Y50.928 E30.18411
G1 X98.799 Y50.817 E30.18879
G1 X98.93 Y50.292 E30.21128
G1 X99.054 Y49.927 E30.22731
G1 X99.255 Y49.458 E30.24852
G0 F9000 X99.715 Y49.658
G1 F1800 X99.973 Y49.267 E30.268
G1 X100.314 Y48.907 E30.28862
G1 X100.572 Y48.68 E30.3029
G1 X101.072 Y48.331 E30.32825
G1 X101.499 Y48.098 E30.34848
G1 X101.928 Y47.909 E30.36797
G1 X102.383 Y47.796 E30.38746
G1 X102.939 Y47.779 E30.41059
G1 X102.939 Y47.774 E30.41079
G1 X186.831 Y47.773 E33.89862
G1 X187.299 Y47.777 E33.91808
G1 X187.761 Y47.861 E33.9376
G1 X188.34 Y48.092 E33.96351
G1 X188.765 Y48.32 E33.98357
G1 X189.299 Y48.694 E34.01067
G1 X189.556 Y48.924 E34.02501
G1 X189.877 Y49.265 E34.04448
G1 X190.136 Y49.656 E34.06398
G1 X190.315 Y50.058 E34.08227
G1 X190.443 Y50.421 E34.09828
G1 X190.572 Y50.947 E34.12079
G1 X190.588 Y51.059 E34.1255
G1 X190.616 Y51.448 E34.14171
G1 X190.616 Y135.478 E37.63527
G1 X190.581 Y135.918 E37.65362
G1 X190.563 Y136.029 E37.6583
G1 X190.451 Y136.476 E37.67746
G1 X190.327 Y136.84 E37.69345
G1 X190.139 Y137.269 E37.71292
G1 X189.88 Y137.66 E37.73242
G1 X189.541 Y138.018 E37.75292
G1 X189.283 Y138.245 E37.7672
G1 X188.786 Y138.593 E37.79243
G1 X188.36 Y138.826 E37.81261
G1 X187.931 Y139.015 E37.8321
G1 X187.476 Y139.128 E37.8516
G1 X187.009 Y139.163 E37.87107
G1 X186.791 Y139.151 E37.88014
G1 X103.025 Y139.152 E41.36273
G1 X102.557 Y139.148 E41.38219
G1 X102.095 Y139.064 E41.40171
G1 X101.523 Y138.837 E41.42729
G1 X101.097 Y138.61 E41.44736
G1 X100.552 Y138.228 E41.47503
G1 X100.295 Y137.997 E41.4894
G1 X99.974 Y137.655 E41.5089
G1 X99.716 Y137.264 E41.52838
G1 X99.539 Y136.866 E41.54649
G1 X99.41 Y136.5 E41.56262
G1 X99.28 Y135.964 E41.58555
G1 X99.265 Y135.856 E41.59008
G1 X99.239 Y135.478 E41.60584
G1 X99.239 Y51.448 E45.0994
G1 X99.274 Y51.008 E45.11775
G1 X99.292 Y50.897 E45.12242
G1 X99.403 Y50.452 E45.14149
G1 X99.527 Y50.087 E45.15752
G1 X99.715 Y49.658 E45.17699
G0 F9000 X100.174 Y49.862
G1 F1800 X100.417 Y49.514 E45.19464
G1 X100.645 Y49.283 E45.20813
G1 X100.903 Y49.056 E45.22242
G1 X101.311 Y48.77 E45.24313
G1 X101.738 Y48.537 E45.26336
G1 X102.128 Y48.37 E45.28099
G1 X102.542 Y48.279 E45.29862
G1 X103.044 Y48.274 E45.31949
G1 X186.843 Y48.274 E48.80345
G1 X186.869 Y48.272 E48.80453
G1 X187.293 Y48.279 E48.82216
G1 X187.707 Y48.366 E48.83975
G1 X188.104 Y48.532 E48.85764
G1 X188.529 Y48.76 E48.87769
G1 X188.965 Y49.066 E48.89984
G1 X189.222 Y49.296 E48.91418
G1 X189.51 Y49.607 E48.9318
G1 X189.735 Y49.967 E48.94945
G1 X189.844 Y50.225 E48.96109
G1 X189.972 Y50.588 E48.9771
G1 X190.077 Y51.018 E48.9955
G1 X190.093 Y51.13 E49.0002
G1 X190.116 Y51.448 E49.01346
G1 X190.116 Y135.478 E52.50702
G1 X190.087 Y135.838 E52.52203
G1 X190.069 Y135.949 E52.52671
G1 X189.978 Y136.315 E52.54239
G1 X189.854 Y136.679 E52.55838
G1 X189.68 Y137.065 E52.57598
G1 X189.437 Y137.412 E52.59359
G1 X189.21 Y137.642 E52.60703
G1 X188.952 Y137.869 E52.62131
G1 X188.546 Y138.154 E52.64194
G1 X188.12 Y138.387 E52.66212
G1 X187.73 Y138.554 E52.67976
G1 X187.317 Y138.646 E52.69735
G1 X186.812 Y138.651 E52.71835
G1 X103.013 Y138.651 E56.20231
G1 X102.987 Y138.653 E56.20339
G1 X102.563 Y138.646 E56.22102
G1 X102.149 Y138.559 E56.23861
G1 X101.758 Y138.396 E56.25622
G1 X101.332 Y138.169 E56.27629
G1 X100.886 Y137.856 E56.29894
G1 X100.629 Y137.625 E56.31331
G1 X100.342 Y137.314 E56.3309
G1 X100.118 Y136.954 E56.34853
G1 X100.011 Y136.7 E56.35999
G1 X99.882 Y136.334 E56.37613
G1 X99.775 Y135.896 E56.39487
G1 X99.76 Y135.788 E56.3994
G1 X99.739 Y135.478 E56.41232
G1 X99.739 Y51.448 E59.90588
G1 X99.768 Y51.088 E59.9209
G1 X99.786 Y50.977 E59.92557
G1 X99.877 Y50.613 E59.94117
G1 X100.001 Y50.248 E59.9572
G1 X100.174 Y49.862 E59.97479
G0 F9000 X100.631 Y50.07
G1 F1800 X100.975 Y49.658 E59.9971
G1 X101.233 Y49.431 E60.01139
G1 X101.551 Y49.209 E60.02751
G1 X101.978 Y48.976 E60.04774
G1 X102.323 Y48.833 E60.06326
G1 X102.691 Y48.766 E60.07881
G1 X102.986 Y48.77 E60.09108
G1 X103.027 Y48.774 E60.09279
G1 X187.031 Y48.774 E63.58527
G1 X187.28 Y48.782 E63.59563
G1 X187.643 Y48.872 E63.61118
G1 X187.867 Y48.973 E63.62139
G1 X188.292 Y49.201 E63.64145
G1 X188.632 Y49.439 E63.6587
G1 X188.889 Y49.669 E63.67304
G1 X189.139 Y49.946 E63.68855
G1 X189.372 Y50.391 E63.70944
G1 X189.5 Y50.754 E63.72544
G1 X189.582 Y51.089 E63.73978
G1 X189.616 Y51.448 E63.75477
G1 X189.616 Y135.478 E67.24833
G1 X189.593 Y135.758 E67.26001
G1 X189.575 Y135.869 E67.26469
G1 X189.505 Y136.153 E67.27685
G1 X189.381 Y136.517 E67.29283
G1 X189.223 Y136.856 E67.30838
G1 X188.88 Y137.267 E67.33064
G1 X188.622 Y137.494 E67.34493
G1 X188.306 Y137.715 E67.36096
G1 X187.88 Y137.948 E67.38115
G1 X187.535 Y138.092 E67.39669
G1 X187.167 Y138.158 E67.41223
G1 X186.87 Y138.155 E67.42458
G1 X186.829 Y138.151 E67.42629
G1 X102.824 Y138.151 E70.91882
G1 X102.576 Y138.143 E70.92913
G1 X102.213 Y138.053 E70.94468
G1 X101.993 Y137.954 E70.95471
G1 X101.567 Y137.727 E70.97478
G1 X101.22 Y137.485 E70.99237
G1 X100.963 Y137.254 E71.00673
G1 X100.714 Y136.976 E71.02225
G1 X100.483 Y136.534 E71.04299
G1 X100.354 Y136.168 E71.05912
G1 X100.271 Y135.827 E71.07371
G1 X100.239 Y135.478 E71.08828
G1 X100.239 Y51.448 E74.58184
G1 X100.262 Y51.168 E74.59352
G1 X100.28 Y51.057 E74.5982
G1 X100.35 Y50.774 E74.61032
G1 X100.474 Y50.409 E74.62634
G1 X100.631 Y50.07 E74.64188
G0 F9000 X101.086 Y50.286
G1 F1800 X101.305 Y50.034 E74.65576
G1 X101.563 Y49.807 E74.67004
G1 X101.79 Y49.648 E74.68157
G1 X102.217 Y49.415 E74.70179
G1 X102.511 Y49.3 E74.71492
G1 X102.937 Y49.268 E74.73268
G1 X102.998 Y49.274 E74.73522
G1 X187.043 Y49.274 E78.22941
G1 X187.26 Y49.285 E78.23844
G1 X187.631 Y49.413 E78.25476
G1 X188.056 Y49.641 E78.27481
G1 X188.299 Y49.812 E78.28716
G1 X188.556 Y50.042 E78.3015
G1 X188.762 Y50.28 E78.31459
G1 X188.901 Y50.557 E78.32748
G1 X189.029 Y50.92 E78.34348
G1 X189.103 Y51.271 E78.35839
G1 X189.116 Y51.448 E78.36577
G1 X189.116 Y135.478 E81.85933
G1 X189.082 Y135.789 E81.87234
G1 X189.031 Y135.992 E81.88104
G1 X188.907 Y136.356 E81.89703
G1 X188.769 Y136.64 E81.91016
G1 X188.55 Y136.891 E81.924
G1 X188.292 Y137.118 E81.93829
G1 X188.066 Y137.277 E81.94978
G1 X187.64 Y137.51 E81.96997
G1 X187.346 Y137.625 E81.98309
G1 X186.919 Y137.657 E82.00089
G1 X186.857 Y137.651 E82.00348
G1 X102.812 Y137.651 E85.49767
G1 X102.596 Y137.64 E85.50666
G1 X102.228 Y137.513 E85.52285
G1 X101.802 Y137.286 E85.54291
G1 X101.554 Y137.113 E85.55549
G1 X101.297 Y136.882 E85.56985
G1 X101.091 Y136.643 E85.58297
G1 X100.954 Y136.368 E85.59574
G1 X100.825 Y136.002 E85.61188
G1 X100.766 Y135.758 E85.62231
G1 X100.739 Y135.478 E85.63401
G1 X100.739 Y51.448 E89.12757
G1 X100.773 Y51.137 E89.14058
G1 X100.823 Y50.935 E89.14923
G1 X100.947 Y50.57 E89.16526
G1 X101.086 Y50.286 E89.1784
G0 F9000 X101.421 Y50.731
G1 F1800 X101.636 Y50.409 E89.1945
G1 X101.894 Y50.182 E89.20879
G1 X102.03 Y50.087 E89.21568
G1 X102.457 Y49.854 E89.23591
G1 X102.687 Y49.773 E89.24605
G1 X102.971 Y49.774 E89.25785
G1 X186.891 Y49.774 E92.74684
G1 X187.226 Y49.788 E92.76078
G1 X187.395 Y49.854 E92.76832
G1 X187.82 Y50.082 E92.78838
G1 X187.965 Y50.184 E92.79575
G1 X188.222 Y50.414 E92.81008
G1 X188.429 Y50.724 E92.82558
G1 X188.557 Y51.087 E92.84158
G1 X188.608 Y51.342 E92.8524
G1 X188.616 Y51.448 E92.85682
G1 X188.616 Y135.478 E96.35038
G1 X188.558 Y135.831 E96.36525
G1 X188.434 Y136.195 E96.38124
G1 X188.219 Y136.516 E96.3973
G1 X187.961 Y136.743 E96.41159
G1 X187.826 Y136.838 E96.41845
G1 X187.4 Y137.071 E96.43864
G1 X187.169 Y137.152 E96.44881
G1 X102.965 Y137.151 E99.94961
G1 X102.63 Y137.137 E99.96355
G1 X102.463 Y137.072 E99.971
G1 X102.037 Y136.845 E99.99107
G1 X101.889 Y136.741 E99.99859
G1 X101.632 Y136.51 E100.01296
G1 X101.426 Y136.201 E100.0284
G1 X101.297 Y135.835 E100.04453
G1 X101.246 Y135.581 E100.0553
G1 X101.239 Y135.478 E100.05959
G1 X101.239 Y51.448 E103.55315
G1 X101.297 Y51.096 E103.56799
G1 X101.421 Y50.731 E103.58401
G0 F9000 X101.894 Y50.892
G1 F1800 X101.966 Y50.784 E103.58941
G1 X102.224 Y50.557 E103.6037
G1 X102.269 Y50.526 E103.60597
G1 X102.696 Y50.293 E103.62619
G1 X102.953 Y50.274 E103.63691
G1 X186.916 Y50.274 E107.12768
G1 X187.158 Y50.295 E107.13778
G1 X187.583 Y50.523 E107.15783
G1 X187.632 Y50.557 E107.16031
G1 X187.889 Y50.787 E107.17465
G1 X187.958 Y50.89 E107.1798
G1 X188.086 Y51.253 E107.19581
G1 X188.116 Y51.448 E107.20401
G1 X188.116 Y135.478 E110.69757
G1 X188.085 Y135.67 E110.70566
G1 X187.961 Y136.034 E110.72164
G1 X187.889 Y136.141 E110.72701
G1 X187.631 Y136.368 E110.74129
G1 X187.586 Y136.399 E110.74357
G1 X187.16 Y136.632 E110.76375
G1 X186.903 Y136.651 E110.77447
G1 X102.94 Y136.651 E114.26524
G1 X102.698 Y136.631 E114.27534
G1 X102.272 Y136.404 E114.29541
G1 X102.223 Y136.369 E114.29791
G1 X101.966 Y136.138 E114.31228
G1 X101.897 Y136.035 E114.31743
G1 X101.768 Y135.669 E114.33356
G1 X101.739 Y135.478 E114.3416
G1 X101.739 Y51.448 E117.83516
G1 X101.77 Y51.257 E117.8432
G1 X101.894 Y50.892 E117.85923
G1 F1500 E111.35923
;MESH:Mario_case_coperchio.stl
G0 F9000 X102.999 Y51.586
G0 X102.971 Y135.383
G0 X186.883 Y135.701
G1 F1500 E117.85923
G0 F9000 X186.956 Y136.003
;TYPE:WALL-OUTER
G1 F1800 X186.938 Y136.001 E117.85983
G1 X102.919 Y136.001 E120.65432
G1 X102.9 Y136.003 E120.65495
G1 X102.621 Y135.852 E120.6655
G1 X102.476 Y135.723 E120.67196
G1 X102.389 Y135.449 E120.68152
G1 X102.389 Y51.481 E123.47431
G1 X102.475 Y51.202 E123.48402
G1 X102.619 Y51.075 E123.4904
G1 X102.899 Y50.922 E123.50101
G1 X102.918 Y50.924 E123.50165
G1 X186.937 Y50.924 E126.29613
G1 X186.955 Y50.922 E126.29674
G1 X187.233 Y51.072 E126.30724
G1 X187.379 Y51.202 E126.31374
G1 X187.466 Y51.477 E126.32334
G1 X187.466 Y135.445 E129.11612
G1 X187.38 Y135.723 E129.1258
G1 X187.236 Y135.85 E129.13219
G1 X186.956 Y136.003 E129.1428
G0 F9000 X186.872 Y135.572
G0 X186.857 Y135.601
;TYPE:WALL-INNER
G1 F1800 X102.998 Y135.601 E131.93196
G1 X102.824 Y135.497 E131.93871
G1 X102.789 Y135.388 E131.94251
G1 X102.789 Y51.541 E134.73128
G1 X102.851 Y51.404 E134.73628
G1 X102.998 Y51.324 E134.74184
G1 X186.858 Y51.324 E137.53104
G1 X187.031 Y51.428 E137.53775
G1 X187.066 Y51.538 E137.54159
G1 X187.066 Y135.385 E140.33035
G1 X187.004 Y135.521 E140.33533
G1 X186.857 Y135.601 E140.34089
G0 F9000 X186.676 Y135.211
;TYPE:SKIN
G1 F1800 X103.179 Y135.211 E143.11801
G1 X103.179 Y51.714 E145.89513
G1 X186.676 Y51.714 E148.67226
G1 X186.676 Y135.211 E151.44938
G1 F1500 E144.94938
G0 F9000 X186.956 Y135.211
G0 X186.956 Y52.448
G1 F1500 E151.44938
G0 F9000 X186.515 Y52.448
G1 F1800 X185.941 Y51.874 E151.47638
G0 F9000 X185.375 Y51.874
G1 F1800 X186.515 Y53.013 E151.52998
G0 F9000 X186.515 Y53.579
G1 F1800 X184.81 Y51.874 E151.61017
G0 F9000 X184.244 Y51.874
G1 F1800 X186.515 Y54.145 E151.71699
G0 F9000 X186.515 Y54.71
G1 F1800 X183.678 Y51.874 E151.85041
G0 F9000 X183.113 Y51.874
G1 F1800 X186.515 Y55.276 E152.01043
G0 F9000 X186.515 Y55.842
G1 F1800 X182.547 Y51.874 E152.19708
G0 F9000 X181.981 Y51.874
G1 F1800 X186.515 Y56.408 E152.41034
G0 F9000 X186.515 Y56.973
G1 F1800 X181.416 Y51.874 E152.65018
G0 F9000 X180.85 Y51.874
G1 F1800 X186.515 Y57.539 E152.91665
G0 F9000 X186.515 Y58.105
G1 F1800 X180.284 Y51.874 E153.20974
G0 F9000 X179.718 Y51.874
G1 F1800 X186.515 Y58.67 E153.52942
G0 F9000 X186.515 Y59.236
G1 F1800 X179.153 Y51.874 E153.87571
G0 F9000 X178.587 Y51.874
G1 F1800 X186.515 Y59.802 E154.24862
G0 F9000 X186.515 Y60.367
G1 F1800 X178.021 Y51.874 E154.64812
G0 F9000 X177.456 Y51.874
G1 F1800 X186.515 Y60.933 E155.07423
G0 F9000 X186.515 Y61.499
G1 F1800 X176.89 Y51.874 E155.52696
G0 F9000 X176.324 Y51.874
G1 F1800 X186.515 Y62.064 E156.00629
G0 F9000 X186.515 Y62.63
