;FLAVOR:Marlin
;TIME:3273
;Filament used: 3.52108m
;Layer height: 0.2
;MINX:34.941
;MINY:35.68
;MINZ:0.2
;MAXX:200.398
;MAXY:185.369
;MAXZ:2
;Generated with Cura_SteamEngine 4.12.1
M140 S60
M105
M190 S60
M104 S205
M105
M109 S205
M82 ;absolute extrusion mode
M220 S100 ;reset feedrate
M221 S100 ;reset flowrate
G90 ;use absolute coordinates
M82 ;absolute extrusion mode
G28 ;home
G1 Z2 F1500 ;raise z
G92 E0 ;reset extruder

G1 X75 Y5 F5000 ;start position
G1 Z0.28 F1500 ;lower z
G1 E4 F500 ;prime the filament
G1 X180 E10 F500 ;1st line
G1 Y5.4 F5000
G1 X75 E20 F500 ;2nd line
G1 Z2 F1500 ;raise z
G92 E0 ;reset extruder
G92 E0
G92 E0
G1 F1500 E-6.5
;LAYER_COUNT:10
;LAYER:0
M107
G0 F9000 X105.605 Y49.787 Z0.2
;TYPE:SKIRT
G1 F1500 E0
G1 F2100 X105.969 Y49.094 E0.03254
G1 X106.187 Y48.751 E0.04944
G1 X106.63 Y48.161 E0.08012
G1 X106.894 Y47.861 E0.09673
G1 X107.457 Y47.319 E0.12922
G1 X107.772 Y47.062 E0.14612
G1 X108.411 Y46.622 E0.17838
G1 X108.756 Y46.424 E0.19492
G1 X109.421 Y46.108 E0.22553
G1 X109.797 Y45.964 E0.24227
G1 X110.551 Y45.745 E0.27491
G1 X110.95 Y45.664 E0.29184
G1 X111.705 Y45.573 E0.32345
G1 X112.104 Y45.557 E0.34005
G1 X112.859 Y45.587 E0.37147
G1 X113.26 Y45.635 E0.38826
G1 X114.017 Y45.789 E0.42038
G1 X114.4 Y45.9 E0.43695
G1 X115.122 Y46.174 E0.46906
G1 X115.489 Y46.349 E0.48596
G1 X116.134 Y46.722 E0.51694
G1 X116.463 Y46.948 E0.53354
G1 X117.067 Y47.44 E0.56592
G1 X117.357 Y47.719 E0.58265
G1 X117.851 Y48.275 E0.61358
G1 X118.094 Y48.596 E0.63031
G1 X118.515 Y49.259 E0.66297
G1 X118.703 Y49.618 E0.67981
G1 X119.002 Y50.323 E0.71165
G1 X119.128 Y50.702 E0.72826
G1 X119.309 Y51.434 E0.75961
G1 X119.374 Y51.831 E0.77633
G1 X119.436 Y52.598 E0.80832
G1 X119.436 Y53.002 E0.82512
G1 X119.375 Y53.764 E0.8569
G1 X119.31 Y54.164 E0.87375
G1 X119.128 Y54.901 E0.90531
G1 X119.002 Y55.28 E0.92192
G1 X118.705 Y55.981 E0.95357
G1 X118.519 Y56.337 E0.97027
G1 X118.101 Y56.998 E1.00278
G1 X117.858 Y57.32 E1.01955
G1 X117.36 Y57.882 E1.05077
G1 X117.068 Y58.163 E1.06762
G1 X116.463 Y58.655 E1.10004
G1 X116.134 Y58.881 E1.11664
G1 X115.494 Y59.251 E1.14737
G1 X115.128 Y59.426 E1.16424
G1 X114.398 Y59.704 E1.19671
G1 X114.014 Y59.815 E1.21333
G1 X113.26 Y59.968 E1.24532
G1 X112.859 Y60.016 E1.26211
G1 X112.104 Y60.046 E1.29352
G1 X111.705 Y60.03 E1.31012
G1 X110.95 Y59.939 E1.34174
G1 X110.551 Y59.858 E1.35867
G1 X109.797 Y59.639 E1.39131
G1 X109.421 Y59.495 E1.40805
G1 X108.752 Y59.177 E1.43885
G1 X108.406 Y58.978 E1.45544
G1 X107.773 Y58.542 E1.4874
G1 X107.459 Y58.286 E1.50424
G1 X106.894 Y57.742 E1.53685
G1 X106.63 Y57.442 E1.55346
G1 X106.187 Y56.852 E1.58414
G1 X105.969 Y56.509 E1.60103
G1 X105.605 Y55.816 E1.63358
G1 X105.448 Y55.446 E1.65029
G1 X105.207 Y54.721 E1.68205
G1 X105.112 Y54.333 E1.69866
G1 X104.992 Y53.594 E1.72979
G1 X104.959 Y53.194 E1.74647
G1 X104.959 Y52.415 E1.77886
G1 X104.992 Y52.012 E1.79567
G1 X105.112 Y51.27 E1.82692
G1 X105.207 Y50.882 E1.84353
G1 X105.448 Y50.157 E1.87529
G1 X105.605 Y49.787 E1.892
G0 F9000 X106.066 Y49.982
G1 F2100 X106.391 Y49.362 E1.92111
G1 X106.609 Y49.019 E1.938
G1 X107.005 Y48.491 E1.96544
G1 X107.269 Y48.191 E1.98206
G1 X107.773 Y47.706 E2.01114
G1 X108.088 Y47.449 E2.02804
G1 X108.66 Y47.056 E2.05689
G1 X109.005 Y46.858 E2.07343
G1 X109.6 Y46.575 E2.10082
G1 X109.976 Y46.431 E2.11756
G1 X110.65 Y46.235 E2.14674
G1 X111.049 Y46.154 E2.16367
G1 X111.725 Y46.072 E2.19198
G1 X112.124 Y46.056 E2.20858
G1 X112.799 Y46.083 E2.23667
G1 X113.2 Y46.131 E2.25346
G1 X113.878 Y46.269 E2.28223
G1 X114.261 Y46.38 E2.2988
G1 X114.907 Y46.626 E2.32754
G1 X115.274 Y46.801 E2.34445
G1 X115.851 Y47.134 E2.37214
G1 X116.18 Y47.36 E2.38874
G1 X116.721 Y47.8 E2.41773
G1 X117.011 Y48.079 E2.43446
G1 X117.453 Y48.577 E2.46214
G1 X117.696 Y48.898 E2.47888
G1 X118.072 Y49.491 E2.50808
G1 X118.26 Y49.85 E2.52492
G1 X118.528 Y50.481 E2.55343
G1 X118.654 Y50.86 E2.57003
G1 X118.815 Y51.514 E2.59803
G1 X118.88 Y51.911 E2.61476
G1 X118.936 Y52.598 E2.64341
G1 X118.936 Y53.002 E2.66021
G1 X118.881 Y53.684 E2.68866
G1 X118.816 Y54.084 E2.70551
G1 X118.654 Y54.743 E2.73372
G1 X118.528 Y55.122 E2.75032
G1 X118.262 Y55.749 E2.77864
G1 X118.076 Y56.105 E2.79534
G1 X117.701 Y56.697 E2.82447
G1 X117.458 Y57.019 E2.84125
G1 X117.013 Y57.521 E2.86914
G1 X116.721 Y57.802 E2.88598
G1 X116.18 Y58.243 E2.915
G1 X115.851 Y58.469 E2.9316
G1 X115.278 Y58.8 E2.95911
G1 X114.912 Y58.975 E2.97598
G1 X114.259 Y59.224 E3.00503
G1 X113.875 Y59.335 E3.02165
G1 X113.2 Y59.472 E3.05028
G1 X112.799 Y59.52 E3.06708
G1 X112.124 Y59.547 E3.09516
G1 X111.725 Y59.531 E3.11176
G1 X111.049 Y59.449 E3.14007
G1 X110.65 Y59.368 E3.157
G1 X109.976 Y59.172 E3.18618
G1 X109.6 Y59.028 E3.20292
G1 X109.001 Y58.743 E3.2305
G1 X108.655 Y58.544 E3.2471
G1 X108.088 Y58.154 E3.27571
G1 X107.774 Y57.898 E3.29255
G1 X107.269 Y57.412 E3.32169
G1 X107.005 Y57.112 E3.3383
G1 X106.609 Y56.584 E3.36574
G1 X106.391 Y56.241 E3.38264
G1 X106.066 Y55.621 E3.41174
G1 X105.909 Y55.251 E3.42845
G1 X105.693 Y54.602 E3.45689
G1 X105.598 Y54.214 E3.4735
G1 X105.49 Y53.552 E3.50139
G1 X105.457 Y53.152 E3.51807
G1 X105.457 Y52.456 E3.54701
G1 X105.49 Y52.053 E3.56382
G1 X105.598 Y51.389 E3.59179
G1 X105.693 Y51.001 E3.6084
G1 X105.909 Y50.352 E3.63683
G1 X106.066 Y49.982 E3.65354
G0 F9000 X106.526 Y50.177
G1 F2100 X106.813 Y49.631 E3.67919
G1 X107.031 Y49.288 E3.69608
G1 X107.381 Y48.822 E3.72031
G1 X107.645 Y48.522 E3.73693
G1 X108.089 Y48.093 E3.7626
G1 X108.404 Y47.836 E3.7795
G1 X108.908 Y47.49 E3.80492
G1 X109.253 Y47.292 E3.82145
G1 X109.779 Y47.042 E3.84567
G1 X110.155 Y46.898 E3.86241
G1 X110.75 Y46.725 E3.88817
G1 X111.149 Y46.644 E3.90509
G1 X111.745 Y46.572 E3.93005
G1 X112.144 Y46.556 E3.94666
G1 X112.74 Y46.58 E3.97145
G1 X113.141 Y46.628 E3.98824
G1 X113.739 Y46.749 E4.01361
G1 X114.122 Y46.86 E4.03019
G1 X114.692 Y47.077 E4.05555
G1 X115.059 Y47.252 E4.07245
G1 X115.568 Y47.546 E4.09689
G1 X115.897 Y47.772 E4.11348
G1 X116.374 Y48.161 E4.13907
G1 X116.664 Y48.44 E4.1558
G1 X117.054 Y48.879 E4.18022
G1 X117.297 Y49.2 E4.19696
G1 X117.629 Y49.723 E4.22271
G1 X117.817 Y50.082 E4.23956
G1 X118.054 Y50.639 E4.26472
G1 X118.18 Y51.018 E4.28133
G1 X118.322 Y51.595 E4.30603
G1 X118.387 Y51.992 E4.32276
G1 X118.436 Y52.598 E4.34804
G1 X118.436 Y53.002 E4.36483
G1 X118.387 Y53.603 E4.3899
G1 X118.322 Y54.003 E4.40675
G1 X118.18 Y54.585 E4.43166
G1 X118.054 Y54.964 E4.44826
G1 X117.819 Y55.518 E4.47328
G1 X117.633 Y55.874 E4.48998
G1 X117.302 Y56.396 E4.51568
G1 X117.059 Y56.718 E4.53245
G1 X116.666 Y57.161 E4.55707
G1 X116.374 Y57.442 E4.57392
G1 X115.897 Y57.831 E4.59951
G1 X115.568 Y58.057 E4.6161
G1 X115.063 Y58.349 E4.64036
G1 X114.697 Y58.524 E4.65722
G1 X114.12 Y58.744 E4.68289
G1 X113.736 Y58.855 E4.69951
G1 X113.141 Y58.975 E4.72475
G1 X112.74 Y59.023 E4.74154
G1 X112.144 Y59.047 E4.76634
G1 X111.745 Y59.031 E4.78294
G1 X111.149 Y58.959 E4.8079
G1 X110.75 Y58.878 E4.82483
G1 X110.155 Y58.705 E4.85059
G1 X109.779 Y58.561 E4.86733
G1 X109.25 Y58.31 E4.89167
G1 X108.904 Y58.111 E4.90826
G1 X108.404 Y57.766 E4.93352
G1 X108.09 Y57.51 E4.95036
G1 X107.645 Y57.081 E4.97606
G1 X107.381 Y56.781 E4.99268
G1 X107.031 Y56.315 E5.01691
G1 X106.813 Y55.972 E5.0338
G1 X106.526 Y55.426 E5.05945
G1 X106.369 Y55.056 E5.07616
G1 X106.179 Y54.483 E5.10126
G1 X106.084 Y54.095 E5.11786
G1 X105.989 Y53.511 E5.14246
G1 X105.956 Y53.111 E5.15915
G1 X105.956 Y52.497 E5.18468
G1 X105.989 Y52.094 E5.20149
G1 X106.084 Y51.508 E5.22617
G1 X106.179 Y51.12 E5.24278
G1 X106.369 Y50.547 E5.26788
G1 X106.526 Y50.177 E5.28459
G0 F9000 X106.986 Y50.373
G1 F2100 X107.235 Y49.899 E5.30685
G1 X107.453 Y49.556 E5.32374
G1 X107.756 Y49.152 E5.34474
G1 X108.02 Y48.852 E5.36135
G1 X108.405 Y48.481 E5.38358
G1 X108.72 Y48.224 E5.40048
G1 X109.157 Y47.923 E5.42254
G1 X109.502 Y47.725 E5.43908
G1 X109.958 Y47.509 E5.46006
G1 X110.334 Y47.365 E5.4768
G1 X110.849 Y47.215 E5.4991
G1 X111.248 Y47.134 E5.51603
G1 X111.765 Y47.072 E5.53768
G1 X112.164 Y47.056 E5.55428
G1 X112.68 Y47.076 E5.57575
G1 X113.081 Y47.124 E5.59254
G1 X113.6 Y47.229 E5.61455
G1 X113.983 Y47.34 E5.63113
G1 X114.477 Y47.528 E5.6531
G1 X114.844 Y47.703 E5.67001
G1 X115.285 Y47.958 E5.69119
G1 X115.614 Y48.184 E5.70778
G1 X116.027 Y48.521 E5.72994
G1 X116.317 Y48.8 E5.74667
G1 X116.655 Y49.18 E5.76782
G1 X116.898 Y49.501 E5.78456
G1 X117.186 Y49.955 E5.80691
G1 X117.374 Y50.314 E5.82376
G1 X117.579 Y50.797 E5.84557
G1 X117.705 Y51.176 E5.86218
G1 X117.828 Y51.676 E5.88358
G1 X117.893 Y52.073 E5.90031
G1 X117.936 Y52.598 E5.92221
G1 X117.936 Y53.002 E5.93901
G1 X117.894 Y53.523 E5.96074
G1 X117.829 Y53.923 E5.97759
G1 X117.705 Y54.427 E5.99916
G1 X117.579 Y54.806 E6.01577
G1 X117.376 Y55.286 E6.03744
G1 X117.19 Y55.642 E6.05414
G1 X116.903 Y56.095 E6.07643
G1 X116.66 Y56.417 E6.0932
G1 X116.32 Y56.801 E6.11453
G1 X116.028 Y57.082 E6.13137
G1 X115.614 Y57.419 E6.15357
G1 X115.285 Y57.645 E6.17016
G1 X114.847 Y57.898 E6.19119
G1 X114.481 Y58.073 E6.20806
G1 X113.982 Y58.263 E6.23026
G1 X113.598 Y58.374 E6.24688
G1 X113.081 Y58.479 E6.26881
G1 X112.68 Y58.527 E6.2856
G1 X112.164 Y58.547 E6.30707
G1 X111.765 Y58.531 E6.32367
G1 X111.248 Y58.469 E6.34532
G1 X110.849 Y58.388 E6.36225
G1 X110.334 Y58.238 E6.38455
G1 X109.958 Y58.094 E6.40129
G1 X109.5 Y57.876 E6.42237
G1 X109.154 Y57.677 E6.43897
G1 X108.72 Y57.379 E6.46086
G1 X108.406 Y57.123 E6.4777
G1 X108.02 Y56.751 E6.49999
G1 X107.756 Y56.451 E6.5166
G1 X107.453 Y56.047 E6.5376
G1 X107.235 Y55.704 E6.55449
G1 X106.986 Y55.23 E6.57675
G1 X106.829 Y54.86 E6.59346
G1 X106.664 Y54.364 E6.6152
G1 X106.569 Y53.976 E6.6318
G1 X106.487 Y53.47 E6.65312
G1 X106.454 Y53.07 E6.6698
G1 X106.454 Y52.538 E6.69192
G1 X106.487 Y52.135 E6.70873
G1 X106.569 Y51.627 E6.73012
G1 X106.664 Y51.239 E6.74673
G1 X106.829 Y50.743 E6.76846
G1 X106.986 Y50.373 E6.78518
G0 F9000 X107.446 Y50.568
G1 F2100 X107.657 Y50.167 E6.80401
G1 X107.875 Y49.824 E6.82091
G1 X108.132 Y49.482 E6.8387
G1 X108.396 Y49.182 E6.85531
G1 X108.722 Y48.868 E6.87413
G1 X109.037 Y48.611 E6.89103
G1 X109.406 Y48.357 E6.90966
G1 X109.751 Y48.159 E6.92619
G1 X110.136 Y47.976 E6.94392
G1 X110.512 Y47.832 E6.96066
G1 X110.949 Y47.705 E6.97958
G1 X111.348 Y47.624 E6.9965
G1 X111.785 Y47.571 E7.0148
G1 X112.184 Y47.555 E7.03141
G1 X112.621 Y47.572 E7.04959
G1 X113.022 Y47.62 E7.06638
G1 X113.46 Y47.71 E7.08497
G1 X113.843 Y47.821 E7.10155
G1 X114.262 Y47.98 E7.12018
G1 X114.629 Y48.155 E7.13708
G1 X115.002 Y48.37 E7.15498
G1 X115.331 Y48.596 E7.17158
G1 X115.681 Y48.881 E7.19034
G1 X115.971 Y49.16 E7.20707
G1 X116.257 Y49.482 E7.22498
G1 X116.5 Y49.803 E7.24172
G1 X116.743 Y50.187 E7.26061
G1 X116.931 Y50.546 E7.27746
G1 X117.105 Y50.954 E7.2959
G1 X117.231 Y51.333 E7.3125
G1 X117.335 Y51.757 E7.33065
G1 X117.4 Y52.154 E7.34738
G1 X117.436 Y52.598 E7.3659
G1 X117.436 Y53.002 E7.3827
G1 X117.4 Y53.443 E7.40109
G1 X117.335 Y53.843 E7.41794
G1 X117.231 Y54.27 E7.43621
G1 X117.105 Y54.649 E7.45282
G1 X116.932 Y55.054 E7.47113
G1 X116.746 Y55.41 E7.48782
G1 X116.504 Y55.794 E7.5067
G1 X116.261 Y56.116 E7.52347
G1 X115.973 Y56.441 E7.54152
G1 X115.681 Y56.722 E7.55837
G1 X115.331 Y57.007 E7.57713
G1 X115.002 Y57.233 E7.59373
G1 X114.631 Y57.447 E7.61154
G1 X114.265 Y57.622 E7.6284
G1 X113.843 Y57.783 E7.64718
G1 X113.459 Y57.894 E7.6638
G1 X113.022 Y57.983 E7.68234
G1 X112.621 Y58.031 E7.69913
G1 X112.184 Y58.048 E7.71731
G1 X111.785 Y58.032 E7.73391
G1 X111.348 Y57.979 E7.75222
G1 X110.949 Y57.898 E7.76914
G1 X110.512 Y57.771 E7.78806
G1 X110.136 Y57.627 E7.8048
G1 X109.749 Y57.443 E7.82262
G1 X109.403 Y57.244 E7.83921
G1 X109.036 Y56.991 E7.85774
G1 X108.722 Y56.735 E7.87459
G1 X108.396 Y56.421 E7.89341
G1 X108.132 Y56.121 E7.91002
G1 X107.875 Y55.779 E7.92781
G1 X107.657 Y55.436 E7.9447
G1 X107.446 Y55.035 E7.96354
G1 X107.289 Y54.665 E7.98025
G1 X107.15 Y54.245 E7.99864
G1 X107.055 Y53.857 E8.01525
G1 X106.985 Y53.429 E8.03328
G1 X106.952 Y53.029 E8.04997
G1 X106.952 Y52.579 E8.06868
G1 X106.985 Y52.176 E8.08549
G1 X107.055 Y51.746 E8.1036
G1 X107.15 Y51.358 E8.12021
G1 X107.289 Y50.938 E8.1386
G1 X107.446 Y50.568 E8.15531
G0 F9000 X107.907 Y50.763
G1 F2100 X108.079 Y50.435 E8.17071
G1 X108.297 Y50.092 E8.18761
G1 X108.507 Y49.813 E8.20213
G1 X108.771 Y49.513 E8.21874
G1 X109.038 Y49.256 E8.23415
G1 X109.353 Y48.999 E8.25105
G1 X109.655 Y48.791 E8.2663
G1 X110 Y48.593 E8.28283
G1 X110.315 Y48.443 E8.29734
G1 X110.691 Y48.299 E8.31408
G1 X111.048 Y48.195 E8.32954
G1 X111.447 Y48.114 E8.34646
G1 X111.805 Y48.071 E8.36145
G1 X112.204 Y48.055 E8.37806
G1 X112.561 Y48.069 E8.39291
G1 X112.962 Y48.117 E8.4097
G1 X113.321 Y48.19 E8.42493
G1 X113.704 Y48.301 E8.44151
G1 X114.046 Y48.431 E8.45672
G1 X114.413 Y48.606 E8.47363
G1 X114.719 Y48.782 E8.4883
G1 X115.048 Y49.008 E8.5049
G1 X115.334 Y49.242 E8.52026
G1 X115.624 Y49.521 E8.53699
G1 X115.858 Y49.784 E8.55163
G1 X116.101 Y50.105 E8.56836
G1 X116.3 Y50.419 E8.58382
G1 X116.488 Y50.778 E8.60067
G1 X116.63 Y51.112 E8.61576
G1 X116.756 Y51.491 E8.63236
G1 X116.841 Y51.837 E8.64717
G1 X116.906 Y52.234 E8.6639
G1 X116.936 Y52.598 E8.67908
G1 X116.936 Y53.002 E8.69588
G1 X116.907 Y53.363 E8.71094
G1 X116.842 Y53.763 E8.72779
G1 X116.756 Y54.112 E8.74273
G1 X116.63 Y54.491 E8.75933
G1 X116.489 Y54.823 E8.77433
G1 X116.303 Y55.179 E8.79103
G1 X116.105 Y55.492 E8.80643
G1 X115.862 Y55.814 E8.8232
G1 X115.626 Y56.08 E8.83798
G1 X115.334 Y56.361 E8.85483
G1 X115.048 Y56.595 E8.8702
G1 X114.719 Y56.821 E8.88679
G1 X114.416 Y56.996 E8.90134
G1 X114.05 Y57.171 E8.9182
G1 X113.704 Y57.303 E8.9336
G1 X113.32 Y57.414 E8.95022
G1 X112.962 Y57.486 E8.9654
G1 X112.561 Y57.534 E8.98219
G1 X112.204 Y57.548 E8.99704
G1 X111.805 Y57.532 E9.01365
G1 X111.447 Y57.489 E9.02864
G1 X111.048 Y57.408 E9.04556
G1 X110.691 Y57.304 E9.06102
G1 X110.315 Y57.16 E9.07776
G1 X109.998 Y57.009 E9.09236
G1 X109.652 Y56.81 E9.10896
G1 X109.352 Y56.604 E9.12409
G1 X109.038 Y56.348 E9.14093
G1 X108.771 Y56.09 E9.15637
G1 X108.507 Y55.79 E9.17298
G1 X108.297 Y55.511 E9.1875
G1 X108.079 Y55.168 E9.20439
G1 X107.907 Y54.84 E9.21979
G1 X107.75 Y54.47 E9.2365
G1 X107.636 Y54.126 E9.25157
G1 X107.541 Y53.738 E9.26818
G1 X107.484 Y53.388 E9.28292
G1 X107.451 Y52.988 E9.29961
G1 X107.451 Y52.619 E9.31495
G1 X107.484 Y52.216 E9.33176
G1 X107.541 Y51.865 E9.34654
G1 X107.636 Y51.477 E9.36315
G1 X107.75 Y51.133 E9.37822
G1 X107.907 Y50.763 E9.39493
G0 F9000 X108.367 Y50.958
G1 F2100 X108.501 Y50.703 E9.4069
G1 X108.719 Y50.36 E9.4238
G1 X108.882 Y50.143 E9.43508
G1 X109.146 Y49.843 E9.4517
G1 X109.354 Y49.643 E9.4637
G1 X109.669 Y49.386 E9.4806
G1 X109.904 Y49.224 E9.49246
G1 X110.249 Y49.026 E9.509
G1 X110.494 Y48.91 E9.52027
G1 X110.87 Y48.766 E9.53701
G1 X111.148 Y48.685 E9.54905
G1 X111.547 Y48.604 E9.56598
G1 X111.825 Y48.57 E9.57762
G1 X112.224 Y48.554 E9.59422
G1 X112.502 Y48.565 E9.60579
G1 X112.903 Y48.613 E9.62258
G1 X113.182 Y48.67 E9.63442
G1 X113.565 Y48.781 E9.651
G1 X113.831 Y48.882 E9.66283
G1 X114.198 Y49.057 E9.67973
G1 X114.436 Y49.195 E9.69117
G1 X114.765 Y49.421 E9.70776
G1 X114.987 Y49.602 E9.71967
G1 X115.277 Y49.881 E9.7364
G1 X115.459 Y50.086 E9.7478
G1 X115.702 Y50.407 E9.76454
G1 X115.857 Y50.651 E9.77656
G1 X116.045 Y51.01 E9.7934
G1 X116.156 Y51.27 E9.80516
G1 X116.282 Y51.649 E9.82176
G1 X116.348 Y51.918 E9.83328
G1 X116.413 Y52.315 E9.85
G1 X116.436 Y52.598 E9.86181
G1 X116.436 Y53.002 E9.8786
G1 X116.413 Y53.283 E9.89033
G1 X116.348 Y53.683 E9.90717
G1 X116.282 Y53.954 E9.91877
G1 X116.156 Y54.333 E9.93538
G1 X116.046 Y54.591 E9.94704
G1 X115.86 Y54.947 E9.96373
G1 X115.706 Y55.191 E9.97573
G1 X115.463 Y55.513 E9.9925
G1 X115.279 Y55.72 E10.00402
G1 X114.987 Y56.001 E10.02086
G1 X114.765 Y56.182 E10.03277
G1 X114.436 Y56.408 E10.04937
G1 X114.2 Y56.545 E10.06071
G1 X113.834 Y56.72 E10.07758
G1 X113.565 Y56.822 E10.08954
G1 X113.181 Y56.933 E10.10616
G1 X112.903 Y56.99 E10.11796
G1 X112.502 Y57.038 E10.13475
G1 X112.224 Y57.049 E10.14631
G1 X111.825 Y57.033 E10.16292
G1 X111.547 Y56.999 E10.17456
G1 X111.148 Y56.918 E10.19149
G1 X110.87 Y56.837 E10.20353
G1 X110.494 Y56.693 E10.22027
