;FLAVOR:Marlin
;TIME:466
;Filament used: 0.42637m
;Layer height: 0.2
;MINX:115.55
;MINY:90.4
;MINZ:0.2
;MAXX:139.45
;MAXY:119.2
;MAXZ:5.4
;Generated with Cura_SteamEngine 4.12.1
M140 S60
M105
M190 S60
M104 S205
M105
M109 S205
M82 ;absolute extrusion mode
M220 S100 ;reset feedrate
M221 S100 ;reset flowrate
G90 ;use absolute coordinates
M82 ;absolute extrusion mode
G28 ;home
G1 Z2 F1500 ;raise z
G92 E0 ;reset extruder

G1 X75 Y5 F5000 ;start position
G1 Z0.28 F1500 ;lower z
G1 E4 F500 ;prime the filament
G1 X180 E10 F500 ;1st line
G1 Y5.4 F5000
G1 X75 E20 F500 ;2nd line
G1 Z2 F1500 ;raise z
G92 E0 ;reset extruder
G92 E0
G92 E0
G1 F1500 E-6.5
;LAYER_COUNT:27
;LAYER:0
M107
G0 F9000 X116.507 Y91.648 Z0.2
;TYPE:SKIRT
G1 F1500 E0
G1 F1800 X116.901 Y91.268 E0.02276
G1 X117.346 Y90.949 E0.04552
G1 X117.833 Y90.699 E0.06828
G1 X118.351 Y90.522 E0.09104
G1 X118.889 Y90.423 E0.11378
G1 X119.3 Y90.4 E0.1309
G1 X135.7 Y90.4 E0.81273
G1 X136.246 Y90.44 E0.83549
G1 X136.78 Y90.559 E0.85824
G1 X137.291 Y90.754 E0.88097
G1 X137.769 Y91.022 E0.90376
G1 X138.202 Y91.357 E0.92652
G1 X138.582 Y91.751 E0.94928
G1 X138.901 Y92.196 E0.97204
G1 X139.151 Y92.683 E0.9948
G1 X139.328 Y93.201 E1.01756
G1 X139.427 Y93.739 E1.0403
G1 X139.45 Y94.15 E1.05741
G1 X139.45 Y103.65 E1.45238
G1 X139.41 Y104.196 E1.47514
G1 X139.291 Y104.73 E1.49789
G1 X139.096 Y105.241 E1.52062
G1 X138.828 Y105.719 E1.54341
G1 X138.493 Y106.152 E1.56617
G1 X138.099 Y106.532 E1.58893
G1 X137.654 Y106.851 E1.61169
G1 X137.5 Y106.93 E1.61889
G1 X137.5 Y114.733 E1.9433
G1 X137.46 Y115.279 E1.96606
G1 X137.341 Y115.813 E1.9888
G1 X137.146 Y116.324 E2.01154
G1 X136.878 Y116.802 E2.03433
G1 X136.402 Y117.385 E2.06562
G1 X135.685 Y118.102 E2.10777
G1 X135.27 Y118.459 E2.13053
G1 X134.808 Y118.753 E2.1533
G1 X134.309 Y118.976 E2.17602
G1 X133.782 Y119.124 E2.19878
G1 X133.033 Y119.2 E2.23008
G1 X121.567 Y119.2 E2.70678
G1 X121.021 Y119.16 E2.72954
G1 X120.487 Y119.041 E2.75229
G1 X119.976 Y118.846 E2.77503
G1 X119.498 Y118.578 E2.79781
G1 X118.915 Y118.102 E2.8291
G1 X118.198 Y117.385 E2.87126
G1 X117.841 Y116.97 E2.89402
G1 X117.547 Y116.508 E2.91679
G1 X117.324 Y116.009 E2.93951
G1 X117.176 Y115.482 E2.96227
G1 X117.1 Y114.733 E2.99357
G1 X117.1 Y106.677 E3.3285
G1 X116.798 Y106.443 E3.34438
G1 X116.418 Y106.049 E3.36714
G1 X116.099 Y105.604 E3.3899
G1 X115.849 Y105.117 E3.41266
G1 X115.672 Y104.599 E3.43542
G1 X115.573 Y104.061 E3.45816
G1 X115.55 Y103.65 E3.47528
G1 X115.55 Y94.15 E3.87024
G1 X115.59 Y93.604 E3.893
G1 X115.709 Y93.07 E3.91575
G1 X115.904 Y92.559 E3.93849
G1 X116.172 Y92.081 E3.96127
G1 X116.507 Y91.648 E3.98403
G0 F9000 X117 Y91.854
G1 F1800 X117.387 Y91.522 E4.00523
G1 X117.822 Y91.256 E4.02643
G1 X118.292 Y91.06 E4.0476
G1 X118.787 Y90.941 E4.06876
G1 X119.3 Y90.9 E4.09016
G1 X135.7 Y90.9 E4.77199
G1 X136.208 Y90.94 E4.79318
G1 X136.703 Y91.059 E4.81435
G1 X137.174 Y91.254 E4.83554
G1 X137.609 Y91.52 E4.85674
G1 X137.996 Y91.85 E4.87788
G1 X138.328 Y92.237 E4.89908
G1 X138.594 Y92.672 E4.92028
G1 X138.79 Y93.142 E4.94145
G1 X138.909 Y93.637 E4.96262
G1 X138.95 Y94.15 E4.98401
G1 X138.95 Y103.65 E5.37898
G1 X138.91 Y104.158 E5.40016
G1 X138.791 Y104.653 E5.42133
G1 X138.596 Y105.124 E5.44252
G1 X138.33 Y105.559 E5.46372
G1 X138 Y105.946 E5.48487
G1 X137.613 Y106.278 E5.50607
G1 X137.178 Y106.544 E5.52726
G1 X137 Y106.618 E5.53528
G1 X137 Y114.733 E5.87266
G1 X136.96 Y115.241 E5.89385
G1 X136.841 Y115.736 E5.91501
G1 X136.646 Y116.207 E5.93621
G1 X136.38 Y116.642 E5.9574
G1 X136.048 Y117.031 E5.97867
G1 X135.331 Y117.748 E6.02082
G1 X134.944 Y118.079 E6.042
G1 X134.509 Y118.345 E6.06319
G1 X134.039 Y118.54 E6.08435
G1 X133.543 Y118.66 E6.10557
G1 X133.033 Y118.7 E6.12683
G1 X121.567 Y118.7 E6.60354
G1 X121.059 Y118.66 E6.62472
G1 X120.564 Y118.541 E6.64589
G1 X120.093 Y118.346 E6.66708
G1 X119.658 Y118.08 E6.68828
G1 X119.269 Y117.748 E6.70954
G1 X118.552 Y117.031 E6.7517
G1 X118.221 Y116.644 E6.77287
G1 X117.955 Y116.209 E6.79407
G1 X117.76 Y115.739 E6.81522
G1 X117.64 Y115.243 E6.83644
G1 X117.6 Y114.733 E6.85771
G1 X117.6 Y106.408 E7.20382
G1 X117.391 Y106.28 E7.21401
G1 X117.004 Y105.95 E7.23516
G1 X116.672 Y105.563 E7.25635
G1 X116.406 Y105.128 E7.27755
G1 X116.21 Y104.658 E7.29872
G1 X116.091 Y104.163 E7.31989
G1 X116.05 Y103.65 E7.34129
G1 X116.05 Y94.15 E7.73625
G1 X116.09 Y93.642 E7.75744
G1 X116.209 Y93.147 E7.7786
G1 X116.404 Y92.676 E7.7998
G1 X116.67 Y92.241 E7.82099
G1 X117 Y91.854 E7.84214
G0 F9000 X117.166 Y92.416
G1 F1800 X117.491 Y92.078 E7.86163
G1 X117.869 Y91.801 E7.88112
G1 X118.289 Y91.593 E7.9006
G1 X118.738 Y91.458 E7.9201
G1 X119.3 Y91.4 E7.94359
G1 X135.7 Y91.4 E8.62542
G1 X136.167 Y91.44 E8.6449
G1 X136.62 Y91.559 E8.66438
G1 X137.047 Y91.752 E8.68386
G1 X137.434 Y92.016 E8.70334
G1 X137.772 Y92.341 E8.72283
G1 X138.049 Y92.719 E8.74231
G1 X138.257 Y93.139 E8.7618
G1 X138.392 Y93.588 E8.78129
G1 X138.45 Y94.15 E8.80478
G1 X138.45 Y103.65 E9.19975
G1 X138.41 Y104.117 E9.21923
G1 X138.291 Y104.57 E9.23871
G1 X138.098 Y104.997 E9.25819
G1 X137.834 Y105.384 E9.27766
G1 X137.509 Y105.722 E9.29716
G1 X137.131 Y105.999 E9.31664
G1 X136.711 Y106.207 E9.33613
G1 X136.5 Y106.27 E9.34528
G1 X136.5 Y114.733 E9.69713
G1 X136.46 Y115.2 E9.71662
G1 X136.341 Y115.653 E9.73609
G1 X136.148 Y116.08 E9.75557
G1 X135.884 Y116.467 E9.77505
G1 X135.695 Y116.678 E9.78683
G1 X134.978 Y117.395 E9.82898
G1 X134.619 Y117.696 E9.84846
G1 X134.215 Y117.933 E9.86794
G1 X133.776 Y118.098 E9.88743
G1 X133.316 Y118.185 E9.9069
G1 X133.033 Y118.2 E9.91868
G1 X121.567 Y118.2 E10.39538
G1 X121.1 Y118.16 E10.41487
G1 X120.647 Y118.041 E10.43434
G1 X120.22 Y117.848 E10.45382
G1 X119.833 Y117.584 E10.4733
G1 X119.622 Y117.395 E10.48507
G1 X118.905 Y116.678 E10.52723
G1 X118.604 Y116.319 E10.54671
G1 X118.367 Y115.915 E10.56618
G1 X118.202 Y115.476 E10.58568
G1 X118.115 Y115.016 E10.60514
G1 X118.1 Y114.733 E10.61693
G1 X118.1 Y106.114 E10.97526
G1 X117.953 Y106.048 E10.98196
G1 X117.566 Y105.784 E11.00144
G1 X117.228 Y105.459 E11.02093
G1 X116.951 Y105.081 E11.04042
G1 X116.743 Y104.661 E11.0599
G1 X116.608 Y104.212 E11.0794
G1 X116.55 Y103.65 E11.10288
G1 X116.55 Y94.15 E11.49785
G1 X116.59 Y93.683 E11.51734
G1 X116.709 Y93.23 E11.53681
G1 X116.902 Y92.803 E11.55629
G1 X117.166 Y92.416 E11.57577
G0 F9000 X117.661 Y92.609
G1 F1800 X117.979 Y92.329 E11.59338
G1 X118.344 Y92.113 E11.61101
G1 X118.743 Y91.97 E11.62864
G1 X119.3 Y91.9 E11.65198
G1 X135.7 Y91.9 E12.33381
G1 X136.122 Y91.94 E12.35143
G1 X136.529 Y92.058 E12.36905
G1 X136.906 Y92.251 E12.38666
G1 X137.241 Y92.511 E12.40429
G1 X137.521 Y92.829 E12.4219
G1 X137.737 Y93.194 E12.43954
G1 X137.88 Y93.593 E12.45716
G1 X137.95 Y94.15 E12.4805
G1 X137.95 Y103.65 E12.87546
G1 X137.91 Y104.072 E12.89309
G1 X137.792 Y104.479 E12.9107
G1 X137.599 Y104.856 E12.92831
G1 X137.339 Y105.191 E12.94594
G1 X137.021 Y105.471 E12.96356
G1 X136.656 Y105.687 E12.98119
G1 X136.257 Y105.83 E12.99881
G1 X136 Y105.862 E13.00958
G1 X136 Y114.733 E13.37839
G1 X135.96 Y115.155 E13.39602
G1 X135.842 Y115.562 E13.41363
G1 X135.649 Y115.939 E13.43124
G1 X135.341 Y116.324 E13.45174
G1 X134.624 Y117.041 E13.4939
G1 X134.297 Y117.311 E13.51153
G1 X133.926 Y117.515 E13.52913
G1 X133.523 Y117.646 E13.54675
G1 X133.033 Y117.7 E13.56724
G1 X121.567 Y117.7 E14.04394
G1 X121.145 Y117.66 E14.06157
G1 X120.738 Y117.542 E14.07919
G1 X120.361 Y117.349 E14.09679
G1 X119.976 Y117.041 E14.11729
G1 X119.259 Y116.324 E14.15945
G1 X118.989 Y115.997 E14.17708
G1 X118.785 Y115.626 E14.19468
G1 X118.654 Y115.223 E14.2123
G1 X118.6 Y114.733 E14.2328
G1 X118.6 Y105.779 E14.60506
G1 X118.471 Y105.742 E14.61064
G1 X118.094 Y105.549 E14.62825
G1 X117.759 Y105.289 E14.64588
G1 X117.479 Y104.971 E14.66349
G1 X117.263 Y104.606 E14.68113
G1 X117.12 Y104.207 E14.69875
G1 X117.05 Y103.65 E14.72209
G1 X117.05 Y94.15 E15.11705
G1 X117.09 Y93.728 E15.13467
G1 X117.208 Y93.321 E15.15229
G1 X117.401 Y92.944 E15.1699
G1 X117.661 Y92.609 E15.18753
G0 F9000 X117.898 Y93.102
G1 F1800 X118.152 Y92.829 E15.20303
G1 X118.459 Y92.615 E15.21859
G1 X118.804 Y92.472 E15.23412
G1 X119.3 Y92.4 E15.25496
G1 X135.7 Y92.4 E15.93679
G1 X136.071 Y92.44 E15.9523
G1 X136.426 Y92.558 E15.96786
G1 X136.748 Y92.748 E15.9834
G1 X137.021 Y93.002 E15.9989
G1 X137.235 Y93.309 E16.01446
G1 X137.378 Y93.654 E16.02999
G1 X137.45 Y94.15 E16.05083
G1 X137.45 Y103.65 E16.44579
G1 X137.41 Y104.021 E16.4613
G1 X137.292 Y104.376 E16.47686
G1 X137.102 Y104.698 E16.4924
G1 X136.848 Y104.971 E16.5079
G1 X136.541 Y105.185 E16.52346
G1 X136.196 Y105.328 E16.53899
G1 X135.7 Y105.4 E16.55983
G1 X135.5 Y105.4 E16.56814
G1 X135.5 Y114.733 E16.95616
G1 X135.46 Y115.104 E16.97168
G1 X135.342 Y115.459 E16.98723
G1 X135.152 Y115.781 E17.00277
G1 X134.987 Y115.97 E17.0132
G1 X134.27 Y116.687 E17.05536
G1 X133.98 Y116.922 E17.07088
G1 X133.646 Y117.089 E17.0864
G1 X133.284 Y117.182 E17.10194
G1 X133.033 Y117.2 E17.11241
G1 X121.567 Y117.2 E17.58911
G1 X121.196 Y117.16 E17.60462
G1 X120.841 Y117.042 E17.62017
G1 X120.519 Y116.852 E17.63572
G1 X120.33 Y116.687 E17.64615
G1 X119.613 Y115.97 E17.68831
G1 X119.378 Y115.68 E17.70382
G1 X119.211 Y115.346 E17.71935
G1 X119.118 Y114.984 E17.73489
G1 X119.1 Y114.733 E17.74535
G1 X119.1 Y105.378 E18.13429
G1 X118.929 Y105.36 E18.14143
G1 X118.574 Y105.242 E18.15699
G1 X118.252 Y105.052 E18.17253
G1 X117.979 Y104.798 E18.18803
G1 X117.765 Y104.491 E18.20359
G1 X117.622 Y104.146 E18.21912
G1 X117.55 Y103.65 E18.23996
G1 X117.55 Y94.15 E18.63492
G1 X117.59 Y93.779 E18.65044
G1 X117.708 Y93.424 E18.66599
G1 X117.898 Y93.102 E18.68153
G0 F9000 X118.393 Y93.289
G1 F1800 X118.638 Y93.09 E18.69465
G1 X118.925 Y92.958 E18.70779
G1 X119.3 Y92.9 E18.72356
G1 X135.7 Y92.9 E19.4054
G1 X136.013 Y92.94 E19.41852
G1 X136.306 Y93.057 E19.43163
G1 X136.561 Y93.243 E19.44476
G1 X136.76 Y93.488 E19.45788
G1 X136.892 Y93.775 E19.47101
G1 X136.95 Y94.15 E19.48679
G1 X136.95 Y103.65 E19.88175
G1 X136.91 Y103.963 E19.89487
G1 X136.793 Y104.256 E19.90799
G1 X136.607 Y104.511 E19.92111
G1 X136.362 Y104.71 E19.93423
G1 X136.075 Y104.842 E19.94737
G1 X135.7 Y104.9 E19.96314
G1 X135 Y104.9 E19.99224
G1 X135 Y114.733 E20.40105
G1 X134.96 Y115.046 E20.41417
G1 X134.843 Y115.339 E20.42729
G1 X134.634 Y115.617 E20.44175
G1 X133.917 Y116.334 E20.48391
G1 X133.667 Y116.527 E20.49704
G1 X133.377 Y116.652 E20.51017
G1 X133.033 Y116.7 E20.52461
G1 X121.567 Y116.7 E21.00131
G1 X121.254 Y116.66 E21.01443
G1 X120.961 Y116.543 E21.02754
G1 X120.683 Y116.334 E21.042
G1 X119.966 Y115.617 E21.08416
G1 X119.773 Y115.367 E21.09729
G1 X119.648 Y115.077 E21.11042
G1 X119.6 Y114.733 E21.12486
G1 X119.6 Y104.9 E21.53367
G1 X119.3 Y104.9 E21.54614
G1 X118.987 Y104.86 E21.55926
G1 X118.694 Y104.743 E21.57238
G1 X118.439 Y104.557 E21.5855
G1 X118.24 Y104.312 E21.59862
G1 X118.108 Y104.025 E21.61175
G1 X118.05 Y103.65 E21.62753
G1 X118.05 Y94.15 E22.02249
G1 X118.09 Y93.837 E22.03561
G1 X118.207 Y93.544 E22.04873
G1 X118.393 Y93.289 E22.06185
G0 F9000 X118.705 Y93.694
G1 F1800 X118.883 Y93.527 E22.072
G1 X119.105 Y93.426 E22.08214
G1 X119.3 Y93.4 E22.09032
G1 X135.7 Y93.4 E22.77215
G1 X135.941 Y93.44 E22.78231
G1 X136.156 Y93.555 E22.79245
G1 X136.323 Y93.733 E22.80259
G1 X136.424 Y93.955 E22.81273
G1 X136.45 Y94.15 E22.82091
G1 X136.45 Y103.65 E23.21588
G1 X136.41 Y103.891 E23.22603
G1 X136.295 Y104.106 E23.23617
G1 X136.117 Y104.273 E23.24632
G1 X135.895 Y104.374 E23.25646
G1 X135.7 Y104.4 E23.26464
G1 X134.5 Y104.4 E23.31453
G1 X134.5 Y114.733 E23.74412
G1 X134.46 Y114.974 E23.75428
G1 X134.28 Y115.263 E23.76843
G1 X133.563 Y115.98 E23.81059
G1 X133.365 Y116.123 E23.82075
G1 X133.033 Y116.2 E23.83492
G1 X121.567 Y116.2 E24.31162
G1 X121.326 Y116.16 E24.32177
G1 X121.037 Y115.98 E24.33593
G1 X120.32 Y115.263 E24.37808
G1 X120.177 Y115.065 E24.38824
G1 X120.1 Y114.733 E24.40241
G1 X120.1 Y104.4 E24.832
G1 X119.3 Y104.4 E24.86526
G1 X119.059 Y104.36 E24.87542
G1 X118.844 Y104.245 E24.88556
G1 X118.677 Y104.067 E24.89571
G1 X118.576 Y103.845 E24.90585
G1 X118.55 Y103.65 E24.91402
G1 X118.55 Y94.15 E25.30899
G1 X118.59 Y93.909 E25.31915
G1 X118.705 Y93.694 E25.32928
G0 F9000 X119.089 Y94.016
G1 F1800 X119.195 Y93.923 E25.33515
G1 X119.3 Y93.9 E25.33961
G1 X135.7 Y93.9 E26.02145
G1 X135.834 Y93.939 E26.02725
G1 X135.927 Y94.045 E26.03311
G1 X135.95 Y94.15 E26.03758
G1 X135.95 Y103.65 E26.43254
G1 X135.911 Y103.784 E26.43835
G1 X135.805 Y103.877 E26.44421
G1 X135.7 Y103.9 E26.44868
G1 X134 Y103.9 E26.51936
G1 X134 Y114.733 E26.96974
G1 X133.927 Y114.91 E26.9777
G1 X133.21 Y115.627 E27.01986
G1 X133.033 Y115.7 E27.02782
G1 X121.567 Y115.7 E27.50452
G1 X121.39 Y115.627 E27.51248
G1 X120.673 Y114.91 E27.55464
G1 X120.6 Y114.733 E27.5626
G1 X120.6 Y103.9 E28.01298
G1 X119.3 Y103.9 E28.06703
G1 X119.166 Y103.861 E28.07283
G1 X119.073 Y103.755 E28.07869
G1 X119.05 Y103.65 E28.08316
G1 X119.05 Y94.15 E28.47812
G1 X119.089 Y94.016 E28.48393
G1 F1500 E21.98393
;MESH:usb_power_with_grip.stl
G0 F9000 X119.914 Y94.764
G0 X134.318 Y95.532
G0 X134.318 Y102.268
G0 X133.216 Y102.576
G0 X133.05 Y103.25
G1 F1500 E28.48393
G0 F9000 X133.35 Y103.25
;TYPE:WALL-OUTER
G1 F1800 X133.35 Y114.568 E28.86037
G1 X132.868 Y115.05 E28.88304
G1 X121.732 Y115.05 E29.25342
G1 X121.25 Y114.568 E29.27609
G1 X121.25 Y103.25 E29.65253
G1 X119.7 Y103.25 E29.70409
G1 X119.7 Y94.55 E29.99345
G1 X135.3 Y94.55 E30.51231
G1 X135.3 Y103.25 E30.80167
G1 X133.35 Y103.25 E30.86653
G0 F9000 X132.95 Y102.85
;TYPE:WALL-INNER
G1 F1800 X132.95 Y114.402 E31.25075
G1 X132.702 Y114.65 E31.26241
G1 X121.898 Y114.65 E31.62176
G1 X121.65 Y114.402 E31.63342
G1 X121.65 Y102.85 E32.01764
G1 X120.1 Y102.85 E32.06919
G1 X120.1 Y94.95 E32.33195
G1 X134.9 Y94.95 E32.8242
G1 X134.9 Y102.85 E33.08696
G1 X132.95 Y102.85 E33.15181
G0 F9000 X132.55 Y102.45
G1 F1800 X132.55 Y114.236 E33.54382
G1 X132.536 Y114.25 E33.54447
G1 X122.064 Y114.25 E33.89277
G1 X122.05 Y114.236 E33.89343
G1 X122.05 Y102.45 E34.28544
G1 X120.5 Y102.45 E34.33699
G1 X120.5 Y95.35 E34.57314
G1 X134.5 Y95.35 E35.03878
G1 X134.5 Y102.45 E35.27493
G1 X132.55 Y102.45 E35.33978
G0 F9000 X132.16 Y102.06
;TYPE:SKIN
G1 F1800 X132.16 Y113.86 E35.73225
G1 X122.44 Y113.86 E36.05554
G1 X122.44 Y102.06 E36.44801
G1 X120.89 Y102.06 E36.49956
G1 X120.89 Y95.74 E36.70977
G1 X134.11 Y95.74 E37.14947
G1 X134.11 Y102.06 E37.35967
G1 X132.16 Y102.06 E37.42453
G0 F9000 X132.41 Y102.31
G0 X134.318 Y102.268
G0 X134.39 Y96.048
G0 X133.949 Y96.048
G1 F1800 X133.8 Y95.899 E37.43154
G0 F9000 X133.235 Y95.899
G1 F1800 X133.949 Y96.614 E37.46515
G0 F9000 X133.949 Y97.179
G1 F1800 X132.669 Y95.899 E37.52535
G0 F9000 X132.103 Y95.899
G1 F1800 X133.949 Y97.745 E37.61218
G0 F9000 X133.949 Y98.311
G1 F1800 X131.538 Y95.899 E37.72561
G0 F9000 X130.972 Y95.899
G1 F1800 X133.949 Y98.876 E37.86564
G0 F9000 X133.949 Y99.442
G1 F1800 X130.406 Y95.899 E38.03229
G0 F9000 X129.841 Y95.899
G1 F1800 X133.949 Y100.008 E38.22554
G0 F9000 X133.949 Y100.573
G1 F1800 X129.275 Y95.899 E38.4454
G0 F9000 X128.709 Y95.899
G1 F1800 X133.949 Y101.139 E38.69187
G0 F9000 X133.949 Y101.705
G1 F1800 X128.144 Y95.899 E38.96494
G0 F9000 X127.578 Y95.899
G1 F1800 X133.578 Y101.9 E39.24719
G0 F9000 X133.013 Y101.9
G1 F1800 X127.012 Y95.899 E39.52946
G0 F9000 X126.446 Y95.899
G1 F1800 X132.447 Y101.9 E39.81172
G0 F9000 X131.999 Y102.018
G1 F1800 X125.881 Y95.899 E40.09952
G0 F9000 X125.315 Y95.899
G1 F1800 X131.999 Y102.584 E40.41394
G0 F9000 X131.999 Y103.149
G1 F1800 X124.749 Y95.899 E40.75496
G0 F9000 X124.184 Y95.899
G1 F1800 X131.999 Y103.715 E41.12257
G0 F9000 X131.999 Y104.281
G1 F1800 X123.618 Y95.899 E41.51681
G0 F9000 X123.052 Y95.899
G1 F1800 X131.999 Y104.846 E41.93765
G0 F9000 X131.999 Y105.412
G1 F1800 X122.487 Y95.899 E42.38509
G0 F9000 X121.921 Y95.899
G1 F1800 X131.999 Y105.978 E42.85915
G0 F9000 X131.999 Y106.544
G1 F1800 X121.355 Y95.899 E43.35984
G0 F9000 X121.048 Y96.158
G1 F1800 X131.999 Y107.109 E43.87494
G0 F9000 X131.999 Y107.675
G1 F1800 X121.048 Y96.724 E44.39004
G0 F9000 X121.048 Y97.29
G1 F1800 X131.999 Y108.241 E44.90514
G0 F9000 X131.999 Y108.806
