;FLAVOR:Marlin
;TIME:4456
;Filament used: 4.59511m
;Layer height: 0.2
;MINX:23.555
;MINY:60.24
;MINZ:0.2
;MAXX:159.623
;MAXY:184.556
;MAXZ:3
;Generated with Cura_SteamEngine 4.12.1
M140 S60
M105
M190 S60
M104 S205
M105
M109 S205
M82 ;absolute extrusion mode
M220 S100 ;reset feedrate
M221 S100 ;reset flowrate
G90 ;use absolute coordinates
M82 ;absolute extrusion mode
G28 ;home
G1 Z2 F1500 ;raise z
G92 E0 ;reset extruder

G1 X75 Y5 F5000 ;start position
G1 Z0.28 F1500 ;lower z
G1 E4 F500 ;prime the filament
G1 X180 E10 F500 ;1st line
G1 Y5.4 F5000
G1 X75 E20 F500 ;2nd line
G1 Z2 F1500 ;raise z
G92 E0 ;reset extruder
G92 E0
G92 E0
G1 F1500 E-6.5
;LAYER_COUNT:15
;LAYER:0
M107
G0 F9000 X113.95 Y78.14 Z0.2
;TYPE:SKIRT
G1 F1500 E0
G1 F1800 X113.95 Y80.39 E0.09354
G1 X113.91 Y80.936 E0.11631
G1 X113.791 Y81.47 E0.13905
G1 X113.688 Y81.74 E0.15107
G1 X141.05 Y81.74 E1.28864
G1 X141.05 Y78.14 E1.43832
G1 X113.95 Y78.14 E2.565
G0 F9000 X113.45 Y77.64
G1 F1800 X113.45 Y80.39 E2.67933
G1 X113.41 Y80.898 E2.70052
G1 X113.291 Y81.393 E2.72169
G1 X113.096 Y81.864 E2.74288
G1 X112.866 Y82.24 E2.7612
G1 X141.55 Y82.24 E3.95375
G1 X141.55 Y77.64 E4.14499
G1 X113.45 Y77.64 E5.31325
G0 F9000 X112.95 Y77.14
G1 F1800 X112.95 Y80.39 E5.44837
G1 X112.91 Y80.857 E5.46786
G1 X112.791 Y81.31 E5.48733
G1 X112.598 Y81.737 E5.50682
G1 X112.334 Y82.124 E5.52629
G1 X112.009 Y82.462 E5.54579
G1 X111.629 Y82.74 E5.56536
G1 X141.859 Y82.74 E6.82218
G1 X142.034 Y82.705 E6.8296
G1 X142.05 Y82.542 E6.83641
G1 X142.05 Y77.336 E7.05285
G1 X142.011 Y77.156 E7.06051
G1 X141.852 Y77.14 E7.06715
G1 X112.95 Y77.14 E8.26875
G0 F9000 X112.45 Y76.64
G1 F1800 X112.45 Y80.39 E8.42466
G1 X112.41 Y80.812 E8.44229
G1 X112.292 Y81.219 E8.4599
G1 X112.099 Y81.596 E8.47751
G1 X111.839 Y81.931 E8.49514
G1 X111.521 Y82.211 E8.51276
G1 X111.156 Y82.427 E8.53039
G1 X110.757 Y82.57 E8.54801
G1 X110.2 Y82.64 E8.57135
G1 X99.8 Y82.64 E9.00373
G1 X99.378 Y82.6 E9.02136
G1 X98.971 Y82.482 E9.03897
G1 X98.594 Y82.289 E9.05658
G1 X98.259 Y82.029 E9.07421
G1 X97.979 Y81.711 E9.09183
G1 X97.763 Y81.346 E9.10946
G1 X97.62 Y80.947 E9.12708
G1 X97.55 Y80.39 E9.15042
G1 X97.55 Y74.183 E9.40848
G1 X97.554 Y74.056 E9.41376
G1 X97.618 Y72.922 E9.46098
G1 X97.646 Y72.673 E9.4714
G1 X97.837 Y71.545 E9.51897
G1 X97.893 Y71.299 E9.52945
G1 X98.209 Y70.2 E9.577
G1 X98.294 Y69.957 E9.5877
G1 X98.734 Y68.9 E9.6353
G1 X98.84 Y68.679 E9.64549
G1 X99.393 Y67.675 E9.69315
G1 X99.529 Y67.459 E9.70376
G1 X100.189 Y66.529 E9.75117
G1 X100.346 Y66.332 E9.76164
G1 X101.108 Y65.479 E9.8092
G1 X101.287 Y65.3 E9.81972
G1 X102.141 Y64.537 E9.86733
G1 X102.338 Y64.38 E9.87781
G1 X103.27 Y63.719 E9.92531
G1 X103.483 Y63.585 E9.93577
G1 X104.486 Y63.03 E9.98343
G1 X104.714 Y62.92 E9.99395
G1 X105.769 Y62.483 E10.04143
G1 X106.008 Y62.4 E10.05195
G1 X107.107 Y62.084 E10.09949
G1 X107.352 Y62.028 E10.10994
G1 X108.482 Y61.836 E10.15759
G1 X108.732 Y61.808 E10.16805
G1 X109.867 Y61.744 E10.21531
G1 X109.994 Y61.74 E10.2206
G1 X145.2 Y61.74 E11.68429
G1 X145.622 Y61.78 E11.70192
G1 X146.018 Y61.895 E11.71906
G1 X146.255 Y61.908 E11.72893
G1 X146.505 Y61.936 E11.73939
G1 X147.625 Y62.126 E11.78662
G1 X147.871 Y62.182 E11.79711
G1 X148.959 Y62.495 E11.84417
G1 X149.201 Y62.579 E11.85482
G1 X150.245 Y63.013 E11.90183
G1 X150.467 Y63.121 E11.91209
G1 X151.461 Y63.669 E11.95928
G1 X151.676 Y63.804 E11.96984
G1 X152.597 Y64.457 E12.01678
G1 X152.795 Y64.614 E12.02728
G1 X153.64 Y65.369 E12.07439
G1 X153.819 Y65.548 E12.08492
G1 X154.575 Y66.394 E12.13209
G1 X154.732 Y66.591 E12.14256
G1 X155.386 Y67.513 E12.18956
G1 X155.521 Y67.727 E12.20008
G1 X156.07 Y68.721 E12.24729
G1 X156.179 Y68.948 E12.25776
G1 X156.612 Y69.993 E12.30478
G1 X156.695 Y70.231 E12.31526
G1 X157.008 Y71.318 E12.36229
G1 X157.064 Y71.564 E12.37278
G1 X157.254 Y72.682 E12.41993
G1 X157.282 Y72.934 E12.43047
G1 X157.297 Y73.201 E12.44159
G1 X157.38 Y73.433 E12.45183
G1 X157.45 Y73.99 E12.47517
G1 X157.45 Y85.698 E12.96193
G1 X157.446 Y85.825 E12.96722
G1 X157.382 Y86.959 E13.01444
G1 X157.354 Y87.208 E13.02486
G1 X157.163 Y88.336 E13.07242
G1 X157.107 Y88.584 E13.08299
G1 X156.79 Y89.683 E13.13054
G1 X156.706 Y89.922 E13.14108
G1 X156.267 Y90.979 E13.18866
G1 X156.159 Y91.202 E13.19896
G1 X155.606 Y92.205 E13.24658
G1 X155.472 Y92.42 E13.25711
G1 X154.812 Y93.351 E13.30456
G1 X154.654 Y93.549 E13.31509
G1 X153.892 Y94.402 E13.36264
G1 X153.712 Y94.582 E13.37323
G1 X152.857 Y95.345 E13.42087
G1 X152.662 Y95.501 E13.43125
G1 X151.731 Y96.162 E13.47872
G1 X151.515 Y96.297 E13.48931
G1 X150.511 Y96.851 E13.53699
G1 X150.285 Y96.96 E13.54742
G1 X149.23 Y97.397 E13.59489
G1 X148.993 Y97.48 E13.60533
G1 X147.895 Y97.797 E13.65285
G1 X147.646 Y97.854 E13.66347
G1 X146.516 Y98.045 E13.71111
G1 X146.268 Y98.072 E13.72149
G1 X145.133 Y98.136 E13.76875
G1 X145.006 Y98.14 E13.77403
G1 X113.119 Y98.14 E15.09974
G1 X112.792 Y98.193 E15.11351
G1 X112.619 Y98.309 E15.12217
G1 X112.501 Y98.485 E15.13098
G1 X112.45 Y98.809 E15.14462
G1 X112.45 Y104.072 E15.36343
G1 X112.502 Y104.397 E15.37711
G1 X112.621 Y104.573 E15.38594
G1 X112.793 Y104.688 E15.39455
G1 X113.124 Y104.74 E15.40848
G1 X141.876 Y104.74 E16.60384
G1 X142.207 Y104.688 E16.61777
G1 X142.379 Y104.573 E16.62638
G1 X142.498 Y104.397 E16.63521
G1 X142.55 Y104.071 E16.64893
G1 X142.55 Y100.99 E16.77703
G1 X142.59 Y100.568 E16.79465
G1 X142.708 Y100.161 E16.81227
G1 X142.901 Y99.784 E16.82988
G1 X143.161 Y99.449 E16.84751
G1 X143.479 Y99.169 E16.86512
G1 X143.844 Y98.953 E16.88276
G1 X144.243 Y98.81 E16.90038
G1 X144.8 Y98.74 E16.92372
G1 X155.2 Y98.74 E17.3561
G1 X155.622 Y98.78 E17.37372
G1 X156.029 Y98.898 E17.39134
G1 X156.406 Y99.091 E17.40895
G1 X156.741 Y99.351 E17.42658
G1 X157.021 Y99.669 E17.44419
G1 X157.237 Y100.034 E17.46183
G1 X157.38 Y100.433 E17.47945
G1 X157.45 Y100.99 E17.50279
G1 X157.45 Y107.196 E17.7608
G1 X157.446 Y107.323 E17.76609
G1 X157.382 Y108.458 E17.81335
G1 X157.354 Y108.707 E17.82377
G1 X157.163 Y109.834 E17.87129
G1 X157.108 Y110.079 E17.88173
G1 X156.792 Y111.179 E17.92931
G1 X156.707 Y111.421 E17.93998
G1 X156.268 Y112.478 E17.98756
G1 X156.16 Y112.702 E17.9979
G1 X155.606 Y113.706 E18.04557
G1 X155.471 Y113.921 E18.05613
G1 X154.811 Y114.851 E18.10354
G1 X154.654 Y115.048 E18.11401
G1 X153.892 Y115.901 E18.16157
G1 X153.713 Y116.08 E18.17209
G1 X152.859 Y116.843 E18.2197
G1 X152.662 Y117 E18.23018
G1 X151.73 Y117.661 E18.27768
G1 X151.517 Y117.795 E18.28814
G1 X150.514 Y118.35 E18.3358
G1 X150.286 Y118.46 E18.34633
G1 X149.231 Y118.897 E18.3938
G1 X148.992 Y118.98 E18.40432
G1 X147.893 Y119.296 E18.45186
G1 X147.648 Y119.352 E18.46231
G1 X146.518 Y119.544 E18.50996
G1 X146.268 Y119.572 E18.52042
G1 X145.133 Y119.636 E18.56769
G1 X145.006 Y119.64 E18.57297
G1 X109.994 Y119.64 E20.0286
G1 X109.867 Y119.636 E20.03388
G1 X108.732 Y119.572 E20.08114
G1 X108.482 Y119.544 E20.0916
G1 X107.352 Y119.352 E20.13926
G1 X107.107 Y119.296 E20.1497
G1 X106.008 Y118.98 E20.19725
G1 X105.767 Y118.896 E20.20786
G1 X104.712 Y118.458 E20.25535
G1 X104.487 Y118.35 E20.26572
G1 X103.484 Y117.796 E20.31336
G1 X103.27 Y117.661 E20.32388
G1 X102.338 Y117 E20.37139
G1 X102.141 Y116.843 E20.38186
G1 X101.287 Y116.08 E20.42947
G1 X101.108 Y115.901 E20.44
G1 X100.346 Y115.048 E20.48755
G1 X100.189 Y114.851 E20.49802
G1 X99.529 Y113.921 E20.54543
G1 X99.395 Y113.708 E20.5559
G1 X98.84 Y112.704 E20.60359
G1 X98.73 Y112.476 E20.61412
G1 X98.292 Y111.419 E20.66168
G1 X98.208 Y111.179 E20.67226
G1 X97.892 Y110.079 E20.71984
G1 X97.837 Y109.834 E20.73028
G1 X97.646 Y108.707 E20.7778
G1 X97.618 Y108.458 E20.78822
G1 X97.554 Y107.324 E20.83544
G1 X97.55 Y107.197 E20.84072
G1 X97.55 Y95.682 E21.31946
G1 X97.554 Y95.555 E21.32474
G1 X97.618 Y94.421 E21.37196
G1 X97.646 Y94.172 E21.38238
G1 X97.837 Y93.045 E21.42991
G1 X97.893 Y92.798 E21.44043
G1 X98.21 Y91.698 E21.48803
G1 X98.294 Y91.458 E21.4986
G1 X98.733 Y90.401 E21.54618
G1 X98.841 Y90.178 E21.55649
G1 X99.394 Y89.175 E21.6041
G1 X99.529 Y88.959 E21.61469
G1 X100.189 Y88.029 E21.66211
G1 X100.346 Y87.832 E21.67258
G1 X101.109 Y86.978 E21.72019
G1 X101.288 Y86.799 E21.73072
G1 X102.142 Y86.036 E21.77833
G1 X102.34 Y85.878 E21.78886
G1 X103.271 Y85.218 E21.83631
G1 X103.483 Y85.085 E21.84671
G1 X104.487 Y84.53 E21.8944
G1 X104.715 Y84.42 E21.90493
G1 X105.77 Y83.983 E21.9524
G1 X106.009 Y83.9 E21.96292
G1 X107.107 Y83.584 E22.01043
G1 X107.352 Y83.528 E22.02087
G1 X108.482 Y83.336 E22.06853
G1 X108.732 Y83.308 E22.07899
G1 X109.867 Y83.244 E22.12625
G1 X109.994 Y83.24 E22.13153
G1 X141.876 Y83.24 E23.45703
G1 X142.207 Y83.188 E23.47096
G1 X142.379 Y83.073 E23.47956
G1 X142.498 Y82.897 E23.4884
G1 X142.55 Y82.57 E23.50216
G1 X142.55 Y77.307 E23.72097
G1 X142.499 Y76.985 E23.73453
G1 X142.381 Y76.809 E23.74334
G1 X142.208 Y76.693 E23.752
G1 X141.881 Y76.64 E23.76577
G1 X112.45 Y76.64 E24.98937
G0 F9000 X111.95 Y76.14
G1 F1800 X111.95 Y80.39 E25.16606
G1 X111.91 Y80.761 E25.18158
G1 X111.792 Y81.116 E25.19713
G1 X111.602 Y81.438 E25.21267
G1 X111.348 Y81.711 E25.22818
G1 X111.041 Y81.925 E25.24373
G1 X110.696 Y82.068 E25.25926
G1 X110.2 Y82.14 E25.2801
G1 X99.8 Y82.14 E25.71248
G1 X99.429 Y82.1 E25.72799
G1 X99.074 Y81.982 E25.74355
G1 X98.752 Y81.792 E25.75909
G1 X98.479 Y81.538 E25.77459
G1 X98.265 Y81.231 E25.79015
G1 X98.122 Y80.886 E25.80568
G1 X98.05 Y80.39 E25.82652
G1 X98.05 Y74.183 E26.08457
G1 X98.053 Y74.084 E26.08869
G1 X98.117 Y72.95 E26.13591
G1 X98.139 Y72.757 E26.14399
G1 X98.33 Y71.629 E26.19155
G1 X98.373 Y71.437 E26.19973
G1 X98.689 Y70.338 E26.24728
G1 X98.755 Y70.149 E26.2556
G1 X99.195 Y69.092 E26.3032
G1 X99.278 Y68.921 E26.3111
G1 X99.831 Y67.917 E26.35876
G1 X99.937 Y67.748 E26.36705
G1 X100.597 Y66.818 E26.41446
G1 X100.719 Y66.665 E26.4226
G1 X101.481 Y65.812 E26.47015
G1 X101.62 Y65.673 E26.47832
G1 X102.474 Y64.91 E26.52594
G1 X102.628 Y64.788 E26.5341
G1 X103.56 Y64.127 E26.58161
G1 X103.725 Y64.023 E26.58972
G1 X104.728 Y63.468 E26.63737
G1 X104.905 Y63.382 E26.64556
G1 X105.96 Y62.945 E26.69303
G1 X106.146 Y62.88 E26.70122
G1 X107.245 Y62.564 E26.74877
G1 X107.436 Y62.521 E26.75691
G1 X108.566 Y62.329 E26.80456
G1 X108.76 Y62.307 E26.81268
G1 X109.895 Y62.243 E26.85994
G1 X109.994 Y62.24 E26.86406
G1 X145.2 Y62.24 E28.32775
G1 X145.571 Y62.28 E28.34327
G1 X145.898 Y62.389 E28.3576
G1 X146.227 Y62.407 E28.37129
G1 X146.422 Y62.429 E28.37945
G1 X147.542 Y62.619 E28.42668
G1 X147.733 Y62.662 E28.43482
G1 X148.821 Y62.975 E28.48189
G1 X149.009 Y63.041 E28.49017
G1 X150.053 Y63.475 E28.53718
G1 X150.226 Y63.558 E28.54516
G1 X151.22 Y64.106 E28.59235
G1 X151.387 Y64.211 E28.60055
G1 X152.308 Y64.864 E28.64749
G1 X152.462 Y64.987 E28.65568
G1 X153.307 Y65.742 E28.70279
G1 X153.446 Y65.881 E28.71097
G1 X154.202 Y66.727 E28.75814
G1 X154.324 Y66.881 E28.7663
G1 X154.978 Y67.803 E28.8133
G1 X155.083 Y67.969 E28.82147
G1 X155.632 Y68.963 E28.86868
G1 X155.717 Y69.139 E28.8768
G1 X156.15 Y70.184 E28.92383
G1 X156.215 Y70.37 E28.93202
G1 X156.528 Y71.457 E28.97905
G1 X156.571 Y71.648 E28.98719
G1 X156.761 Y72.766 E29.03434
G1 X156.783 Y72.961 E29.0425
G1 X156.803 Y73.312 E29.05711
G1 X156.878 Y73.494 E29.0653
G1 X156.95 Y73.99 E29.08613
G1 X156.95 Y85.698 E29.5729
G1 X156.947 Y85.797 E29.57701
G1 X156.883 Y86.931 E29.62424
G1 X156.861 Y87.124 E29.63231
G1 X156.67 Y88.252 E29.67988
G1 X156.626 Y88.445 E29.68811
G1 X156.309 Y89.544 E29.73566
G1 X156.244 Y89.73 E29.74385
G1 X155.805 Y90.787 E29.79144
G1 X155.722 Y90.961 E29.79945
G1 X155.169 Y91.964 E29.84707
G1 X155.064 Y92.131 E29.85527
G1 X154.404 Y93.062 E29.90272
G1 X154.281 Y93.216 E29.91091
G1 X153.519 Y94.069 E29.95846
G1 X153.379 Y94.209 E29.96669
G1 X152.524 Y94.972 E30.01434
G1 X152.372 Y95.093 E30.02241
G1 X151.441 Y95.754 E30.06988
G1 X151.273 Y95.859 E30.07812
G1 X150.269 Y96.413 E30.1258
G1 X150.094 Y96.498 E30.13388
G1 X149.039 Y96.935 E30.18136
G1 X148.854 Y96.999 E30.1895
G1 X147.756 Y97.316 E30.23701
G1 X147.563 Y97.361 E30.24525
G1 X146.433 Y97.552 E30.2929
G1 X146.24 Y97.573 E30.30097
G1 X145.105 Y97.637 E30.34823
G1 X145.006 Y97.64 E30.35235
G1 X113.101 Y97.64 E31.67881
G1 X112.792 Y97.67 E31.69171
G1 X112.426 Y97.822 E31.70819
G1 X112.132 Y98.116 E31.72548
G1 X111.98 Y98.481 E31.74191
G1 X111.95 Y98.79 E31.75482
G1 X111.95 Y104.09 E31.97517
G1 X111.98 Y104.4 E31.98812
G1 X112.133 Y104.765 E32.00457
G1 X112.425 Y105.058 E32.02177
G1 X112.791 Y105.21 E32.03825
G1 X113.096 Y105.24 E32.05099
G1 X141.904 Y105.24 E33.24869
G1 X142.209 Y105.21 E33.26143
G1 X142.575 Y105.058 E33.2779
G1 X142.867 Y104.765 E33.2951
G1 X143.02 Y104.399 E33.31159
G1 X143.05 Y104.089 E33.32454
G1 X143.05 Y100.99 E33.45338
G1 X143.09 Y100.619 E33.4689
G1 X143.208 Y100.264 E33.48445
G1 X143.398 Y99.942 E33.5
G1 X143.652 Y99.669 E33.5155
G1 X143.959 Y99.455 E33.53106
G1 X144.304 Y99.312 E33.54658
G1 X144.8 Y99.24 E33.56742
G1 X155.2 Y99.24 E33.9998
G1 X155.571 Y99.28 E34.01532
G1 X155.926 Y99.398 E34.03087
G1 X156.248 Y99.588 E34.04641
G1 X156.521 Y99.842 E34.06192
G1 X156.735 Y100.149 E34.07747
G1 X156.878 Y100.494 E34.093
G1 X156.95 Y100.99 E34.11384
G1 X156.95 Y107.196 E34.37185
G1 X156.947 Y107.295 E34.37597
G1 X156.883 Y108.43 E34.42324
G1 X156.861 Y108.623 E34.43131
G1 X156.67 Y109.75 E34.47883
G1 X156.627 Y109.941 E34.48697
G1 X156.311 Y111.041 E34.53456
G1 X156.245 Y111.229 E34.54284
G1 X155.806 Y112.286 E34.59042
G1 X155.722 Y112.46 E34.59846
G1 X155.168 Y113.464 E34.64613
G1 X155.063 Y113.632 E34.65437
G1 X154.403 Y114.562 E34.70178
G1 X154.281 Y114.715 E34.70992
G1 X153.519 Y115.568 E34.75747
G1 X153.38 Y115.707 E34.76564
G1 X152.526 Y116.47 E34.81325
G1 X152.372 Y116.592 E34.82142
G1 X151.44 Y117.253 E34.86893
G1 X151.275 Y117.357 E34.87704
G1 X150.272 Y117.912 E34.92469
G1 X150.095 Y117.998 E34.93287
G1 X149.04 Y118.435 E34.98035
G1 X148.854 Y118.5 E34.98854
G1 X147.755 Y118.816 E35.03608
G1 X147.564 Y118.859 E35.04422
G1 X146.434 Y119.051 E35.09188
G1 X146.24 Y119.073 E35.09999
G1 X145.105 Y119.137 E35.14726
G1 X145.006 Y119.14 E35.15138
G1 X109.994 Y119.14 E36.60701
G1 X109.895 Y119.137 E36.61112
G1 X108.76 Y119.073 E36.65839
G1 X108.566 Y119.051 E36.6665
G1 X107.436 Y118.859 E36.71416
G1 X107.245 Y118.816 E36.7223
G1 X106.146 Y118.5 E36.76984
G1 X105.959 Y118.434 E36.77808
G1 X104.904 Y117.996 E36.82557
G1 X104.729 Y117.912 E36.83364
G1 X103.726 Y117.358 E36.88128
G1 X103.56 Y117.253 E36.88945
G1 X102.628 Y116.592 E36.93695
G1 X102.474 Y116.47 E36.94512
G1 X101.62 Y115.707 E36.99273
G1 X101.481 Y115.568 E37.00091
G1 X100.719 Y114.715 E37.04846
G1 X100.597 Y114.562 E37.05659
G1 X99.937 Y113.632 E37.10401
G1 X99.832 Y113.466 E37.11217
G1 X99.277 Y112.462 E37.15987
G1 X99.192 Y112.285 E37.16803
G1 X98.754 Y111.228 E37.2156
G1 X98.689 Y111.041 E37.22383
G1 X98.373 Y109.941 E37.27141
G1 X98.33 Y109.75 E37.27955
G1 X98.139 Y108.623 E37.32708
G1 X98.117 Y108.43 E37.33515
G1 X98.053 Y107.296 E37.38237
G1 X98.05 Y107.197 E37.38649
G1 X98.05 Y95.682 E37.86523
G1 X98.053 Y95.583 E37.86935
G1 X98.117 Y94.449 E37.91657
G1 X98.139 Y94.256 E37.92464
G1 X98.33 Y93.129 E37.97217
G1 X98.373 Y92.936 E37.98039
G1 X98.69 Y91.836 E38.02798
G1 X98.756 Y91.65 E38.03619
G1 X99.195 Y90.593 E38.08377
G1 X99.278 Y90.419 E38.09179
G1 X99.831 Y89.416 E38.1394
G1 X99.937 Y89.248 E38.14766
G1 X100.597 Y88.318 E38.19508
G1 X100.719 Y88.165 E38.20321
G1 X101.482 Y87.311 E38.25082
G1 X101.621 Y87.172 E38.259
G1 X102.475 Y86.409 E38.30661
G1 X102.629 Y86.286 E38.3148
G1 X103.56 Y85.626 E38.36225
G1 X103.725 Y85.522 E38.37036
G1 X104.729 Y84.967 E38.41805
G1 X104.906 Y84.882 E38.42621
G1 X105.961 Y84.445 E38.47369
G1 X106.147 Y84.38 E38.48188
G1 X107.245 Y84.064 E38.52938
G1 X107.436 Y84.021 E38.53752
G1 X108.566 Y83.829 E38.58518
G1 X108.76 Y83.807 E38.59329
G1 X109.895 Y83.743 E38.64056
G1 X109.994 Y83.74 E38.64467
G1 X141.904 Y83.74 E39.97134
G1 X142.209 Y83.71 E39.98408
G1 X142.575 Y83.558 E40.00056
G1 X142.867 Y83.265 E40.01775
G1 X143.02 Y82.899 E40.03425
G1 X143.05 Y82.589 E40.0472
G1 X143.05 Y77.289 E40.26754
G1 X143.02 Y76.982 E40.28037
G1 X142.868 Y76.616 E40.29684
G1 X142.575 Y76.322 E40.3141
